( Made using CamBam - http://www.cambam.co.uk )
( Cassette Adapter 11/4/2018 9:11:07 AM )
( T1 : 0.125 )
( T2 : 0.1181 )
( T3 : 0.0397 )
( T4 : 0.032 )
( T5 : 0.028 )
( T6 : 0.008 )
( T7 : 0.0625 )
( CUTVIEWER )
( FROM/0,0,5 )
( Select dummy tool to avoid warnings )
( TOOL/MILL,1,0,20.0,0 )
( STOCK/BLOCK,3.0,2.5,0.0625,1.5,1.25,0.0625 )
G20 G90 G91.1 G64 G40
G0 Z0.125
( T1 : 0.125 )
( Tool Taper coming soon )
( TOOL/MILL,0.125,0.0,0.0,0 )
T1 M6
( Drill 1/8" Alignment )
G17
M3 S1000
G0 X-1.375 Y1.0
G98
G83 X-1.375 Y1.0 Z-0.4 Q0.05 R0.02 F2.0
G83 Y-1.0 Z-0.4
G83 X1.375 Z-0.4
G83 Y1.0 Z-0.4
G80
( Drill 3mm, 0.1181" )
G0 Z0.125
( T2 : 0.1181 )
( Tool Taper coming soon )
( TOOL/MILL,0.1181,0.0,0.0,0 )
T2 M6
M3 S1000
G0 X0.96 Y0.8022
G98
G81 X0.96 Y0.8022 Z-0.08 R0.125 F5.0
G81 X0.5675 Y0.8722 Z-0.08
G81 X0.3825 Z-0.08
G81 X-0.935 Y-0.1978 Z-0.08
G80
( Drill 1mm, 0.0397" )
G0 Z0.125
( T3 : 0.0397 )
( Tool Taper coming soon )
( TOOL/MILL,0.0397,0.0,0.0,0 )
T3 M6
M3 S1000
G0 X-0.525 Y0.8003
G98
G81 X-0.525 Y0.8003 Z-0.08 R0.125 F5.0
G81 X-0.714 Y0.6822 Z-0.08
G81 X-0.525 Y0.5601 Z-0.08
G81 X0.2978 Y0.584 Z-0.08
G81 Y0.7021 Z-0.08
G81 X0.4159 Z-0.08
G81 X0.5341 Z-0.08
G81 Y0.584 Z-0.08
G81 X0.4159 Z-0.08
G81 X0.6522 Z-0.08
G81 Y0.7021 Z-0.08
G80
( Drill #67, 0.032" )
G0 Z0.125
( T4 : 0.032 )
( Tool Taper coming soon )
( TOOL/MILL,0.032,0.0,0.0,0 )
T4 M6
M3 S1000
G0 X0.925 Y0.1722
G98
G81 X0.925 Y0.1722 Z-0.08 R0.125 F5.0
G81 Y-0.0278 Z-0.08
G81 X0.825 Z-0.08
G81 X0.455 Y0.0872 Z-0.08
G81 Y0.1872 Z-0.08
G81 X0.155 Z-0.08
G81 Y0.0872 Z-0.08
G81 X0.005 Y0.0722 Z-0.08
G81 Y0.2072 Z-0.08
G81 Y0.3272 Z-0.08
G81 X-0.13 Y0.5022 Z-0.08
G81 Y0.6022 Z-0.08
G81 X-0.03 Z-0.08
G81 X-0.395 Y0.3272 Z-0.08
G81 Y0.2072 Z-0.08
G81 Y0.0722 Z-0.08
G81 X-0.735 Y0.1972 Z-0.08
G81 X-0.81 Y0.2472 Z-0.08
G81 X-0.735 Y0.2972 Z-0.08
G81 X0.925 Y0.5722 Z-0.08
G80
( Drill #70, 0.028" )
G0 Z0.125
( T5 : 0.028 )
( Tool Taper coming soon )
( TOOL/MILL,0.028,0.0,0.0,0 )
T5 M6
M3 S1000
G0 X0.78 Y0.4922
G98
G81 X0.78 Y0.4922 Z-0.08 R0.125 F5.0
G81 X0.4744 Z-0.08
G81 X0.392 Y-0.2778 Z-0.08
G81 X0.236 Z-0.08
G81 X0.08 Z-0.08
G81 X-0.076 Z-0.08
G81 X-0.232 Z-0.08
G81 X-0.375 Z-0.08
G81 X-0.735 Y-0.0278 Z-0.08
G81 Y0.0422 Z-0.08
G80
( Isolation, 60V )
G0 Z0.125
( T6 : 0.008 )
( Tool Taper coming soon )
( TOOL/MILL,0.008,0.0,0.0,0 )
T6 M6
M3 S1000
G0 X0.7896 Y-0.0038
G0 Z0.012
G1 F5.0 Z-0.004
G1 F10.0 X0.7349
G1 X0.627 Y0.1042
G3 X0.61 Y0.1112 I-0.017 J-0.017
G1 X0.5155
G3 X0.481 Y0.1292 I-0.0345 J-0.024
G1 X0.429
G3 Y0.0452 I0.0 J-0.042
G1 X0.481
G3 X0.5155 Y0.0632 I0.0 J0.042
G1 X0.6001
G1 X0.708 Y-0.0448
G3 X0.725 Y-0.0518 I0.017 J0.017
G1 X0.7896
G1 X0.8029 Y-0.0651
G3 X0.8142 Y-0.0698 I0.0113 J0.0113
G1 X0.8358
G3 X0.8471 Y-0.0651 I0.0 J0.016
G1 X0.8623 Y-0.0499
G3 X0.867 Y-0.0386 I-0.0113 J0.0113
G1 Y-0.017
G3 X0.8623 Y-0.0057 I-0.016 J0.0
G1 X0.8471 Y0.0095
G3 X0.8358 Y0.0142 I-0.0113 J-0.0113
G1 X0.8142
G3 X0.8029 Y0.0095 I0.0 J-0.016
G1 X0.7896 Y-0.0038
G1 F5.0 X0.7919 Y-0.0061
G1 F10.0 X0.7909 Y-0.007
G1 X0.7336
G1 X0.6247 Y0.1019
G3 X0.61 Y0.108 I-0.0147 J-0.0147
G1 X0.5138
G3 X0.481 Y0.126 I-0.0328 J-0.0208
G1 X0.429
G3 Y0.0484 I0.0 J-0.0388
G1 X0.481
G3 X0.5138 Y0.0664 I0.0 J0.0388
G1 X0.6014
G1 X0.7103 Y-0.0425
G3 X0.725 Y-0.0486 I0.0147 J0.0147
G1 X0.7909
G1 X0.8052 Y-0.0629
G3 X0.8142 Y-0.0666 I0.0091 J0.0091
G1 X0.8358
G3 X0.8448 Y-0.0629 I0.0 J0.0128
G1 X0.8601 Y-0.0476
G3 X0.8638 Y-0.0386 I-0.0091 J0.0091
G1 Y-0.017
G3 X0.8601 Y-0.008 I-0.0128 J0.0
G1 X0.8448 Y0.0072
G3 X0.8358 Y0.011 I-0.0091 J-0.0091
G1 X0.8142
G3 X0.8052 Y0.0072 I0.0 J-0.0128
G1 X0.7919 Y-0.0061
G1 F5.0 X0.7941 Y-0.0083
G1 F10.0 X0.7923 Y-0.0102
G1 X0.7323
G1 X0.6224 Y0.0996
G3 X0.61 Y0.1048 I-0.0124 J-0.0124
G1 X0.5119
G3 X0.481 Y0.1228 I-0.0309 J-0.0176
G1 X0.429
G3 Y0.0516 I0.0 J-0.0356
G1 X0.481
G3 X0.5119 Y0.0696 I0.0 J0.0356
G1 X0.6027
G1 X0.7126 Y-0.0403
G3 X0.725 Y-0.0454 I0.0124 J0.0124
G1 X0.7923
G1 X0.8074 Y-0.0606
G3 X0.8142 Y-0.0634 I0.0068 J0.0068
G1 X0.8358
G3 X0.8426 Y-0.0606 I0.0 J0.0096
G1 X0.8578 Y-0.0454
G3 X0.8606 Y-0.0386 I-0.0068 J0.0068
G1 Y-0.017
G3 X0.8578 Y-0.0103 I-0.0096 J0.0
G1 X0.8426 Y0.005
G3 X0.8358 Y0.0078 I-0.0068 J-0.0068
G1 X0.8142
G3 X0.8074 Y0.005 I0.0 J-0.0096
G1 X0.7941 Y-0.0083
G1 F5.0 X0.7964 Y-0.0106
G1 F10.0 X0.7945 Y-0.0125
G3 X0.7937 Y-0.0134 I0.0045 J-0.0045
G1 X0.731
G1 X0.6202 Y0.0974
G3 X0.61 Y0.1016 I-0.0102 J-0.0102
G1 X0.51
G3 X0.481 Y0.1196 I-0.029 J-0.0144
G1 X0.429
G3 Y0.0548 I0.0 J-0.0324
G1 X0.481
G3 X0.51 Y0.0728 I0.0 J0.0324
G1 X0.604
G1 X0.7148 Y-0.038
G3 X0.725 Y-0.0422 I0.0102 J0.0102
G1 X0.7937
G3 X0.7945 Y-0.0431 I0.0053 J0.0036
G1 X0.8097 Y-0.0583
G3 X0.8142 Y-0.0602 I0.0045 J0.0045
G1 X0.8358
G3 X0.8403 Y-0.0583 I0.0 J0.0064
G1 X0.8555 Y-0.0431
G3 X0.8574 Y-0.0386 I-0.0045 J0.0045
G1 Y-0.017
G3 X0.8555 Y-0.0125 I-0.0064 J0.0
G1 X0.8403 Y0.0027
G3 X0.8358 Y0.0046 I-0.0045 J-0.0045
G1 X0.8142
G3 X0.8097 Y0.0027 I0.0 J-0.0064
G1 X0.7964 Y-0.0106
G1 F5.0 X0.7981 Y-0.0123
G1 F10.0 X0.7962 Y-0.0142
G3 X0.7952 Y-0.0158 I0.0028 J-0.0028
G1 X0.73
G1 X0.6185 Y0.0957
G3 X0.61 Y0.0992 I-0.0085 J-0.0085
G1 X0.5085
G3 X0.481 Y0.1172 I-0.0275 J-0.012
G1 X0.429
G3 Y0.0572 I0.0 J-0.03
G1 X0.481
G3 X0.5085 Y0.0752 I0.0 J0.03
G1 X0.605
G1 X0.7165 Y-0.0363
G3 X0.725 Y-0.0398 I0.0085 J0.0085
G1 X0.7952
G3 X0.7962 Y-0.0414 I0.0038 J0.0012
G1 X0.8114 Y-0.0566
G3 X0.8142 Y-0.0578 I0.0028 J0.0028
G1 X0.8358
G3 X0.8386 Y-0.0566 I0.0 J0.004
G1 X0.8538 Y-0.0414
G3 X0.855 Y-0.0386 I-0.0028 J0.0028
G1 Y-0.017
G3 X0.8538 Y-0.0142 I-0.004 J0.0
G1 X0.8386 Y0.001
G3 X0.8358 Y0.0022 I-0.0028 J-0.0028
G1 X0.8142
G3 X0.8114 Y0.001 I0.0 J-0.004
G1 X0.7981 Y-0.0123
G0 Z0.125
G0 X0.883 Y-0.0163
G0 Z0.012
G1 F5.0 Z-0.004
G3 F10.0 Y-0.017 I0.016 J-0.0008
G1 Y-0.0386
G3 X0.8877 Y-0.0499 I0.016 J0.0
G1 X0.9029 Y-0.0651
G3 X0.9142 Y-0.0698 I0.0113 J0.0113
G1 X0.9358
G3 X0.9471 Y-0.0651 I0.0 J0.016
G1 X0.9623 Y-0.0499
G3 X0.967 Y-0.0386 I-0.0113 J0.0113
G1 Y-0.017
G3 X0.9623 Y-0.0057 I-0.016 J0.0
G1 X0.9471 Y0.0095
G3 X0.9358 Y0.0142 I-0.0113 J-0.0113
G1 X0.9142
G3 X0.9029 Y0.0095 I0.0 J-0.016
G1 X0.8877 Y-0.0057
G3 X0.883 Y-0.0163 I0.0113 J-0.0113
G1 F5.0 X0.8862 Y-0.0164
G3 F10.0 Y-0.017 I0.0128 J-0.0006
G1 Y-0.0386
G3 X0.8899 Y-0.0476 I0.0128 J0.0
G1 X0.9052 Y-0.0629
G3 X0.9142 Y-0.0666 I0.0091 J0.0091
G1 X0.9358
G3 X0.9448 Y-0.0629 I0.0 J0.0128
G1 X0.9601 Y-0.0476
G3 X0.9638 Y-0.0386 I-0.0091 J0.0091
G1 Y-0.017
G3 X0.9601 Y-0.008 I-0.0128 J0.0
G1 X0.9448 Y0.0072
G3 X0.9358 Y0.011 I-0.0091 J-0.0091
G1 X0.9142
G3 X0.9052 Y0.0072 I0.0 J-0.0128
G1 X0.8899 Y-0.008
G3 X0.8862 Y-0.0164 I0.0091 J-0.0091
G1 F5.0 X0.8894 Y-0.0166
G3 F10.0 Y-0.017 I0.0096 J-0.0005
G1 Y-0.0386
G3 X0.8922 Y-0.0454 I0.0096 J0.0
G1 X0.9074 Y-0.0606
G3 X0.9142 Y-0.0634 I0.0068 J0.0068
G1 X0.9358
G3 X0.9426 Y-0.0606 I0.0 J0.0096
G1 X0.9578 Y-0.0454
G3 X0.9606 Y-0.0386 I-0.0068 J0.0068
G1 Y-0.017
G3 X0.9578 Y-0.0103 I-0.0096 J0.0
G1 X0.9426 Y0.005
G3 X0.9358 Y0.0078 I-0.0068 J-0.0068
G1 X0.9142
G3 X0.9074 Y0.005 I0.0 J-0.0096
G1 X0.8922 Y-0.0103
G3 X0.8894 Y-0.0166 I0.0068 J-0.0068
G1 F5.0 X0.8926 Y-0.0167
G3 F10.0 Y-0.017 I0.0064 J-0.0003
G1 Y-0.0386
G3 X0.8945 Y-0.0431 I0.0064 J0.0
G1 X0.9097 Y-0.0583
G3 X0.9142 Y-0.0602 I0.0045 J0.0045
G1 X0.9358
G3 X0.9403 Y-0.0583 I0.0 J0.0064
G1 X0.9555 Y-0.0431
G3 X0.9574 Y-0.0386 I-0.0045 J0.0045
G1 Y-0.017
G3 X0.9555 Y-0.0125 I-0.0064 J0.0
G1 X0.9403 Y0.0027
G3 X0.9358 Y0.0046 I-0.0045 J-0.0045
G1 X0.9142
G3 X0.9097 Y0.0027 I0.0 J-0.0064
G1 X0.8945 Y-0.0125
G3 X0.8926 Y-0.0167 I0.0045 J-0.0045
G1 F5.0 X0.895 Y-0.0169
G3 F10.0 Y-0.017 I0.004 J-0.0002
G1 Y-0.0386
G3 X0.8962 Y-0.0414 I0.004 J0.0
G1 X0.9114 Y-0.0566
G3 X0.9142 Y-0.0578 I0.0028 J0.0028
G1 X0.9358
G3 X0.9386 Y-0.0566 I0.0 J0.004
G1 X0.9538 Y-0.0414
G3 X0.955 Y-0.0386 I-0.0028 J0.0028
G1 Y-0.017
G3 X0.9538 Y-0.0142 I-0.004 J0.0
G1 X0.9386 Y0.001
G3 X0.9358 Y0.0022 I-0.0028 J-0.0028
G1 X0.9142
G3 X0.9114 Y0.001 I0.0 J-0.004
G1 X0.8962 Y-0.0142
G3 X0.895 Y-0.0169 I0.0028 J-0.0028
G0 Z0.125
G0 X0.9124 Y0.1303
G0 Z0.012
G1 F5.0 Z-0.004
G3 F10.0 X0.9142 Y0.1302 I0.0019 J0.0159
G1 X0.9358
G3 X0.9471 Y0.1349 I0.0 J0.016
G1 X0.9623 Y0.1501
G3 X0.967 Y0.1614 I-0.0113 J0.0113
G1 Y0.183
G3 X0.9623 Y0.1943 I-0.016 J0.0
G1 X0.9471 Y0.2095
G3 X0.9358 Y0.2142 I-0.0113 J-0.0113
G1 X0.9142
G3 X0.9029 Y0.2095 I0.0 J-0.016
G1 X0.8877 Y0.1943
G3 X0.883 Y0.183 I0.0113 J-0.0113
G1 Y0.1614
G3 X0.8877 Y0.1501 I0.016 J0.0
G1 X0.9029 Y0.1349
G3 X0.9124 Y0.1303 I0.0113 J0.0113
G1 F5.0 X0.9127 Y0.1335
G3 F10.0 X0.9142 Y0.1334 I0.0015 J0.0127
G1 X0.9358
G3 X0.9448 Y0.1371 I0.0 J0.0128
G1 X0.9601 Y0.1524
G3 X0.9638 Y0.1614 I-0.0091 J0.0091
G1 Y0.183
G3 X0.9601 Y0.192 I-0.0128 J0.0
G1 X0.9448 Y0.2072
G3 X0.9358 Y0.211 I-0.0091 J-0.0091
G1 X0.9142
G3 X0.9052 Y0.2072 I0.0 J-0.0128
G1 X0.8899 Y0.192
G3 X0.8862 Y0.183 I0.0091 J-0.0091
G1 Y0.1614
G3 X0.8899 Y0.1524 I0.0128 J0.0
G1 X0.9052 Y0.1371
G3 X0.9127 Y0.1335 I0.0091 J0.0091
G1 F5.0 X0.9131 Y0.1366
G3 F10.0 X0.9142 I0.0011 J0.0095
G1 X0.9358
G3 X0.9426 Y0.1394 I0.0 J0.0096
G1 X0.9578 Y0.1546
G3 X0.9606 Y0.1614 I-0.0068 J0.0068
G1 Y0.183
G3 X0.9578 Y0.1897 I-0.0096 J0.0
G1 X0.9426 Y0.205
G3 X0.9358 Y0.2078 I-0.0068 J-0.0068
G1 X0.9142
G3 X0.9074 Y0.205 I0.0 J-0.0096
G1 X0.8922 Y0.1897
G3 X0.8894 Y0.183 I0.0068 J-0.0068
G1 Y0.1614
G3 X0.8922 Y0.1546 I0.0096 J0.0
G1 X0.9074 Y0.1394
G3 X0.9131 Y0.1366 I0.0068 J0.0068
G1 F5.0 X0.9135 Y0.1398
G3 F10.0 X0.9142 I0.0007 J0.0064
G1 X0.9358
G3 X0.9403 Y0.1417 I0.0 J0.0064
G1 X0.9555 Y0.1569
G3 X0.9574 Y0.1614 I-0.0045 J0.0045
G1 Y0.183
G3 X0.9555 Y0.1875 I-0.0064 J0.0
G1 X0.9403 Y0.2027
G3 X0.9358 Y0.2046 I-0.0045 J-0.0045
G1 X0.9142
G3 X0.9097 Y0.2027 I0.0 J-0.0064
G1 X0.8945 Y0.1875
G3 X0.8926 Y0.183 I0.0045 J-0.0045
G1 Y0.1614
G3 X0.8945 Y0.1569 I0.0064 J0.0
G1 X0.9097 Y0.1417
G3 X0.9135 Y0.1398 I0.0045 J0.0045
G1 F5.0 X0.9138 Y0.1422
G3 F10.0 X0.9142 I0.0005 J0.004
G1 X0.9358
G3 X0.9386 Y0.1434 I0.0 J0.004
G1 X0.9538 Y0.1586
G3 X0.955 Y0.1614 I-0.0028 J0.0028
G1 Y0.183
G3 X0.9538 Y0.1858 I-0.004 J0.0
G1 X0.9386 Y0.201
G3 X0.9358 Y0.2022 I-0.0028 J-0.0028
G1 X0.9142
G3 X0.9114 Y0.201 I0.0 J-0.004
G1 X0.8962 Y0.1858
G3 X0.895 Y0.183 I0.0028 J-0.0028
G1 Y0.1614
G3 X0.8962 Y0.1586 I0.004 J0.0
G1 X0.9114 Y0.1434
G3 X0.9138 Y0.1422 I0.0028 J0.0028
G0 Z0.125
G0 X0.699 Y0.3075
G0 Z0.012
G1 F5.0 Z-0.004
G3 F10.0 X0.704 Y0.3222 I-0.019 J0.0146
G1 Y0.4317
G1 X0.7721 Y0.4623
G3 X0.7524 Y0.5061 I0.0079 J0.0299
G1 X0.6702 Y0.4691
G3 X0.656 Y0.4472 I0.0098 J-0.0219
G1 Y0.3334
G1 X0.6413 Y0.3212
G1 X0.405
G3 X0.3891 Y0.3151 I0.0 J-0.024
G1 X0.3441 Y0.2751
G3 X0.336 Y0.2572 I0.0159 J-0.0179
G1 Y-0.1182
G1 X0.0991 Y-0.2409
G3 X0.054 Y-0.3103 I-0.0191 J-0.0369
G1 Y-0.6093
G1 X0.0425
G3 X0.0265 Y-0.6253 I0.0 J-0.016
G1 Y-0.9503
G3 X0.0425 Y-0.9663 I0.016 J0.0
G1 X0.1175
G3 X0.1335 Y-0.9503 I0.0 J0.016
G1 Y-0.6253
G3 X0.1175 Y-0.6093 I-0.016 J0.0
G1 X0.106
G1 Y-0.3103
G3 X0.1212 Y-0.2835 I-0.026 J0.0325
G1 X0.371 Y-0.1541
G3 X0.384 Y-0.1328 I-0.011 J0.0213
G1 Y0.2464
G1 X0.4141 Y0.2732
G1 X0.65
G3 X0.6654 Y0.2787 I0.0 J0.024
G1 X0.6954 Y0.3037
G3 X0.699 Y0.3075 I-0.0154 J0.0184
G1 F5.0 X0.6965 Y0.3095
G3 F10.0 X0.7008 Y0.3222 I-0.0165 J0.0127
G1 Y0.4337
G1 X0.7719 Y0.4657
G3 X0.7548 Y0.5036 I0.0081 J0.0265
G1 X0.6715 Y0.4661
G3 X0.6592 Y0.4472 I0.0085 J-0.019
G1 Y0.3319
G1 X0.6425 Y0.318
G1 X0.405
G3 X0.3912 Y0.3127 I0.0 J-0.0208
G1 X0.3462 Y0.2727
G3 X0.3392 Y0.2572 I0.0138 J-0.0155
G1 Y-0.1202
G1 X0.0991 Y-0.2445
G3 X0.0572 Y-0.3087 I-0.0191 J-0.0333
G1 Y-0.6125
G1 X0.0425
G3 X0.0297 Y-0.6253 I0.0 J-0.0128
G1 Y-0.9503
G3 X0.0425 Y-0.9631 I0.0128 J0.0
G1 X0.1175
G3 X0.1303 Y-0.9503 I0.0 J0.0128
G1 Y-0.6253
G3 X0.1175 Y-0.6125 I-0.0128 J0.0
G1 X0.1028
G1 Y-0.3087
G3 X0.1182 Y-0.2815 I-0.0228 J0.0309
G1 X0.3696 Y-0.1513
G3 X0.3808 Y-0.1328 I-0.0096 J0.0185
G1 Y0.2478
G1 X0.4129 Y0.2764
G1 X0.65
G3 X0.6633 Y0.2812 I0.0 J0.0208
G1 X0.6933 Y0.3062
G3 X0.6965 Y0.3095 I-0.0133 J0.016
G1 F5.0 X0.6939 Y0.3114
G3 F10.0 X0.6976 Y0.3222 I-0.0139 J0.0107
G1 Y0.4358
G1 X0.7717 Y0.4691
G3 X0.7572 Y0.5012 I0.0083 J0.023
G1 X0.6728 Y0.4632
G3 X0.6624 Y0.4472 I0.0072 J-0.016
G1 Y0.3304
G1 X0.6436 Y0.3148
G1 X0.405
G3 X0.3933 Y0.3103 I0.0 J-0.0176
G1 X0.3483 Y0.2703
G3 X0.3424 Y0.2572 I0.0117 J-0.0132
G1 Y-0.1221
G1 X0.099 Y-0.2482
G3 X0.0604 Y-0.307 I-0.019 J-0.0296
G1 Y-0.6157
G1 X0.0425
G3 X0.0329 Y-0.6253 I0.0 J-0.0096
G1 Y-0.9503
G3 X0.0425 Y-0.9599 I0.0096 J0.0
G1 X0.1175
G3 X0.1271 Y-0.9503 I0.0 J0.0096
G1 Y-0.6253
G3 X0.1175 Y-0.6157 I-0.0096 J0.0
G1 X0.0996
G1 Y-0.307
G3 X0.1152 Y-0.2794 I-0.0196 J0.0292
G1 X0.3681 Y-0.1484
G3 X0.3776 Y-0.1328 I-0.0081 J0.0156
G1 Y0.2493
G1 X0.4117 Y0.2796
G1 X0.65
G3 X0.6613 Y0.2837 I0.0 J0.0176
G1 X0.6913 Y0.3087
G3 X0.6939 Y0.3114 I-0.0113 J0.0135
G1 F5.0 X0.6914 Y0.3134
G3 F10.0 X0.6944 Y0.3222 I-0.0114 J0.0088
G1 Y0.4379
G1 X0.7716 Y0.4726
G3 X0.7598 Y0.4989 I0.0084 J0.0196
G1 X0.6741 Y0.4603
G3 X0.6656 Y0.4472 I0.0059 J-0.0131
G1 Y0.3289
G1 X0.6448 Y0.3116
G1 X0.405
G3 X0.3954 Y0.3079 I0.0 J-0.0144
G1 X0.3504 Y0.2679
G3 X0.3456 Y0.2572 I0.0096 J-0.0108
G1 Y-0.1241
G1 X0.0987 Y-0.2519
G3 X0.0636 Y-0.3053 I-0.0187 J-0.0259
G1 Y-0.6189
G1 X0.0425
G3 X0.0361 Y-0.6253 I0.0 J-0.0064
G1 Y-0.9503
G3 X0.0425 Y-0.9567 I0.0064 J0.0
G1 X0.1175
G3 X0.1239 Y-0.9503 I0.0 J0.0064
G1 Y-0.6253
G3 X0.1175 Y-0.6189 I-0.0064 J0.0
G1 X0.0964
G1 Y-0.3053
G3 X0.112 Y-0.2775 I-0.0164 J0.0275
G1 X0.3666 Y-0.1456
G3 X0.3744 Y-0.1328 I-0.0066 J0.0128
G1 Y0.2507
G1 X0.4105 Y0.2828
G1 X0.65
G3 X0.6592 Y0.2861 I0.0 J0.0144
G1 X0.6892 Y0.3111
G3 X0.6914 Y0.3134 I-0.0092 J0.0111
G1 F5.0 X0.6895 Y0.3149
G3 F10.0 X0.692 Y0.3222 I-0.0095 J0.0073
G1 Y0.4394
G1 X0.7716 Y0.4753
G3 X0.7618 Y0.4971 I0.0084 J0.0169
G1 X0.6751 Y0.4581
G3 X0.668 Y0.4472 I0.0049 J-0.0109
G1 Y0.3278
G1 X0.6457 Y0.3092
G1 X0.405
G3 X0.397 Y0.3062 I0.0 J-0.012
G1 X0.352 Y0.2662
G3 X0.348 Y0.2572 I0.008 J-0.009
G1 Y-0.1255
G1 X0.0985 Y-0.2547
G3 X0.066 Y-0.3039 I-0.0185 J-0.0231
G1 Y-0.6213
G1 X0.0425
G3 X0.0385 Y-0.6253 I0.0 J-0.004
G1 Y-0.9503
G3 X0.0425 Y-0.9543 I0.004 J0.0
G1 X0.1175
G3 X0.1215 Y-0.9503 I0.0 J0.004
G1 Y-0.6253
G3 X0.1175 Y-0.6213 I-0.004 J0.0
G1 X0.094
G1 Y-0.3039
G3 X0.1095 Y-0.276 I-0.014 J0.0261
G1 X0.3655 Y-0.1435
G3 X0.372 Y-0.1328 I-0.0055 J0.0107
G1 Y0.2518
G1 X0.4096 Y0.2852
G1 X0.65
G3 X0.6577 Y0.288 I0.0 J0.012
G1 X0.6877 Y0.313
G3 X0.6895 Y0.3149 I-0.0077 J0.0092
G0 Z0.125
G0 X0.555 Y0.4039
G0 Z0.012
G1 F5.0 Z-0.004
G3 F10.0 X0.559 Y0.4172 I-0.02 J0.0133
G1 Y0.5049
G1 Y0.505
G3 X0.5586 Y0.5449 I-4.2095 J-0.0251
G3 X0.5105 Y0.5443 I-0.0245 J0.0391
G1 X0.511 Y0.5048
G1 Y0.4282
G1 X0.4911 Y0.4112
G1 X0.325
G3 X0.308 Y0.4042 I0.0 J-0.024
G1 X0.248 Y0.3442
G3 X0.241 Y0.3272 I0.017 J-0.017
G1 Y-0.0013
G1 X0.2066 Y-0.0288
G1 X-0.5351
G1 X-0.623 Y0.0592
G3 X-0.64 Y0.0662 I-0.017 J-0.017
G1 X-0.703
G3 X-0.711 Y0.0742 I-0.032 J-0.024
G1 Y0.1618
G1 X-0.6977 Y0.1751
G3 X-0.693 Y0.1864 I-0.0113 J0.0113
G1 Y0.208
G3 X-0.6977 Y0.2193 I-0.016 J0.0
G1 X-0.7129 Y0.2345
G3 X-0.7242 Y0.2392 I-0.0113 J-0.0113
G1 X-0.7458
G3 X-0.7571 Y0.2345 I0.0 J-0.016
G1 X-0.7723 Y0.2193
G3 X-0.777 Y0.208 I0.0113 J-0.0113
G1 Y0.1864
G3 X-0.7723 Y0.1751 I0.016 J0.0
G1 X-0.759 Y0.1618
G1 Y0.0742
G3 X-0.7557 Y0.008 I0.024 J-0.032
G3 X-0.7563 Y0.0075 I0.0108 J-0.0118
G1 X-0.7703 Y-0.0066
G3 X-0.775 Y-0.0179 I0.0113 J-0.0113
G1 Y-0.0378
G3 X-0.7703 Y-0.0491 I0.016 J0.0
G1 X-0.7563 Y-0.0631
G3 X-0.7449 Y-0.0678 I0.0113 J0.0113
G1 X-0.7251
G3 X-0.7137 Y-0.0631 I0.0 J0.016
G1 X-0.6997 Y-0.0491
G3 X-0.695 Y-0.0378 I-0.0113 J0.0113
G1 Y-0.0179
G3 X-0.6997 Y-0.0066 I-0.016 J0.0
G1 X-0.7137 Y0.0075
G3 X-0.7143 Y0.008 I-0.0113 J-0.0113
G3 X-0.703 Y0.0182 I-0.0207 J0.0342
G1 X-0.6499
G1 X-0.562 Y-0.0698
G3 X-0.545 Y-0.0768 I0.017 J0.017
G1 X-0.256
G1 Y-0.2439
G3 X-0.2605 Y-0.3081 I0.024 J-0.034
G1 X-0.2609 Y-0.3127
G3 X-0.258 Y-0.3269 I0.0259 J-0.0021
G1 Y-0.6093
G1 X-0.2695
G3 X-0.2855 Y-0.6253 I0.0 J-0.016
G1 Y-0.9503
G3 X-0.2695 Y-0.9663 I0.016 J0.0
G1 X-0.1945
G3 X-0.1785 Y-0.9503 I0.0 J0.016
G1 Y-0.6253
G3 X-0.1945 Y-0.6093 I-0.016 J0.0
G1 X-0.206
G1 Y-0.3103
G3 X-0.208 Y-0.2439 I-0.026 J0.0325
G1 Y-0.0768
G1 X0.215
G3 X0.23 Y-0.0716 I0.0 J0.024
G1 X0.28 Y-0.0316
G3 X0.289 Y-0.0128 I-0.015 J0.0187
G1 Y0.3172
G1 X0.3349 Y0.3632
G1 X0.5
G3 X0.5156 Y0.369 I0.0 J0.024
G1 X0.5506 Y0.399
G3 X0.555 Y0.4039 I-0.0156 J0.0182
G1 F5.0 X0.5523 Y0.4057
G3 F10.0 X0.5558 Y0.4172 I-0.0173 J0.0115
G1 Y0.5049
G1 Y0.505
G3 X0.5553 Y0.5467 I-4.2063 J-0.0251
G3 X0.5137 Y0.5462 I-0.0213 J0.0373
G1 X0.5142 Y0.5048
G1 Y0.4267
G1 X0.4923 Y0.408
G1 X0.325
G3 X0.3103 Y0.4019 I0.0 J-0.0208
G1 X0.2503 Y0.3419
G3 X0.2442 Y0.3272 I0.0147 J-0.0147
G1 Y-0.0028
G1 X0.2077 Y-0.032
G1 X-0.5364
G1 X-0.6253 Y0.0569
G3 X-0.64 Y0.063 I-0.0147 J-0.0147
G1 X-0.7046
G3 X-0.7142 Y0.0725 I-0.0304 J-0.0208
G1 Y0.1631
G1 X-0.6999 Y0.1774
G3 X-0.6962 Y0.1864 I-0.0091 J0.0091
G1 Y0.208
G3 X-0.6999 Y0.217 I-0.0128 J0.0
G1 X-0.7152 Y0.2322
G3 X-0.7242 Y0.236 I-0.0091 J-0.0091
G1 X-0.7458
G3 X-0.7548 Y0.2322 I0.0 J-0.0128
G1 X-0.7701 Y0.217
G3 X-0.7738 Y0.208 I0.0091 J-0.0091
G1 Y0.1864
G3 X-0.7701 Y0.1774 I0.0128 J0.0
G1 X-0.7558 Y0.1631
G1 Y0.0725
G3 X-0.7492 Y0.0082 I0.0208 J-0.0304
G3 X-0.754 Y0.0052 I0.0043 J-0.0121
G1 X-0.7681 Y-0.0088
G3 X-0.7718 Y-0.0179 I0.0091 J-0.0091
G1 Y-0.0378
G3 X-0.7681 Y-0.0468 I0.0128 J0.0
G1 X-0.754 Y-0.0609
G3 X-0.7449 Y-0.0646 I0.0091 J0.0091
G1 X-0.7251
G3 X-0.716 Y-0.0609 I0.0 J0.0128
G1 X-0.7019 Y-0.0468
G3 X-0.6982 Y-0.0378 I-0.0091 J0.0091
G1 Y-0.0179
G3 X-0.7019 Y-0.0088 I-0.0128 J0.0
G1 X-0.716 Y0.0052
G3 X-0.7208 Y0.0082 I-0.0091 J-0.0091
G3 X-0.7046 Y0.0214 I-0.0142 J0.0339
G1 X-0.6486
G1 X-0.5597 Y-0.0675
G3 X-0.545 Y-0.0736 I0.0147 J0.0147
G1 X-0.2528
G1 Y-0.2456
G3 X-0.2572 Y-0.3068 I0.0208 J-0.0323
G1 X-0.2577 Y-0.313
G3 X-0.2548 Y-0.3261 I0.0227 J-0.0018
G1 Y-0.6125
G1 X-0.2695
G3 X-0.2823 Y-0.6253 I0.0 J-0.0128
G1 Y-0.9503
G3 X-0.2695 Y-0.9631 I0.0128 J0.0
G1 X-0.1945
G3 X-0.1817 Y-0.9503 I0.0 J0.0128
G1 Y-0.6253
G3 X-0.1945 Y-0.6125 I-0.0128 J0.0
G1 X-0.2092
G1 Y-0.3087
G3 X-0.2112 Y-0.2456 I-0.0228 J0.0309
G1 Y-0.0736
G1 X0.215
G3 X0.228 Y-0.0691 I0.0 J0.0208
G1 X0.278 Y-0.0291
G3 X0.2858 Y-0.0128 I-0.013 J0.0162
G1 Y0.3186
G1 X0.3336 Y0.3664
G1 X0.5
G3 X0.5135 Y0.3714 I0.0 J0.0208
G1 X0.5485 Y0.4014
G3 X0.5523 Y0.4057 I-0.0135 J0.0158
G1 F5.0 X0.5497 Y0.4075
G3 F10.0 X0.5526 Y0.4172 I-0.0147 J0.0097
G1 Y0.5049
G1 Y0.505
G3 X0.5521 Y0.5486 I-4.2031 J-0.0251
G3 X0.5169 Y0.5482 I-0.0181 J0.0354
G1 X0.5174 Y0.5048
G1 Y0.4253
G1 X0.4935 Y0.4048
G1 X0.325
G3 X0.3126 Y0.3996 I0.0 J-0.0176
G1 X0.2526 Y0.3396
G3 X0.2474 Y0.3272 I0.0124 J-0.0124
G1 Y-0.0044
G1 X0.2088 Y-0.0352
G1 X-0.5377
G1 X-0.6276 Y0.0546
G3 X-0.64 Y0.0598 I-0.0124 J-0.0124
G1 X-0.7064
G3 X-0.7174 Y0.0708 I-0.0286 J-0.0176
G1 Y0.1644
G1 X-0.7022 Y0.1796
G3 X-0.6994 Y0.1864 I-0.0068 J0.0068
G1 Y0.208
G3 X-0.7022 Y0.2147 I-0.0096 J0.0
G1 X-0.7174 Y0.23
G3 X-0.7242 Y0.2328 I-0.0068 J-0.0068
G1 X-0.7458
G3 X-0.7526 Y0.23 I0.0 J-0.0096
G1 X-0.7678 Y0.2147
G3 X-0.7706 Y0.208 I0.0068 J-0.0068
G1 Y0.1864
G3 X-0.7678 Y0.1796 I0.0096 J0.0
G1 X-0.7526 Y0.1644
G1 Y0.0708
G3 X-0.7064 Y0.0246 I0.0176 J-0.0286
G1 X-0.6473
G1 X-0.5574 Y-0.0653
G3 X-0.545 Y-0.0704 I0.0124 J0.0124
G1 X-0.2496
G1 Y-0.2473
G3 X-0.2539 Y-0.3054 I0.0176 J-0.0305
G1 X-0.2545 Y-0.3132
G3 X-0.2516 Y-0.3252 I0.0195 J-0.0016
G1 Y-0.6157
G1 X-0.2695
G3 X-0.2791 Y-0.6253 I0.0 J-0.0096
G1 Y-0.9503
G3 X-0.2695 Y-0.9599 I0.0096 J0.0
G1 X-0.1945
G3 X-0.1849 Y-0.9503 I0.0 J0.0096
G1 Y-0.6253
G3 X-0.1945 Y-0.6157 I-0.0096 J0.0
G1 X-0.2124
G1 Y-0.307
G3 X-0.2144 Y-0.2473 I-0.0196 J0.0292
G1 Y-0.0704
G1 X0.215
G3 X0.226 Y-0.0666 I0.0 J0.0176
G1 X0.276 Y-0.0266
G3 X0.2826 Y-0.0128 I-0.011 J0.0137
G1 Y0.3199
G1 X0.3323 Y0.3696
G1 X0.5
G3 X0.5115 Y0.3738 I0.0 J0.0176
G1 X0.5465 Y0.4038
G3 X0.5497 Y0.4075 I-0.0115 J0.0134
G1 F5.0 X0.547 Y0.4092
G3 F10.0 X0.5494 Y0.4172 I-0.012 J0.008
G1 Y0.5049
G1 Y0.505
G3 X0.5489 Y0.5506 I-4.1999 J-0.0251
G3 X0.5201 Y0.5503 I-0.0148 J0.0334
G1 X0.5206 Y0.5049
G1 Y0.4238
G1 X0.4947 Y0.4016
G1 X0.325
G3 X0.3148 Y0.3974 I0.0 J-0.0144
G1 X0.2548 Y0.3374
G3 X0.2506 Y0.3272 I0.0102 J-0.0102
G1 Y-0.0059
G1 X0.2099 Y-0.0384
G1 X-0.539
G1 X-0.6298 Y0.0524
G3 X-0.64 Y0.0566 I-0.0102 J-0.0102
G1 X-0.7082
G3 X-0.7206 Y0.069 I-0.0268 J-0.0144
G1 Y0.1659
G3 X-0.7197 Y0.1667 I-0.0036 J0.0053
G1 X-0.7045 Y0.1819
G3 X-0.7026 Y0.1864 I-0.0045 J0.0045
G1 Y0.208
G3 X-0.7045 Y0.2125 I-0.0064 J0.0
G1 X-0.7197 Y0.2277
G3 X-0.7242 Y0.2296 I-0.0045 J-0.0045
G1 X-0.7458
G3 X-0.7503 Y0.2277 I0.0 J-0.0064
G1 X-0.7655 Y0.2125
G3 X-0.7674 Y0.208 I0.0045 J-0.0045
G1 Y0.1864
G3 X-0.7655 Y0.1819 I0.0064 J0.0
G1 X-0.7503 Y0.1667
G3 X-0.7494 Y0.1659 I0.0045 J0.0045
G1 Y0.069
G3 X-0.7082 Y0.0278 I0.0144 J-0.0268
G1 X-0.646
G1 X-0.5552 Y-0.063
G3 X-0.545 Y-0.0672 I0.0102 J0.0102
G1 X-0.2464
G1 Y-0.2493
G3 X-0.2506 Y-0.3039 I0.0144 J-0.0286
G1 X-0.2513 Y-0.3135
G3 X-0.2484 Y-0.3243 I0.0163 J-0.0013
G1 Y-0.6189
G1 X-0.2695
G3 X-0.2759 Y-0.6253 I0.0 J-0.0064
G1 Y-0.9503
G3 X-0.2695 Y-0.9567 I0.0064 J0.0
G1 X-0.1945
G3 X-0.1881 Y-0.9503 I0.0 J0.0064
G1 Y-0.6253
G3 X-0.1945 Y-0.6189 I-0.0064 J0.0
G1 X-0.2156
G1 Y-0.3053
G3 X-0.2176 Y-0.2493 I-0.0164 J0.0275
G1 Y-0.0672
G1 X0.215
G3 X0.224 Y-0.0641 I0.0 J0.0144
G1 X0.274 Y-0.0241
G3 X0.2794 Y-0.0128 I-0.009 J0.0112
G1 Y0.3212
G1 X0.331 Y0.3728
G1 X0.5
G3 X0.5094 Y0.3762 I0.0 J0.0144
G1 X0.5444 Y0.4062
G3 X0.547 Y0.4092 I-0.0094 J0.0109
G1 F5.0 X0.545 Y0.4106
G3 F10.0 X0.547 Y0.4172 I-0.01 J0.0066
G1 Y0.5049
G1 Y0.505
G3 X0.5465 Y0.5522 I-4.1975 J-0.025
G3 X0.5224 Y0.5519 I-0.0124 J0.0318
G1 X0.523 Y0.5049
G1 Y0.4227
G1 X0.4956 Y0.3992
G1 X0.325
G3 X0.3165 Y0.3957 I0.0 J-0.012
G1 X0.2565 Y0.3357
G3 X0.253 Y0.3272 I0.0085 J-0.0085
G1 Y-0.0071
G1 X0.2108 Y-0.0408
G1 X-0.54
G1 X-0.6315 Y0.0507
G3 X-0.64 Y0.0542 I-0.0085 J-0.0085
G1 X-0.7097
G3 X-0.723 Y0.0675 I-0.0253 J-0.012
G1 Y0.1674
G3 X-0.7214 Y0.1684 I-0.0012 J0.0038
G1 X-0.7062 Y0.1836
G3 X-0.705 Y0.1864 I-0.0028 J0.0028
G1 Y0.208
G3 X-0.7062 Y0.2108 I-0.004 J0.0
G1 X-0.7214 Y0.226
G3 X-0.7242 Y0.2272 I-0.0028 J-0.0028
G1 X-0.7458
G3 X-0.7486 Y0.226 I0.0 J-0.004
G1 X-0.7638 Y0.2108
G3 X-0.765 Y0.208 I0.0028 J-0.0028
G1 Y0.1864
G3 X-0.7638 Y0.1836 I0.004 J0.0
G1 X-0.7486 Y0.1684
G3 X-0.747 Y0.1674 I0.0028 J0.0028
G1 Y0.0675
G3 X-0.7097 Y0.0302 I0.012 J-0.0253
G1 X-0.645
G1 X-0.5535 Y-0.0613
G3 X-0.545 Y-0.0648 I0.0085 J0.0085
G1 X-0.244
G1 Y-0.2508
G3 X-0.2481 Y-0.3027 I0.012 J-0.027
G1 X-0.249 Y-0.3137
G3 X-0.246 Y-0.3235 I0.014 J-0.0011
G1 Y-0.6213
G1 X-0.2695
G3 X-0.2735 Y-0.6253 I0.0 J-0.004
G1 Y-0.9503
G3 X-0.2695 Y-0.9543 I0.004 J0.0
G1 X-0.1945
G3 X-0.1905 Y-0.9503 I0.0 J0.004
G1 Y-0.6253
G3 X-0.1945 Y-0.6213 I-0.004 J0.0
G1 X-0.218
G1 Y-0.3039
G3 X-0.22 Y-0.2508 I-0.014 J0.0261
G1 Y-0.0648
G1 X0.215
G3 X0.2225 Y-0.0622 I0.0 J0.012
G1 X0.2725 Y-0.0222
G3 X0.277 Y-0.0128 I-0.0075 J0.0094
G1 Y0.3222
G1 X0.33 Y0.3752
G1 X0.5
G3 X0.5078 Y0.3781 I0.0 J0.012
G1 X0.5428 Y0.4081
G3 X0.545 Y0.4106 I-0.0078 J0.0091
G0 Z0.125
G0 X-0.7019 Y-0.0148
G0 Z0.012
G1 F5.0 Z-0.004
G3 F10.0 X-0.7042 Y-0.0111 I-0.0091 J-0.0031
G1 X-0.7183 Y0.003
G3 X-0.7251 Y0.0058 I-0.0068 J-0.0068
G1 X-0.7449
G3 X-0.7517 Y0.003 I0.0 J-0.0096
G1 X-0.7658 Y-0.0111
G3 X-0.7686 Y-0.0179 I0.0068 J-0.0068
G1 Y-0.0378
G3 X-0.7658 Y-0.0445 I0.0096 J0.0
G1 X-0.7517 Y-0.0586
G3 X-0.7449 Y-0.0614 I0.0068 J0.0068
G1 X-0.7251
G3 X-0.7183 Y-0.0586 I0.0 J0.0096
G1 X-0.7042 Y-0.0445
G3 X-0.7014 Y-0.0378 I-0.0068 J0.0068
G1 Y-0.0179
G3 X-0.7019 Y-0.0148 I-0.0096 J0.0
G1 F5.0 X-0.7049 Y-0.0158
G3 F10.0 X-0.7065 Y-0.0134 I-0.0061 J-0.0021
G1 X-0.7205 Y0.0007
G3 X-0.7251 Y0.0026 I-0.0045 J-0.0045
G1 X-0.7449
G3 X-0.7495 Y0.0007 I0.0 J-0.0064
G1 X-0.7635 Y-0.0134
G3 X-0.7654 Y-0.0179 I0.0045 J-0.0045
G1 Y-0.0378
G3 X-0.7635 Y-0.0423 I0.0064 J0.0
G1 X-0.7495 Y-0.0563
G3 X-0.7449 Y-0.0582 I0.0045 J0.0045
G1 X-0.7251
G3 X-0.7205 Y-0.0563 I0.0 J0.0064
G1 X-0.7065 Y-0.0423
G3 X-0.7046 Y-0.0378 I-0.0045 J0.0045
G1 Y-0.0179
G3 X-0.7049 Y-0.0158 I-0.0064 J0.0
G1 F5.0 X-0.7072 Y-0.0166
G3 F10.0 X-0.7082 Y-0.015 I-0.0038 J-0.0013
G1 X-0.7222 Y-0.001
G3 X-0.7251 Y0.0002 I-0.0028 J-0.0028
G1 X-0.7449
G3 X-0.7478 Y-0.001 I0.0 J-0.004
G1 X-0.7618 Y-0.015
G3 X-0.763 Y-0.0179 I0.0028 J-0.0028
G1 Y-0.0378
G3 X-0.7618 Y-0.0406 I0.004 J0.0
G1 X-0.7478 Y-0.0546
G3 X-0.7449 Y-0.0558 I0.0028 J0.0028
G1 X-0.7251
G3 X-0.7222 Y-0.0546 I0.0 J0.004
G1 X-0.7082 Y-0.0406
G3 X-0.707 Y-0.0378 I-0.0028 J0.0028
G1 Y-0.0179
G3 X-0.7072 Y-0.0166 I-0.004 J0.0
G0 Z0.125
G0 X-0.7935 Y0.2063
G0 Z0.012
G1 F5.0 Z-0.004
G3 F10.0 X-0.7879 Y0.2099 I-0.0058 J0.0149
G1 X-0.7727 Y0.2251
G3 X-0.768 Y0.2364 I-0.0113 J0.0113
G1 Y0.258
G3 X-0.7727 Y0.2693 I-0.016 J0.0
G1 X-0.7879 Y0.2845
G3 X-0.7992 Y0.2892 I-0.0113 J-0.0113
G1 X-0.8208
G3 X-0.8321 Y0.2845 I0.0 J-0.016
G1 X-0.8473 Y0.2693
G3 X-0.852 Y0.258 I0.0113 J-0.0113
G1 Y0.2364
G3 X-0.8473 Y0.2251 I0.016 J0.0
G1 X-0.8321 Y0.2099
G3 X-0.8208 Y0.2052 I0.0113 J0.0113
G1 X-0.7992
G3 X-0.7935 Y0.2063 I0.0 J0.016
G1 F5.0 X-0.7946 Y0.2092
G3 F10.0 X-0.7902 Y0.2121 I-0.0046 J0.0119
G1 X-0.7749 Y0.2274
G3 X-0.7712 Y0.2364 I-0.0091 J0.0091
G1 Y0.258
G3 X-0.7749 Y0.267 I-0.0128 J0.0
G1 X-0.7902 Y0.2822
G3 X-0.7992 Y0.286 I-0.0091 J-0.0091
G1 X-0.8208
G3 X-0.8298 Y0.2822 I0.0 J-0.0128
G1 X-0.8451 Y0.267
G3 X-0.8488 Y0.258 I0.0091 J-0.0091
G1 Y0.2364
G3 X-0.8451 Y0.2274 I0.0128 J0.0
G1 X-0.8298 Y0.2121
G3 X-0.8208 Y0.2084 I0.0091 J0.0091
G1 X-0.7992
G3 X-0.7946 Y0.2092 I0.0 J0.0128
G1 F5.0 X-0.7958 Y0.2122
G3 F10.0 X-0.7924 Y0.2144 I-0.0035 J0.009
G1 X-0.7772 Y0.2296
G3 X-0.7744 Y0.2364 I-0.0068 J0.0068
G1 Y0.258
G3 X-0.7772 Y0.2647 I-0.0096 J0.0
G1 X-0.7924 Y0.28
G3 X-0.7992 Y0.2828 I-0.0068 J-0.0068
G1 X-0.8208
G3 X-0.8276 Y0.28 I0.0 J-0.0096
G1 X-0.8428 Y0.2647
G3 X-0.8456 Y0.258 I0.0068 J-0.0068
G1 Y0.2364
G3 X-0.8428 Y0.2296 I0.0096 J0.0
G1 X-0.8276 Y0.2144
G3 X-0.8208 Y0.2116 I0.0068 J0.0068
G1 X-0.7992
G3 X-0.7958 Y0.2122 I0.0 J0.0096
G1 F5.0 X-0.7969 Y0.2152
G3 F10.0 X-0.7947 Y0.2167 I-0.0023 J0.006
G1 X-0.7795 Y0.2319
G3 X-0.7776 Y0.2364 I-0.0045 J0.0045
G1 Y0.258
G3 X-0.7795 Y0.2625 I-0.0064 J0.0
G1 X-0.7947 Y0.2777
G3 X-0.7992 Y0.2796 I-0.0045 J-0.0045
G1 X-0.8208
G3 X-0.8253 Y0.2777 I0.0 J-0.0064
G1 X-0.8405 Y0.2625
G3 X-0.8424 Y0.258 I0.0045 J-0.0045
G1 Y0.2364
G3 X-0.8405 Y0.2319 I0.0064 J0.0
G1 X-0.8253 Y0.2167
G3 X-0.8208 Y0.2148 I0.0045 J0.0045
G1 X-0.7992
G3 X-0.7969 Y0.2152 I0.0 J0.0064
G1 F5.0 X-0.7978 Y0.2175
G3 F10.0 X-0.7964 Y0.2184 I-0.0014 J0.0037
G1 X-0.7812 Y0.2336
G3 X-0.78 Y0.2364 I-0.0028 J0.0028
G1 Y0.258
G3 X-0.7812 Y0.2608 I-0.004 J0.0
G1 X-0.7964 Y0.276
G3 X-0.7992 Y0.2772 I-0.0028 J-0.0028
G1 X-0.8208
G3 X-0.8236 Y0.276 I0.0 J-0.004
G1 X-0.8388 Y0.2608
G3 X-0.84 Y0.258 I0.0028 J-0.0028
G1 Y0.2364
G3 X-0.8388 Y0.2336 I0.004 J0.0
G1 X-0.8236 Y0.2184
G3 X-0.8208 Y0.2172 I0.0028 J0.0028
G1 X-0.7992
G3 X-0.7978 Y0.2175 I0.0 J0.004
G0 Z0.125
G0 X-0.7569 Y0.2597
G0 Z0.012
G1 F5.0 Z-0.004
G3 F10.0 X-0.7458 Y0.2552 I0.0111 J0.0115
G1 X-0.7242
G3 X-0.7129 Y0.2599 I0.0 J0.016
G1 X-0.6977 Y0.2751
G3 X-0.693 Y0.2864 I-0.0113 J0.0113
G1 Y0.308
G3 X-0.6977 Y0.3193 I-0.016 J0.0
G1 X-0.7129 Y0.3345
G3 X-0.7242 Y0.3392 I-0.0113 J-0.0113
G1 X-0.7458
G3 X-0.7571 Y0.3345 I0.0 J-0.016
G1 X-0.7723 Y0.3193
G3 X-0.777 Y0.308 I0.0113 J-0.0113
G1 Y0.2864
G3 X-0.7723 Y0.2751 I0.016 J0.0
G1 X-0.7571 Y0.2599
G3 X-0.7569 Y0.2597 I0.0113 J0.0113
G1 F5.0 X-0.7547 Y0.262
G3 F10.0 X-0.7458 Y0.2584 I0.0089 J0.0092
G1 X-0.7242
G3 X-0.7152 Y0.2621 I0.0 J0.0128
G1 X-0.6999 Y0.2774
G3 X-0.6962 Y0.2864 I-0.0091 J0.0091
G1 Y0.308
G3 X-0.6999 Y0.317 I-0.0128 J0.0
G1 X-0.7152 Y0.3322
G3 X-0.7242 Y0.336 I-0.0091 J-0.0091
G1 X-0.7458
G3 X-0.7548 Y0.3322 I0.0 J-0.0128
G1 X-0.7701 Y0.317
G3 X-0.7738 Y0.308 I0.0091 J-0.0091
G1 Y0.2864
G3 X-0.7701 Y0.2774 I0.0128 J0.0
G1 X-0.7548 Y0.2621
G3 X-0.7547 Y0.262 I0.0091 J0.0091
G1 F5.0 X-0.7524 Y0.2643
G3 F10.0 X-0.7458 Y0.2616 I0.0067 J0.0069
G1 X-0.7242
G3 X-0.7174 Y0.2644 I0.0 J0.0096
G1 X-0.7022 Y0.2796
G3 X-0.6994 Y0.2864 I-0.0068 J0.0068
G1 Y0.308
G3 X-0.7022 Y0.3147 I-0.0096 J0.0
G1 X-0.7174 Y0.33
G3 X-0.7242 Y0.3328 I-0.0068 J-0.0068
G1 X-0.7458
G3 X-0.7526 Y0.33 I0.0 J-0.0096
G1 X-0.7678 Y0.3147
G3 X-0.7706 Y0.308 I0.0068 J-0.0068
G1 Y0.2864
G3 X-0.7678 Y0.2796 I0.0096 J0.0
G1 X-0.7526 Y0.2644
G3 X-0.7524 Y0.2643 I0.0068 J0.0068
G1 F5.0 X-0.7502 Y0.2666
G3 F10.0 X-0.7458 Y0.2648 I0.0045 J0.0046
G1 X-0.7242
G3 X-0.7197 Y0.2667 I0.0 J0.0064
G1 X-0.7045 Y0.2819
G3 X-0.7026 Y0.2864 I-0.0045 J0.0045
G1 Y0.308
G3 X-0.7045 Y0.3125 I-0.0064 J0.0
G1 X-0.7197 Y0.3277
G3 X-0.7242 Y0.3296 I-0.0045 J-0.0045
G1 X-0.7458
G3 X-0.7503 Y0.3277 I0.0 J-0.0064
G1 X-0.7655 Y0.3125
G3 X-0.7674 Y0.308 I0.0045 J-0.0045
G1 Y0.2864
G3 X-0.7655 Y0.2819 I0.0064 J0.0
G1 X-0.7503 Y0.2667
G3 X-0.7502 Y0.2666 I0.0045 J0.0045
G1 F5.0 X-0.7486 Y0.2683
G3 F10.0 X-0.7458 Y0.2672 I0.0028 J0.0029
G1 X-0.7242
G3 X-0.7214 Y0.2684 I0.0 J0.004
G1 X-0.7062 Y0.2836
G3 X-0.705 Y0.2864 I-0.0028 J0.0028
G1 Y0.308
G3 X-0.7062 Y0.3108 I-0.004 J0.0
G1 X-0.7214 Y0.326
G3 X-0.7242 Y0.3272 I-0.0028 J-0.0028
G1 X-0.7458
G3 X-0.7486 Y0.326 I0.0 J-0.004
G1 X-0.7638 Y0.3108
G3 X-0.765 Y0.308 I0.0028 J-0.0028
G1 Y0.2864
G3 X-0.7638 Y0.2836 I0.004 J0.0
G1 X-0.7486 Y0.2684
G1 Y0.2683
G0 Z0.125
G0 X-0.5939 Y0.5133
G0 Z0.012
G1 F5.0 Z-0.004
G3 F10.0 X-0.5644 Y0.5048 I0.0296 J0.0468
G1 X-0.4856
G3 Y0.6155 I0.0 J0.0554
G1 X-0.5644
G3 X-0.5939 Y0.5133 I0.0 J-0.0554
G1 F5.0 X-0.5922 Y0.516
G3 F10.0 X-0.5644 Y0.508 I0.0278 J0.0441
G1 X-0.4856
G3 Y0.6123 I0.0 J0.0522
G1 X-0.5644
G3 X-0.5922 Y0.516 I0.0 J-0.0522
G1 F5.0 X-0.5905 Y0.5187
G3 F10.0 X-0.5644 Y0.5112 I0.0261 J0.0414
G1 X-0.4856
G3 Y0.6091 I0.0 J0.049
G1 X-0.5644
G3 X-0.5905 Y0.5187 I0.0 J-0.049
G1 F5.0 X-0.5888 Y0.5214
G3 F10.0 X-0.5644 Y0.5144 I0.0244 J0.0387
G1 X-0.4856
G3 Y0.6059 I0.0 J0.0458
G1 X-0.5644
G3 X-0.5888 Y0.5214 I0.0 J-0.0458
G1 F5.0 X-0.5875 Y0.5235
G3 F10.0 X-0.5644 Y0.5168 I0.0231 J0.0367
G1 X-0.4856
G3 Y0.6035 I0.0 J0.0434
G1 X-0.5644
G3 X-0.5875 Y0.5235 I0.0 J-0.0434
G0 Z0.125
G0 X-0.6737 Y0.6048
G0 Z0.012
G1 F5.0 Z-0.004
G3 F10.0 X-0.6586 Y0.6428 I-0.0403 J0.038
G1 Y0.7216
G3 X-0.7693 I-0.0554 J0.0
G1 Y0.6428
G3 X-0.6737 Y0.6048 I0.0554 J0.0
G1 F5.0 X-0.676 Y0.607
G3 F10.0 X-0.6618 Y0.6428 I-0.0379 J0.0358
G1 Y0.7216
G3 X-0.7661 I-0.0522 J0.0
G1 Y0.6428
G3 X-0.676 Y0.607 I0.0522 J0.0
G1 F5.0 X-0.6784 Y0.6092
G3 F10.0 X-0.665 Y0.6428 I-0.0356 J0.0336
G1 Y0.7216
G3 X-0.7629 I-0.049 J0.0
G1 Y0.6428
G3 X-0.6784 Y0.6092 I0.049 J0.0
G1 F5.0 X-0.6807 Y0.6114
G3 F10.0 X-0.6682 Y0.6428 I-0.0333 J0.0314
G1 Y0.7216
G3 X-0.7597 I-0.0458 J0.0
G1 Y0.6428
G3 X-0.6807 Y0.6114 I0.0458 J0.0
G1 F5.0 X-0.6824 Y0.613
G3 F10.0 X-0.6706 Y0.6428 I-0.0315 J0.0298
G1 Y0.7216
G3 X-0.7573 I-0.0434 J0.0
G1 Y0.6428
G3 X-0.6824 Y0.613 I0.0434 J0.0
G0 Z0.125
G0 X-0.5939 Y0.7535
G0 Z0.012
G1 F5.0 Z-0.004
G3 F10.0 X-0.5644 Y0.7449 I0.0295 J0.0468
G1 X-0.4856
G3 Y0.8557 I0.0 J0.0554
G1 X-0.5644
G3 X-0.5939 Y0.7535 I0.0 J-0.0554
G1 F5.0 X-0.5922 Y0.7562
G3 F10.0 X-0.5644 Y0.7481 I0.0278 J0.0441
G1 X-0.4856
G3 Y0.8525 I0.0 J0.0522
G1 X-0.5644
G3 X-0.5922 Y0.7562 I0.0 J-0.0522
G1 F5.0 X-0.5905 Y0.7589
G3 F10.0 X-0.5644 Y0.7513 I0.0261 J0.0414
G1 X-0.4856
G3 Y0.8493 I0.0 J0.049
G1 X-0.5644
G3 X-0.5905 Y0.7589 I0.0 J-0.049
G1 F5.0 X-0.5888 Y0.7616
G3 F10.0 X-0.5644 Y0.7545 I0.0244 J0.0387
G1 X-0.4856
G3 Y0.8461 I0.0 J0.0458
G1 X-0.5644
G3 X-0.5888 Y0.7616 I0.0 J-0.0458
G1 F5.0 X-0.5875 Y0.7636
G3 F10.0 X-0.5644 Y0.7569 I0.0231 J0.0367
G1 X-0.4856
G3 Y0.8437 I0.0 J0.0434
G1 X-0.5644
G3 X-0.5875 Y0.7636 I0.0 J-0.0434
G0 Z0.125
G0 X-0.4122 Y0.3678
G0 Z0.012
G1 F5.0 Z-0.004
G3 F10.0 X-0.4171 Y0.3645 I0.0065 J-0.0146
G1 X-0.4323 Y0.3493
G3 X-0.437 Y0.338 I0.0113 J-0.0113
G1 Y0.3164
G3 X-0.4323 Y0.3051 I0.016 J0.0
G1 X-0.4171 Y0.2899
G3 X-0.4058 Y0.2852 I0.0113 J0.0113
G1 X-0.3842
G3 X-0.3729 Y0.2899 I0.0 J0.016
G1 X-0.3577 Y0.3051
G3 X-0.353 Y0.3164 I-0.0113 J0.0113
G1 Y0.338
G3 X-0.3577 Y0.3493 I-0.016 J0.0
G1 X-0.3729 Y0.3645
G3 X-0.3842 Y0.3692 I-0.0113 J-0.0113
G1 X-0.4058
G3 X-0.4122 Y0.3678 I0.0 J-0.016
G1 F5.0 X-0.411 Y0.3649
G3 F10.0 X-0.4148 Y0.3622 I0.0052 J-0.0117
G1 X-0.4301 Y0.347
G3 X-0.4338 Y0.338 I0.0091 J-0.0091
G1 Y0.3164
G3 X-0.4301 Y0.3074 I0.0128 J0.0
G1 X-0.4148 Y0.2921
G3 X-0.4058 Y0.2884 I0.0091 J0.0091
G1 X-0.3842
G3 X-0.3752 Y0.2921 I0.0 J0.0128
G1 X-0.3599 Y0.3074
G3 X-0.3562 Y0.3164 I-0.0091 J0.0091
G1 Y0.338
G3 X-0.3599 Y0.347 I-0.0128 J0.0
G1 X-0.3752 Y0.3622
G3 X-0.3842 Y0.366 I-0.0091 J-0.0091
G1 X-0.4058
G3 X-0.411 Y0.3649 I0.0 J-0.0128
G1 F5.0 X-0.4097 Y0.362
G3 F10.0 X-0.4126 Y0.36 I0.0039 J-0.0088
G1 X-0.4278 Y0.3447
G3 X-0.4306 Y0.338 I0.0068 J-0.0068
G1 Y0.3164
G3 X-0.4278 Y0.3096 I0.0096 J0.0
G1 X-0.4126 Y0.2944
G3 X-0.4058 Y0.2916 I0.0068 J0.0068
G1 X-0.3842
G3 X-0.3774 Y0.2944 I0.0 J0.0096
G1 X-0.3622 Y0.3096
G3 X-0.3594 Y0.3164 I-0.0068 J0.0068
G1 Y0.338
G3 X-0.3622 Y0.3447 I-0.0096 J0.0
G1 X-0.3774 Y0.36
G3 X-0.3842 Y0.3628 I-0.0068 J-0.0068
G1 X-0.4058
G3 X-0.4097 Y0.362 I0.0 J-0.0096
G1 F5.0 X-0.4084 Y0.359
G3 F10.0 X-0.4103 Y0.3577 I0.0026 J-0.0059
G1 X-0.4255 Y0.3425
G3 X-0.4274 Y0.338 I0.0045 J-0.0045
G1 Y0.3164
G3 X-0.4255 Y0.3119 I0.0064 J0.0
G1 X-0.4103 Y0.2967
G3 X-0.4058 Y0.2948 I0.0045 J0.0045
G1 X-0.3842
G3 X-0.3797 Y0.2967 I0.0 J0.0064
G1 X-0.3645 Y0.3119
G3 X-0.3626 Y0.3164 I-0.0045 J0.0045
G1 Y0.338
G3 X-0.3645 Y0.3425 I-0.0064 J0.0
G1 X-0.3797 Y0.3577
G3 X-0.3842 Y0.3596 I-0.0045 J-0.0045
G1 X-0.4058
G3 X-0.4084 Y0.359 I0.0 J-0.0064
G1 F5.0 X-0.4074 Y0.3568
G3 F10.0 X-0.4086 Y0.356 I0.0016 J-0.0037
G1 X-0.4238 Y0.3408
G3 X-0.425 Y0.338 I0.0028 J-0.0028
G1 Y0.3164
G3 X-0.4238 Y0.3136 I0.004 J0.0
G1 X-0.4086 Y0.2984
G3 X-0.4058 Y0.2972 I0.0028 J0.0028
G1 X-0.3842
G3 X-0.3814 Y0.2984 I0.0 J0.004
G1 X-0.3662 Y0.3136
G3 X-0.365 Y0.3164 I-0.0028 J0.0028
G1 Y0.338
G3 X-0.3662 Y0.3408 I-0.004 J0.0
G1 X-0.3814 Y0.356
G3 X-0.3842 Y0.3572 I-0.0028 J-0.0028
G1 X-0.4058
G3 X-0.4074 Y0.3568 I0.0 J-0.004
G0 Z0.125
G0 X-0.406 Y0.2492
G0 Z0.012
G1 F5.0 Z-0.004
G3 F10.0 X-0.4171 Y0.2445 I0.0002 J-0.016
G1 X-0.4323 Y0.2293
G3 X-0.437 Y0.218 I0.0113 J-0.0113
G1 Y0.1964
G3 X-0.4323 Y0.1851 I0.016 J0.0
G1 X-0.4171 Y0.1699
G3 X-0.4058 Y0.1652 I0.0113 J0.0113
G1 X-0.3842
G3 X-0.3729 Y0.1699 I0.0 J0.016
G1 X-0.3577 Y0.1851
G3 X-0.353 Y0.1964 I-0.0113 J0.0113
G1 Y0.218
G3 X-0.3577 Y0.2293 I-0.016 J0.0
G1 X-0.3729 Y0.2445
G3 X-0.3842 Y0.2492 I-0.0113 J-0.0113
G1 X-0.4058
G3 X-0.406 I0.0 J-0.016
G1 F5.0 X-0.4059 Y0.246
G3 F10.0 X-0.4148 Y0.2422 I0.0002 J-0.0128
G1 X-0.4301 Y0.227
G3 X-0.4338 Y0.218 I0.0091 J-0.0091
G1 Y0.1964
G3 X-0.4301 Y0.1874 I0.0128 J0.0
G1 X-0.4148 Y0.1721
G3 X-0.4058 Y0.1684 I0.0091 J0.0091
G1 X-0.3842
G3 X-0.3752 Y0.1721 I0.0 J0.0128
G1 X-0.3599 Y0.1874
G3 X-0.3562 Y0.1964 I-0.0091 J0.0091
G1 Y0.218
G3 X-0.3599 Y0.227 I-0.0128 J0.0
G1 X-0.3752 Y0.2422
G3 X-0.3842 Y0.246 I-0.0091 J-0.0091
G1 X-0.4058
G3 X-0.4059 I0.0 J-0.0128
G1 F5.0 Y0.2428
G3 F10.0 X-0.4126 Y0.24 I0.0001 J-0.0096
G1 X-0.4278 Y0.2247
G3 X-0.4306 Y0.218 I0.0068 J-0.0068
G1 Y0.1964
G3 X-0.4278 Y0.1896 I0.0096 J0.0
G1 X-0.4126 Y0.1744
G3 X-0.4058 Y0.1716 I0.0068 J0.0068
G1 X-0.3842
G3 X-0.3774 Y0.1744 I0.0 J0.0096
G1 X-0.3622 Y0.1896
G3 X-0.3594 Y0.1964 I-0.0068 J0.0068
G1 Y0.218
G3 X-0.3622 Y0.2247 I-0.0096 J0.0
G1 X-0.3774 Y0.24
G3 X-0.3842 Y0.2428 I-0.0068 J-0.0068
G1 X-0.4058
G3 X-0.4059 I0.0 J-0.0096
G1 F5.0 Y0.2396
G3 F10.0 X-0.4103 Y0.2377 I0.0001 J-0.0064
G1 X-0.4255 Y0.2225
G3 X-0.4274 Y0.218 I0.0045 J-0.0045
G1 Y0.1964
G3 X-0.4255 Y0.1919 I0.0064 J0.0
G1 X-0.4103 Y0.1767
G3 X-0.4058 Y0.1748 I0.0045 J0.0045
G1 X-0.3842
G3 X-0.3797 Y0.1767 I0.0 J0.0064
G1 X-0.3645 Y0.1919
G3 X-0.3626 Y0.1964 I-0.0045 J0.0045
G1 Y0.218
G3 X-0.3645 Y0.2225 I-0.0064 J0.0
G1 X-0.3797 Y0.2377
G3 X-0.3842 Y0.2396 I-0.0045 J-0.0045
G1 X-0.4058
G1 X-0.4059
G1 F5.0 X-0.4058 Y0.2372
G3 F10.0 X-0.4086 Y0.236 I0.0001 J-0.004
G1 X-0.4238 Y0.2208
G3 X-0.425 Y0.218 I0.0028 J-0.0028
G1 Y0.1964
G3 X-0.4238 Y0.1936 I0.004 J0.0
G1 X-0.4086 Y0.1784
G3 X-0.4058 Y0.1772 I0.0028 J0.0028
G1 X-0.3842
G3 X-0.3814 Y0.1784 I0.0 J0.004
G1 X-0.3662 Y0.1936
G3 X-0.365 Y0.1964 I-0.0028 J0.0028
G1 Y0.218
G3 X-0.3662 Y0.2208 I-0.004 J0.0
G1 X-0.3814 Y0.236
G3 X-0.3842 Y0.2372 I-0.0028 J-0.0028
G1 X-0.4058
G0 Z0.125
G0 Y0.1142
G0 Z0.012
G1 F5.0 Z-0.004
G3 F10.0 X-0.4171 Y0.1095 I0.0 J-0.016
G1 X-0.4323 Y0.0943
G3 X-0.437 Y0.083 I0.0113 J-0.0113
G1 Y0.0614
G3 X-0.4323 Y0.0501 I0.016 J0.0
G1 X-0.4171 Y0.0349
G3 X-0.4058 Y0.0302 I0.0113 J0.0113
G1 X-0.3842
G3 X-0.3729 Y0.0349 I0.0 J0.016
G1 X-0.3577 Y0.0501
G3 X-0.353 Y0.0614 I-0.0113 J0.0113
G1 Y0.083
G3 X-0.3577 Y0.0943 I-0.016 J0.0
G1 X-0.3729 Y0.1095
G3 X-0.3842 Y0.1142 I-0.0113 J-0.0113
G1 X-0.4058
G1 F5.0 Y0.111
G3 F10.0 X-0.4148 Y0.1072 I0.0 J-0.0128
G1 X-0.4301 Y0.092
G3 X-0.4338 Y0.083 I0.0091 J-0.0091
G1 Y0.0614
G3 X-0.4301 Y0.0524 I0.0128 J0.0
G1 X-0.4148 Y0.0371
G3 X-0.4058 Y0.0334 I0.0091 J0.0091
G1 X-0.3842
G3 X-0.3752 Y0.0371 I0.0 J0.0128
G1 X-0.3599 Y0.0524
G3 X-0.3562 Y0.0614 I-0.0091 J0.0091
G1 Y0.083
G3 X-0.3599 Y0.092 I-0.0128 J0.0
G1 X-0.3752 Y0.1072
G3 X-0.3842 Y0.111 I-0.0091 J-0.0091
G1 X-0.4058
G1 F5.0 Y0.1078
G3 F10.0 X-0.4126 Y0.105 I0.0 J-0.0096
G1 X-0.4278 Y0.0897
G3 X-0.4306 Y0.083 I0.0068 J-0.0068
G1 Y0.0614
G3 X-0.4278 Y0.0546 I0.0096 J0.0
G1 X-0.4126 Y0.0394
G3 X-0.4058 Y0.0366 I0.0068 J0.0068
G1 X-0.3842
G3 X-0.3774 Y0.0394 I0.0 J0.0096
G1 X-0.3622 Y0.0546
G3 X-0.3594 Y0.0614 I-0.0068 J0.0068
G1 Y0.083
G3 X-0.3622 Y0.0897 I-0.0096 J0.0
G1 X-0.3774 Y0.105
G3 X-0.3842 Y0.1078 I-0.0068 J-0.0068
G1 X-0.4058
G1 F5.0 Y0.1046
G3 F10.0 X-0.4103 Y0.1027 I0.0 J-0.0064
G1 X-0.4255 Y0.0875
G3 X-0.4274 Y0.083 I0.0045 J-0.0045
G1 Y0.0614
G3 X-0.4255 Y0.0569 I0.0064 J0.0
G1 X-0.4103 Y0.0417
G3 X-0.4058 Y0.0398 I0.0045 J0.0045
G1 X-0.3842
G3 X-0.3797 Y0.0417 I0.0 J0.0064
G1 X-0.3645 Y0.0569
G3 X-0.3626 Y0.0614 I-0.0045 J0.0045
G1 Y0.083
G3 X-0.3645 Y0.0875 I-0.0064 J0.0
G1 X-0.3797 Y0.1027
G3 X-0.3842 Y0.1046 I-0.0045 J-0.0045
G1 X-0.4058
G1 F5.0 Y0.1022
G3 F10.0 X-0.4086 Y0.101 I0.0 J-0.004
G1 X-0.4238 Y0.0858
G3 X-0.425 Y0.083 I0.0028 J-0.0028
G1 Y0.0614
G3 X-0.4238 Y0.0586 I0.004 J0.0
G1 X-0.4086 Y0.0434
G3 X-0.4058 Y0.0422 I0.0028 J0.0028
G1 X-0.3842
G3 X-0.3814 Y0.0434 I0.0 J0.004
G1 X-0.3662 Y0.0586
G3 X-0.365 Y0.0614 I-0.0028 J0.0028
G1 Y0.083
G3 X-0.3662 Y0.0858 I-0.004 J0.0
G1 X-0.3814 Y0.101
G3 X-0.3842 Y0.1022 I-0.0028 J-0.0028
G1 X-0.4058
G0 Z0.125
G0 X-0.3784 Y-0.2364
G0 Z0.012
G1 F5.0 Z-0.004
G3 F10.0 X-0.401 Y-0.3103 I0.0034 J-0.0415
G1 Y-0.6093
G1 X-0.4255
G3 X-0.4415 Y-0.6253 I0.0 J-0.016
G1 Y-0.9503
G3 X-0.4255 Y-0.9663 I0.016 J0.0
G1 X-0.3505
G3 X-0.3345 Y-0.9503 I0.0 J0.016
G1 Y-0.6253
G3 X-0.349 Y-0.6094 I-0.016 J0.0
G1 Y-0.3103
G3 X-0.3784 Y-0.2364 I-0.026 J0.0325
G1 F5.0 X-0.3781 Y-0.2396
G3 F10.0 X-0.3978 Y-0.3087 I0.0031 J-0.0383
G1 Y-0.6125
G1 X-0.4255
G3 X-0.4383 Y-0.6253 I0.0 J-0.0128
G1 Y-0.9503
G3 X-0.4255 Y-0.9631 I0.0128 J0.0
G1 X-0.3505
G3 X-0.3377 Y-0.9503 I0.0 J0.0128
G1 Y-0.6253
G3 X-0.3505 Y-0.6125 I-0.0128 J0.0
G1 X-0.3522
G1 Y-0.3087
G3 X-0.3781 Y-0.2396 I-0.0228 J0.0309
G1 F5.0 X-0.3778 Y-0.2427
G3 F10.0 X-0.3946 Y-0.307 I0.0028 J-0.0351
G1 Y-0.6157
G1 X-0.4255
G3 X-0.4351 Y-0.6253 I0.0 J-0.0096
G1 Y-0.9503
G3 X-0.4255 Y-0.9599 I0.0096 J0.0
G1 X-0.3505
G3 X-0.3409 Y-0.9503 I0.0 J0.0096
G1 Y-0.6253
G3 X-0.3505 Y-0.6157 I-0.0096 J0.0
G1 X-0.3554
G1 Y-0.307
G3 X-0.3778 Y-0.2427 I-0.0196 J0.0292
G1 F5.0 X-0.3776 Y-0.2459
G3 F10.0 X-0.3914 Y-0.3053 I0.0026 J-0.0319
G1 Y-0.6189
G1 X-0.4255
G3 X-0.4319 Y-0.6253 I0.0 J-0.0064
G1 Y-0.9503
G3 X-0.4255 Y-0.9567 I0.0064 J0.0
G1 X-0.3505
G3 X-0.3441 Y-0.9503 I0.0 J0.0064
G1 Y-0.6253
G3 X-0.3505 Y-0.6189 I-0.0064 J0.0
G1 X-0.3586
G1 Y-0.3053
G3 X-0.3776 Y-0.2459 I-0.0164 J0.0275
G1 F5.0 X-0.3774 Y-0.2483
G3 F10.0 X-0.389 Y-0.3039 I0.0024 J-0.0295
G1 Y-0.6213
G1 X-0.4255
G3 X-0.4295 Y-0.6253 I0.0 J-0.004
G1 Y-0.9503
G3 X-0.4255 Y-0.9543 I0.004 J0.0
G1 X-0.3505
G3 X-0.3465 Y-0.9503 I0.0 J0.004
G1 Y-0.6253
G3 X-0.3505 Y-0.6213 I-0.004 J0.0
G1 X-0.361
G1 Y-0.3039
G3 X-0.3774 Y-0.2483 I-0.014 J0.0261
G0 Z0.125
G0 X-0.1174 Y-0.2738
G0 Z0.012
G1 F5.0 Z-0.004
G3 F10.0 X-0.102 Y-0.3103 I0.0414 J-0.0041
G1 Y-0.6093
G1 X-0.1135
G3 X-0.1295 Y-0.6253 I0.0 J-0.016
G1 Y-0.9503
G3 X-0.1135 Y-0.9663 I0.016 J0.0
G1 X-0.0385
G3 X-0.0225 Y-0.9503 I0.0 J0.016
G1 Y-0.6253
G3 X-0.0385 Y-0.6093 I-0.016 J0.0
G1 X-0.05
G1 Y-0.3103
G3 X-0.1174 Y-0.2738 I-0.026 J0.0325
G1 F5.0 X-0.1142 Y-0.2741
G3 F10.0 X-0.0988 Y-0.3087 I0.0382 J-0.0037
G1 Y-0.6125
G1 X-0.1135
G3 X-0.1263 Y-0.6253 I0.0 J-0.0128
G1 Y-0.9503
G3 X-0.1135 Y-0.9631 I0.0128 J0.0
G1 X-0.0385
G3 X-0.0257 Y-0.9503 I0.0 J0.0128
G1 Y-0.6253
G3 X-0.0385 Y-0.6125 I-0.0128 J0.0
G1 X-0.0532
G1 Y-0.3087
G3 X-0.1142 Y-0.2741 I-0.0228 J0.0309
G1 F5.0 X-0.111 Y-0.2744
G3 F10.0 X-0.0956 Y-0.307 I0.035 J-0.0034
G1 Y-0.6157
G1 X-0.1135
G3 X-0.1231 Y-0.6253 I0.0 J-0.0096
G1 Y-0.9503
G3 X-0.1135 Y-0.9599 I0.0096 J0.0
G1 X-0.0385
G3 X-0.0289 Y-0.9503 I0.0 J0.0096
G1 Y-0.6253
G3 X-0.0385 Y-0.6157 I-0.0096 J0.0
G1 X-0.0564
G1 Y-0.307
G3 X-0.111 Y-0.2744 I-0.0196 J0.0292
G1 F5.0 X-0.1078 Y-0.2747
G3 F10.0 X-0.0924 Y-0.3053 I0.0318 J-0.0031
G1 Y-0.6189
G1 X-0.1135
G3 X-0.1199 Y-0.6253 I0.0 J-0.0064
G1 Y-0.9503
G3 X-0.1135 Y-0.9567 I0.0064 J0.0
G1 X-0.0385
G3 X-0.0321 Y-0.9503 I0.0 J0.0064
G1 Y-0.6253
G3 X-0.0385 Y-0.6189 I-0.0064 J0.0
G1 X-0.0596
G1 Y-0.3053
G3 X-0.1078 Y-0.2747 I-0.0164 J0.0275
G1 F5.0 X-0.1054 Y-0.2749
G3 F10.0 X-0.09 Y-0.3039 I0.0294 J-0.0029
G1 Y-0.6213
G1 X-0.1135
G3 X-0.1175 Y-0.6253 I0.0 J-0.004
G1 Y-0.9503
G3 X-0.1135 Y-0.9543 I0.004 J0.0
G1 X-0.0385
G3 X-0.0345 Y-0.9503 I0.0 J0.004
G1 Y-0.6253
G3 X-0.0385 Y-0.6213 I-0.004 J0.0
G1 X-0.062
G1 Y-0.3039
G3 X-0.1054 Y-0.2749 I-0.014 J0.0261
G0 Z0.125
G0 X0.1944 Y-0.2775
G0 Z0.012
G1 F5.0 Z-0.004
G3 F10.0 X0.21 Y-0.3103 I0.0416 J-0.0004
G1 Y-0.6093
G1 X0.1985
G3 X0.1825 Y-0.6253 I0.0 J-0.016
G1 Y-0.9503
G3 X0.1985 Y-0.9663 I0.016 J0.0
G1 X0.2735
G3 X0.2895 Y-0.9503 I0.0 J0.016
G1 Y-0.6253
G3 X0.2735 Y-0.6093 I-0.016 J0.0
G1 X0.262
G1 Y-0.3103
G3 X0.1944 Y-0.2775 I-0.026 J0.0325
G1 F5.0 X0.1976
G3 F10.0 X0.2132 Y-0.3087 I0.0384 J-0.0003
G1 Y-0.6125
G1 X0.1985
G3 X0.1857 Y-0.6253 I0.0 J-0.0128
G1 Y-0.9503
G3 X0.1985 Y-0.9631 I0.0128 J0.0
G1 X0.2735
G3 X0.2863 Y-0.9503 I0.0 J0.0128
G1 Y-0.6253
G3 X0.2735 Y-0.6125 I-0.0128 J0.0
G1 X0.2588
G1 Y-0.3087
G3 X0.1976 Y-0.2775 I-0.0228 J0.0309
G1 F5.0 X0.2008
G3 F10.0 X0.2164 Y-0.307 I0.0352 J-0.0003
G1 Y-0.6157
G1 X0.1985
G3 X0.1889 Y-0.6253 I0.0 J-0.0096
G1 Y-0.9503
G3 X0.1985 Y-0.9599 I0.0096 J0.0
G1 X0.2735
G3 X0.2831 Y-0.9503 I0.0 J0.0096
G1 Y-0.6253
G3 X0.2735 Y-0.6157 I-0.0096 J0.0
G1 X0.2556
G1 Y-0.307
G3 X0.2008 Y-0.2775 I-0.0196 J0.0292
G1 F5.0 X0.204
G3 F10.0 X0.2196 Y-0.3053 I0.032 J-0.0003
G1 Y-0.6189
G1 X0.1985
G3 X0.1921 Y-0.6253 I0.0 J-0.0064
G1 Y-0.9503
G3 X0.1985 Y-0.9567 I0.0064 J0.0
G1 X0.2735
G3 X0.2799 Y-0.9503 I0.0 J0.0064
G1 Y-0.6253
G3 X0.2735 Y-0.6189 I-0.0064 J0.0
G1 X0.2524
G1 Y-0.3053
G3 X0.204 Y-0.2775 I-0.0164 J0.0275
G1 F5.0 X0.2064 Y-0.2776
G3 F10.0 X0.222 Y-0.3039 I0.0296 J-0.0002
G1 Y-0.6213
G1 X0.1985
G3 X0.1945 Y-0.6253 I0.0 J-0.004
G1 Y-0.9503
G3 X0.1985 Y-0.9543 I0.004 J0.0
G1 X0.2735
G3 X0.2775 Y-0.9503 I0.0 J0.004
G1 Y-0.6253
G3 X0.2735 Y-0.6213 I-0.004 J0.0
G1 X0.25
G1 Y-0.3039
G3 X0.2064 Y-0.2776 I-0.014 J0.0261
G0 Z0.125
G0 X0.3504 Y-0.2778
G0 Z0.012
G1 F5.0 Z-0.004
G3 F10.0 X0.366 Y-0.3103 I0.0416 J-0.0001
G1 Y-0.6093
G1 X0.3545
G3 X0.3385 Y-0.6253 I0.0 J-0.016
G1 Y-0.9503
G3 X0.3545 Y-0.9663 I0.016 J0.0
G1 X0.4295
G3 X0.4455 Y-0.9503 I0.0 J0.016
G1 Y-0.6253
G3 X0.4295 Y-0.6093 I-0.016 J0.0
G1 X0.418
G1 Y-0.3103
G3 X0.3504 Y-0.2778 I-0.026 J0.0325
G1 F5.0 X0.3536
G3 F10.0 X0.3692 Y-0.3087 I0.0384 J-0.0001
G1 Y-0.6125
G1 X0.3545
G3 X0.3417 Y-0.6253 I0.0 J-0.0128
G1 Y-0.9503
G3 X0.3545 Y-0.9631 I0.0128 J0.0
G1 X0.4295
G3 X0.4423 Y-0.9503 I0.0 J0.0128
G1 Y-0.6253
G3 X0.4295 Y-0.6125 I-0.0128 J0.0
G1 X0.4148
G1 Y-0.3087
G3 X0.3536 Y-0.2778 I-0.0228 J0.0309
G1 F5.0 X0.3568
G3 F10.0 X0.3724 Y-0.307 I0.0352 J0.0
G1 Y-0.6157
G1 X0.3545
G3 X0.3449 Y-0.6253 I0.0 J-0.0096
G1 Y-0.9503
G3 X0.3545 Y-0.9599 I0.0096 J0.0
G1 X0.4295
G3 X0.4391 Y-0.9503 I0.0 J0.0096
G1 Y-0.6253
G3 X0.4295 Y-0.6157 I-0.0096 J0.0
G1 X0.4116
G1 Y-0.307
G3 X0.3568 Y-0.2778 I-0.0196 J0.0292
G1 F5.0 X0.36
G3 F10.0 X0.3756 Y-0.3053 I0.032 J0.0
G1 Y-0.6189
G1 X0.3545
G3 X0.3481 Y-0.6253 I0.0 J-0.0064
G1 Y-0.9503
G3 X0.3545 Y-0.9567 I0.0064 J0.0
G1 X0.4295
G3 X0.4359 Y-0.9503 I0.0 J0.0064
G1 Y-0.6253
G3 X0.4295 Y-0.6189 I-0.0064 J0.0
G1 X0.4084
G1 Y-0.3053
G3 X0.36 Y-0.2778 I-0.0164 J0.0275
G1 F5.0 X0.3624
G3 F10.0 X0.378 Y-0.3039 I0.0296 J0.0
G1 Y-0.6213
G1 X0.3545
G3 X0.3505 Y-0.6253 I0.0 J-0.004
G1 Y-0.9503
G3 X0.3545 Y-0.9543 I0.004 J0.0
G1 X0.4295
G3 X0.4335 Y-0.9503 I0.0 J0.004
G1 Y-0.6253
G3 X0.4295 Y-0.6213 I-0.004 J0.0
G1 X0.406
G1 Y-0.3039
G3 X0.3624 Y-0.2778 I-0.014 J0.0261
G0 Z0.125
G0 X0.1997 Y0.0496
G0 Z0.012
G1 F5.0 Z-0.004
G3 F10.0 X0.181 Y0.1292 I-0.0187 J0.0376
G1 X0.129
G3 Y0.0452 I0.0 J-0.042
G1 X0.181
G3 X0.1997 Y0.0496 I0.0 J0.042
G1 F5.0 X0.1983 Y0.0524
G3 F10.0 X0.181 Y0.126 I-0.0173 J0.0347
G1 X0.129
G3 Y0.0484 I0.0 J-0.0388
G1 X0.181
G3 X0.1983 Y0.0524 I0.0 J0.0388
G1 F5.0 X0.1968 Y0.0553
G3 F10.0 X0.181 Y0.1228 I-0.0158 J0.0319
G1 X0.129
G3 Y0.0516 I0.0 J-0.0356
G1 X0.181
G3 X0.1968 Y0.0553 I0.0 J0.0356
G1 F5.0 X0.1954 Y0.0582
G3 F10.0 X0.181 Y0.1196 I-0.0144 J0.029
G1 X0.129
G3 Y0.0548 I0.0 J-0.0324
G1 X0.181
G3 X0.1954 Y0.0582 I0.0 J0.0324
G1 F5.0 X0.1944 Y0.0603
G3 F10.0 X0.181 Y0.1172 I-0.0134 J0.0269
G1 X0.129
G3 Y0.0572 I0.0 J-0.03
G1 X0.181
G3 X0.1944 Y0.0603 I0.0 J0.03
G0 Z0.125
G0 X0.1854 Y0.1454
G0 Z0.012
G1 F5.0 Z-0.004
G3 F10.0 X0.181 Y0.2292 I-0.0044 J0.0418
G1 X0.129
G3 Y0.1452 I0.0 J-0.042
G1 X0.181
G3 X0.1854 Y0.1454 I0.0 J0.042
G1 F5.0 X0.1851 Y0.1486
G3 F10.0 X0.181 Y0.226 I-0.0041 J0.0386
G1 X0.129
G3 Y0.1484 I0.0 J-0.0388
G1 X0.181
G3 X0.1851 Y0.1486 I0.0 J0.0388
G1 F5.0 X0.1847 Y0.1518
G3 F10.0 X0.181 Y0.2228 I-0.0037 J0.0354
G1 X0.129
G3 Y0.1516 I0.0 J-0.0356
G1 X0.181
G3 X0.1847 Y0.1518 I0.0 J0.0356
G1 F5.0 X0.1844 Y0.155
G3 F10.0 X0.181 Y0.2196 I-0.0034 J0.0322
G1 X0.129
G3 Y0.1548 I0.0 J-0.0324
G1 X0.181
G3 X0.1844 Y0.155 I0.0 J0.0324
G1 F5.0 X0.1841 Y0.1573
G3 F10.0 X0.181 Y0.2172 I-0.0031 J0.0298
G1 X0.129
G3 Y0.1572 I0.0 J-0.03
G1 X0.181
G3 X0.1841 Y0.1573 I0.0 J0.03
G0 Z0.125
G0 X0.0465 Y0.1925
G0 Z0.012
G1 F5.0 Z-0.004
G3 F10.0 X0.047 Y0.1964 I-0.0155 J0.004
G1 Y0.218
G3 X0.0423 Y0.2293 I-0.016 J0.0
G1 X0.0271 Y0.2445
G3 X0.0158 Y0.2492 I-0.0113 J-0.0113
G1 X-0.0058
G3 X-0.0171 Y0.2445 I0.0 J-0.016
G1 X-0.0323 Y0.2293
G3 X-0.037 Y0.218 I0.0113 J-0.0113
G1 Y0.1964
G3 X-0.0323 Y0.1851 I0.016 J0.0
G1 X-0.0171 Y0.1699
G3 X-0.0058 Y0.1652 I0.0113 J0.0113
G1 X0.0158
G3 X0.0271 Y0.1699 I0.0 J0.016
G1 X0.0423 Y0.1851
G3 X0.0465 Y0.1925 I-0.0113 J0.0113
G1 F5.0 X0.0434 Y0.1932
G3 F10.0 X0.0438 Y0.1964 I-0.0124 J0.0032
G1 Y0.218
G3 X0.0401 Y0.227 I-0.0128 J0.0
G1 X0.0248 Y0.2422
G3 X0.0158 Y0.246 I-0.0091 J-0.0091
G1 X-0.0058
G3 X-0.0148 Y0.2422 I0.0 J-0.0128
G1 X-0.0301 Y0.227
G3 X-0.0338 Y0.218 I0.0091 J-0.0091
G1 Y0.1964
G3 X-0.0301 Y0.1874 I0.0128 J0.0
G1 X-0.0148 Y0.1721
G3 X-0.0058 Y0.1684 I0.0091 J0.0091
G1 X0.0158
G3 X0.0248 Y0.1721 I0.0 J0.0128
G1 X0.0401 Y0.1874
G3 X0.0434 Y0.1932 I-0.0091 J0.0091
G1 F5.0 X0.0403 Y0.194
G3 F10.0 X0.0406 Y0.1964 I-0.0093 J0.0024
G1 Y0.218
G3 X0.0378 Y0.2247 I-0.0096 J0.0
G1 X0.0226 Y0.24
G3 X0.0158 Y0.2428 I-0.0068 J-0.0068
G1 X-0.0058
G3 X-0.0126 Y0.24 I0.0 J-0.0096
G1 X-0.0278 Y0.2247
G3 X-0.0306 Y0.218 I0.0068 J-0.0068
G1 Y0.1964
G3 X-0.0278 Y0.1896 I0.0096 J0.0
G1 X-0.0126 Y0.1744
G3 X-0.0058 Y0.1716 I0.0068 J0.0068
G1 X0.0158
G3 X0.0226 Y0.1744 I0.0 J0.0096
G1 X0.0378 Y0.1896
G3 X0.0403 Y0.194 I-0.0068 J0.0068
G1 F5.0 X0.0372 Y0.1948
G3 F10.0 X0.0374 Y0.1964 I-0.0062 J0.0016
G1 Y0.218
G3 X0.0355 Y0.2225 I-0.0064 J0.0
G1 X0.0203 Y0.2377
G3 X0.0158 Y0.2396 I-0.0045 J-0.0045
G1 X-0.0058
G3 X-0.0103 Y0.2377 I0.0 J-0.0064
G1 X-0.0255 Y0.2225
G3 X-0.0274 Y0.218 I0.0045 J-0.0045
G1 Y0.1964
G3 X-0.0255 Y0.1919 I0.0064 J0.0
G1 X-0.0103 Y0.1767
G3 X-0.0058 Y0.1748 I0.0045 J0.0045
G1 X0.0158
G3 X0.0203 Y0.1767 I0.0 J0.0064
G1 X0.0355 Y0.1919
G3 X0.0372 Y0.1948 I-0.0045 J0.0045
G1 F5.0 X0.0349 Y0.1954
G3 F10.0 X0.035 Y0.1964 I-0.0039 J0.001
G1 Y0.218
G3 X0.0338 Y0.2208 I-0.004 J0.0
G1 X0.0186 Y0.236
G3 X0.0158 Y0.2372 I-0.0028 J-0.0028
G1 X-0.0058
G3 X-0.0086 Y0.236 I0.0 J-0.004
G1 X-0.0238 Y0.2208
G3 X-0.025 Y0.218 I0.0028 J-0.0028
G1 Y0.1964
G3 X-0.0238 Y0.1936 I0.004 J0.0
G1 X-0.0086 Y0.1784
G3 X-0.0058 Y0.1772 I0.0028 J0.0028
G1 X0.0158
G3 X0.0186 Y0.1784 I0.0 J0.004
G1 X0.0338 Y0.1936
G3 X0.0349 Y0.1954 I-0.0028 J0.0028
G0 Z0.125
G0 X0.0189 Y0.1139
G0 Z0.012
G1 F5.0 Z-0.004
G3 F10.0 X0.0158 Y0.1142 I-0.0031 J-0.0157
G1 X-0.0058
G3 X-0.0171 Y0.1095 I0.0 J-0.016
G1 X-0.0323 Y0.0943
G3 X-0.037 Y0.083 I0.0113 J-0.0113
G1 Y0.0614
G3 X-0.0323 Y0.0501 I0.016 J0.0
G1 X-0.0171 Y0.0349
G3 X-0.0058 Y0.0302 I0.0113 J0.0113
G1 X0.0158
G3 X0.0271 Y0.0349 I0.0 J0.016
G1 X0.0423 Y0.0501
G3 X0.047 Y0.0614 I-0.0113 J0.0113
G1 Y0.083
G3 X0.0423 Y0.0943 I-0.016 J0.0
G1 X0.0271 Y0.1095
G3 X0.0189 Y0.1139 I-0.0113 J-0.0113
G1 F5.0 X0.0182 Y0.1107
G3 F10.0 X0.0158 Y0.111 I-0.0025 J-0.0126
G1 X-0.0058
G3 X-0.0148 Y0.1072 I0.0 J-0.0128
G1 X-0.0301 Y0.092
G3 X-0.0338 Y0.083 I0.0091 J-0.0091
G1 Y0.0614
G3 X-0.0301 Y0.0524 I0.0128 J0.0
G1 X-0.0148 Y0.0371
G3 X-0.0058 Y0.0334 I0.0091 J0.0091
G1 X0.0158
G3 X0.0248 Y0.0371 I0.0 J0.0128
G1 X0.0401 Y0.0524
G3 X0.0438 Y0.0614 I-0.0091 J0.0091
G1 Y0.083
G3 X0.0401 Y0.092 I-0.0128 J0.0
G1 X0.0248 Y0.1072
G3 X0.0182 Y0.1107 I-0.0091 J-0.0091
G1 F5.0 X0.0176 Y0.1076
G3 F10.0 X0.0158 Y0.1078 I-0.0019 J-0.0094
G1 X-0.0058
G3 X-0.0126 Y0.105 I0.0 J-0.0096
G1 X-0.0278 Y0.0897
G3 X-0.0306 Y0.083 I0.0068 J-0.0068
G1 Y0.0614
G3 X-0.0278 Y0.0546 I0.0096 J0.0
G1 X-0.0126 Y0.0394
G3 X-0.0058 Y0.0366 I0.0068 J0.0068
G1 X0.0158
G3 X0.0226 Y0.0394 I0.0 J0.0096
G1 X0.0378 Y0.0546
G3 X0.0406 Y0.0614 I-0.0068 J0.0068
G1 Y0.083
G3 X0.0378 Y0.0897 I-0.0096 J0.0
G1 X0.0226 Y0.105
G3 X0.0176 Y0.1076 I-0.0068 J-0.0068
G1 F5.0 X0.017 Y0.1045
G3 F10.0 X0.0158 Y0.1046 I-0.0012 J-0.0063
G1 X-0.0058
G3 X-0.0103 Y0.1027 I0.0 J-0.0064
G1 X-0.0255 Y0.0875
G3 X-0.0274 Y0.083 I0.0045 J-0.0045
G1 Y0.0614
G3 X-0.0255 Y0.0569 I0.0064 J0.0
G1 X-0.0103 Y0.0417
G3 X-0.0058 Y0.0398 I0.0045 J0.0045
G1 X0.0158
G3 X0.0203 Y0.0417 I0.0 J0.0064
G1 X0.0355 Y0.0569
G3 X0.0374 Y0.0614 I-0.0045 J0.0045
G1 Y0.083
G3 X0.0355 Y0.0875 I-0.0064 J0.0
G1 X0.0203 Y0.1027
G3 X0.017 Y0.1045 I-0.0045 J-0.0045
G1 F5.0 X0.0165 Y0.1021
G3 F10.0 X0.0158 Y0.1022 I-0.0008 J-0.0039
G1 X-0.0058
G3 X-0.0086 Y0.101 I0.0 J-0.004
G1 X-0.0238 Y0.0858
G3 X-0.025 Y0.083 I0.0028 J-0.0028
G1 Y0.0614
G3 X-0.0238 Y0.0586 I0.004 J0.0
G1 X-0.0086 Y0.0434
G3 X-0.0058 Y0.0422 I0.0028 J0.0028
G1 X0.0158
G3 X0.0186 Y0.0434 I0.0 J0.004
G1 X0.0338 Y0.0586
G3 X0.035 Y0.0614 I-0.0028 J0.0028
G1 Y0.083
G3 X0.0338 Y0.0858 I-0.004 J0.0
G1 X0.0186 Y0.101
G3 X0.0165 Y0.1021 I-0.0028 J-0.0028
G0 Z0.125
G0 X0.0158 Y0.2852
G0 Z0.012
G1 F5.0 Z-0.004
G3 F10.0 X0.0271 Y0.2899 I-0.0001 J0.016
G1 X0.0404 Y0.3032
G1 X0.06
G3 X0.0821 Y0.3177 I0.0 J0.024
G1 X0.0971 Y0.3527
G3 X0.099 Y0.3622 I-0.0221 J0.0095
G1 Y0.4229
G1 X0.14 Y0.4682
G1 X0.455
G3 Y0.5162 I0.0194 J0.024
G1 X0.1294
G3 X0.1116 Y0.5083 I0.0 J-0.024
G1 X0.0572 Y0.4483
G3 X0.051 Y0.4322 I0.0178 J-0.0161
G1 Y0.3671
G1 X0.0442 Y0.3512
G1 X0.0404
G1 X0.0271 Y0.3645
G3 X0.0158 Y0.3692 I-0.0113 J-0.0113
G1 X-0.0058
G3 X-0.0171 Y0.3645 I0.0 J-0.016
G1 X-0.0323 Y0.3493
G3 X-0.037 Y0.338 I0.0113 J-0.0113
G1 Y0.3164
G3 X-0.0323 Y0.3051 I0.016 J0.0
G1 X-0.0171 Y0.2899
G3 X-0.0058 Y0.2852 I0.0113 J0.0113
G1 X0.0158
G1 F5.0 Y0.2884
G3 F10.0 X0.0248 Y0.2921 I0.0 J0.0128
G1 X0.0391 Y0.3064
G1 X0.06
G3 X0.0791 Y0.319 I0.0 J0.0208
G1 X0.0941 Y0.354
G3 X0.0958 Y0.3622 I-0.0191 J0.0082
G1 Y0.4242
G1 X0.1386 Y0.4714
G1 X0.4562
G3 Y0.513 I0.0183 J0.0208
G1 X0.1294
G3 X0.114 Y0.5062 I0.0 J-0.0208
G1 X0.0596 Y0.4462
G3 X0.0542 Y0.4322 I0.0154 J-0.014
G1 Y0.3665
G1 X0.0463 Y0.348
G1 X0.0391
G1 X0.0248 Y0.3622
G3 X0.0158 Y0.366 I-0.0091 J-0.0091
G1 X-0.0058
G3 X-0.0148 Y0.3622 I0.0 J-0.0128
G1 X-0.0301 Y0.347
G3 X-0.0338 Y0.338 I0.0091 J-0.0091
G1 Y0.3164
G3 X-0.0301 Y0.3074 I0.0128 J0.0
G1 X-0.0148 Y0.2921
G3 X-0.0058 Y0.2884 I0.0091 J0.0091
G1 X0.0158
G1 F5.0 Y0.2916
G3 F10.0 X0.0226 Y0.2944 I0.0 J0.0096
G1 X0.0377 Y0.3096
G1 X0.06
G3 X0.0762 Y0.3202 I0.0 J0.0176
G1 X0.0912 Y0.3552
G3 X0.0926 Y0.3622 I-0.0162 J0.0069
G1 Y0.4254
G1 X0.1372 Y0.4746
G1 X0.4574
G3 Y0.5098 I0.017 J0.0176
G1 X0.1294
G3 X0.1164 Y0.504 I0.0 J-0.0176
G1 X0.062 Y0.444
G3 X0.0574 Y0.4322 I0.013 J-0.0118
G1 Y0.3658
G1 X0.0484 Y0.3448
G1 X0.0377
G1 X0.0226 Y0.36
G3 X0.0158 Y0.3628 I-0.0068 J-0.0068
G1 X-0.0058
G3 X-0.0126 Y0.36 I0.0 J-0.0096
G1 X-0.0278 Y0.3447
G3 X-0.0306 Y0.338 I0.0068 J-0.0068
G1 Y0.3164
G3 X-0.0278 Y0.3096 I0.0096 J0.0
G1 X-0.0126 Y0.2944
G3 X-0.0058 Y0.2916 I0.0068 J0.0068
G1 X0.0158
G1 F5.0 Y0.2948
G3 F10.0 X0.0203 Y0.2967 I0.0 J0.0064
G1 X0.0355 Y0.3119
G3 X0.0363 Y0.3128 I-0.0045 J0.0045
G1 X0.06
G3 X0.0732 Y0.3215 I0.0 J0.0144
G1 X0.0882 Y0.3565
G3 X0.0894 Y0.3622 I-0.0132 J0.0057
G1 Y0.4266
G1 X0.1358 Y0.4778
G1 X0.4588
G3 Y0.5066 I0.0157 J0.0144
G1 X0.1294
G3 X0.1187 Y0.5019 I0.0 J-0.0144
G1 X0.0643 Y0.4419
G3 X0.0606 Y0.4322 I0.0107 J-0.0097
G1 Y0.3651
G1 X0.0505 Y0.3416
G1 X0.0363
G3 X0.0355 Y0.3425 I-0.0053 J-0.0036
G1 X0.0203 Y0.3577
G3 X0.0158 Y0.3596 I-0.0045 J-0.0045
G1 X-0.0058
G3 X-0.0103 Y0.3577 I0.0 J-0.0064
G1 X-0.0255 Y0.3425
G3 X-0.0274 Y0.338 I0.0045 J-0.0045
G1 Y0.3164
G3 X-0.0255 Y0.3119 I0.0064 J0.0
G1 X-0.0103 Y0.2967
G3 X-0.0058 Y0.2948 I0.0045 J0.0045
G1 X0.0158
G1 F5.0 Y0.2972
G3 F10.0 X0.0186 Y0.2984 I0.0 J0.004
G1 X0.0338 Y0.3136
G3 X0.0348 Y0.3152 I-0.0028 J0.0028
G1 X0.06
G3 X0.071 Y0.3225 I0.0 J0.012
G1 X0.086 Y0.3575
G3 X0.087 Y0.3622 I-0.011 J0.0047
G1 Y0.4276
G1 X0.1347 Y0.4802
G1 X0.4598
G3 Y0.5042 I0.0146 J0.012
G1 X0.1294
G3 X0.1205 Y0.5002 I0.0 J-0.012
G1 X0.0661 Y0.4402
G3 X0.063 Y0.4322 I0.0089 J-0.0081
G1 Y0.3646
G1 X0.0521 Y0.3392
G1 X0.0348
G3 X0.0338 Y0.3408 I-0.0038 J-0.0012
G1 X0.0186 Y0.356
G3 X0.0158 Y0.3572 I-0.0028 J-0.0028
G1 X-0.0058
G3 X-0.0086 Y0.356 I0.0 J-0.004
G1 X-0.0238 Y0.3408
G3 X-0.025 Y0.338 I0.0028 J-0.0028
G1 Y0.3164
G3 X-0.0238 Y0.3136 I0.004 J0.0
G1 X-0.0086 Y0.2984
G3 X-0.0058 Y0.2972 I0.0028 J0.0028
G1 X0.0158
G0 Z0.125
G0 X-0.1096 Y0.4634
G0 Z0.012
G1 F5.0 Z-0.004
G3 F10.0 X-0.1079 Y0.4649 I-0.0096 J0.0128
G1 X-0.0927 Y0.4801
G3 X-0.088 Y0.4914 I-0.0113 J0.0113
G1 Y0.513
G3 X-0.0927 Y0.5243 I-0.016 J0.0
G1 X-0.1079 Y0.5395
G3 X-0.1192 Y0.5442 I-0.0113 J-0.0113
G1 X-0.1408
G3 X-0.1521 Y0.5395 I0.0 J-0.016
G1 X-0.1673 Y0.5243
G3 X-0.172 Y0.513 I0.0113 J-0.0113
G1 Y0.4914
G3 X-0.1673 Y0.4801 I0.016 J0.0
G1 X-0.1521 Y0.4649
G3 X-0.1408 Y0.4602 I0.0113 J0.0113
G1 X-0.1192
G3 X-0.1096 Y0.4634 I0.0 J0.016
G1 F5.0 X-0.1115 Y0.466
G3 F10.0 X-0.1102 Y0.4671 I-0.0077 J0.0102
G1 X-0.0949 Y0.4824
G3 X-0.0912 Y0.4914 I-0.0091 J0.0091
G1 Y0.513
G3 X-0.0949 Y0.522 I-0.0128 J0.0
G1 X-0.1102 Y0.5372
G3 X-0.1192 Y0.541 I-0.0091 J-0.0091
G1 X-0.1408
G3 X-0.1498 Y0.5372 I0.0 J-0.0128
G1 X-0.1651 Y0.522
G3 X-0.1688 Y0.513 I0.0091 J-0.0091
G1 Y0.4914
G3 X-0.1651 Y0.4824 I0.0128 J0.0
G1 X-0.1498 Y0.4671
G3 X-0.1408 Y0.4634 I0.0091 J0.0091
G1 X-0.1192
G3 X-0.1115 Y0.466 I0.0 J0.0128
G1 F5.0 X-0.1134 Y0.4685
G3 F10.0 X-0.1124 Y0.4694 I-0.0058 J0.0077
G1 X-0.0972 Y0.4846
G3 X-0.0944 Y0.4914 I-0.0068 J0.0068
G1 Y0.513
G3 X-0.0972 Y0.5197 I-0.0096 J0.0
G1 X-0.1124 Y0.535
G3 X-0.1192 Y0.5378 I-0.0068 J-0.0068
G1 X-0.1408
G3 X-0.1476 Y0.535 I0.0 J-0.0096
G1 X-0.1628 Y0.5197
G3 X-0.1656 Y0.513 I0.0068 J-0.0068
G1 Y0.4914
G3 X-0.1628 Y0.4846 I0.0096 J0.0
G1 X-0.1476 Y0.4694
G3 X-0.1408 Y0.4666 I0.0068 J0.0068
G1 X-0.1192
G3 X-0.1134 Y0.4685 I0.0 J0.0096
G1 F5.0 X-0.1154 Y0.4711
G3 F10.0 X-0.1147 Y0.4717 I-0.0039 J0.0051
G1 X-0.0995 Y0.4869
G3 X-0.0976 Y0.4914 I-0.0045 J0.0045
G1 Y0.513
G3 X-0.0995 Y0.5175 I-0.0064 J0.0
G1 X-0.1147 Y0.5327
G3 X-0.1192 Y0.5346 I-0.0045 J-0.0045
G1 X-0.1408
G3 X-0.1453 Y0.5327 I0.0 J-0.0064
G1 X-0.1605 Y0.5175
G3 X-0.1624 Y0.513 I0.0045 J-0.0045
G1 Y0.4914
G3 X-0.1605 Y0.4869 I0.0064 J0.0
G1 X-0.1453 Y0.4717
G3 X-0.1408 Y0.4698 I0.0045 J0.0045
G1 X-0.1192
G3 X-0.1154 Y0.4711 I0.0 J0.0064
G1 F5.0 X-0.1168 Y0.473
G3 F10.0 X-0.1164 Y0.4734 I-0.0024 J0.0032
G1 X-0.1012 Y0.4886
G3 X-0.1 Y0.4914 I-0.0028 J0.0028
G1 Y0.513
G3 X-0.1012 Y0.5158 I-0.004 J0.0
G1 X-0.1164 Y0.531
G3 X-0.1192 Y0.5322 I-0.0028 J-0.0028
G1 X-0.1408
G3 X-0.1436 Y0.531 I0.0 J-0.004
G1 X-0.1588 Y0.5158
G3 X-0.16 Y0.513 I0.0028 J-0.0028
G1 Y0.4914
G3 X-0.1588 Y0.4886 I0.004 J0.0
G1 X-0.1436 Y0.4734
G3 X-0.1408 Y0.4722 I0.0028 J0.0028
G1 X-0.1192
G3 X-0.1168 Y0.473 I0.0 J0.004
G0 Z0.125
G0 X-0.1189 Y0.5602
G0 Z0.012
G1 F5.0 Z-0.004
G3 F10.0 X-0.1079 Y0.5649 I-0.0004 J0.016
G1 X-0.0927 Y0.5801
G3 X-0.088 Y0.5914 I-0.0113 J0.0113
G1 Y0.613
G3 X-0.0927 Y0.6243 I-0.016 J0.0
G1 X-0.1079 Y0.6395
G3 X-0.1192 Y0.6442 I-0.0113 J-0.0113
G1 X-0.1408
G3 X-0.1521 Y0.6395 I0.0 J-0.016
G1 X-0.1673 Y0.6243
G3 X-0.172 Y0.613 I0.0113 J-0.0113
G1 Y0.5914
G3 X-0.1673 Y0.5801 I0.016 J0.0
G1 X-0.1521 Y0.5649
G3 X-0.1408 Y0.5602 I0.0113 J0.0113
G1 X-0.1192
G3 X-0.1189 I0.0 J0.016
G1 F5.0 Y0.5634
G3 F10.0 X-0.1102 Y0.5671 I-0.0003 J0.0128
G1 X-0.0949 Y0.5824
G3 X-0.0912 Y0.5914 I-0.0091 J0.0091
G1 Y0.613
G3 X-0.0949 Y0.622 I-0.0128 J0.0
G1 X-0.1102 Y0.6372
G3 X-0.1192 Y0.641 I-0.0091 J-0.0091
G1 X-0.1408
G3 X-0.1498 Y0.6372 I0.0 J-0.0128
G1 X-0.1651 Y0.622
G3 X-0.1688 Y0.613 I0.0091 J-0.0091
G1 Y0.5914
G3 X-0.1651 Y0.5824 I0.0128 J0.0
G1 X-0.1498 Y0.5671
G3 X-0.1408 Y0.5634 I0.0091 J0.0091
G1 X-0.1192
G3 X-0.1189 I0.0 J0.0128
G1 F5.0 X-0.119 Y0.5666
G3 F10.0 X-0.1124 Y0.5694 I-0.0002 J0.0096
G1 X-0.0972 Y0.5846
G3 X-0.0944 Y0.5914 I-0.0068 J0.0068
G1 Y0.613
G3 X-0.0972 Y0.6197 I-0.0096 J0.0
G1 X-0.1124 Y0.635
G3 X-0.1192 Y0.6378 I-0.0068 J-0.0068
G1 X-0.1408
G3 X-0.1476 Y0.635 I0.0 J-0.0096
G1 X-0.1628 Y0.6197
G3 X-0.1656 Y0.613 I0.0068 J-0.0068
G1 Y0.5914
G3 X-0.1628 Y0.5846 I0.0096 J0.0
G1 X-0.1476 Y0.5694
G3 X-0.1408 Y0.5666 I0.0068 J0.0068
G1 X-0.1192
G3 X-0.119 I0.0 J0.0096
G1 F5.0 X-0.1191 Y0.5698
G3 F10.0 X-0.1147 Y0.5717 I-0.0001 J0.0064
G1 X-0.0995 Y0.5869
G3 X-0.0976 Y0.5914 I-0.0045 J0.0045
G1 Y0.613
G3 X-0.0995 Y0.6175 I-0.0064 J0.0
G1 X-0.1147 Y0.6327
G3 X-0.1192 Y0.6346 I-0.0045 J-0.0045
G1 X-0.1408
G3 X-0.1453 Y0.6327 I0.0 J-0.0064
G1 X-0.1605 Y0.6175
G3 X-0.1624 Y0.613 I0.0045 J-0.0045
G1 Y0.5914
G3 X-0.1605 Y0.5869 I0.0064 J0.0
G1 X-0.1453 Y0.5717
G3 X-0.1408 Y0.5698 I0.0045 J0.0045
G1 X-0.1192
G3 X-0.1191 I0.0 J0.0064
G1 F5.0 Y0.5722
G3 F10.0 X-0.1164 Y0.5734 I-0.0001 J0.004
G1 X-0.1012 Y0.5886
G3 X-0.1 Y0.5914 I-0.0028 J0.0028
G1 Y0.613
G3 X-0.1012 Y0.6158 I-0.004 J0.0
G1 X-0.1164 Y0.631
G3 X-0.1192 Y0.6322 I-0.0028 J-0.0028
G1 X-0.1408
G3 X-0.1436 Y0.631 I0.0 J-0.004
G1 X-0.1588 Y0.6158
G3 X-0.16 Y0.613 I0.0028 J-0.0028
G1 Y0.5914
G3 X-0.1588 Y0.5886 I0.004 J0.0
G1 X-0.1436 Y0.5734
G3 X-0.1408 Y0.5722 I0.0028 J0.0028
G1 X-0.1192
G1 X-0.1191
G0 Z0.125
G0 X-0.0713 Y0.5868
G0 Z0.012
G1 F5.0 Z-0.004
G3 F10.0 X-0.0673 Y0.5801 I0.0153 J0.0047
G1 X-0.0521 Y0.5649
G3 X-0.0408 Y0.5602 I0.0113 J0.0113
G1 X-0.0192
G3 X-0.0079 Y0.5649 I0.0 J0.016
G1 X0.0073 Y0.5801
G3 X0.012 Y0.5914 I-0.0113 J0.0113
G1 Y0.613
G3 X0.0073 Y0.6243 I-0.016 J0.0
G1 X-0.0079 Y0.6395
G3 X-0.0192 Y0.6442 I-0.0113 J-0.0113
G1 X-0.0408
G3 X-0.0521 Y0.6395 I0.0 J-0.016
G1 X-0.0673 Y0.6243
G3 X-0.072 Y0.613 I0.0113 J-0.0113
G1 Y0.5914
G3 X-0.0713 Y0.5868 I0.016 J0.0
G1 F5.0 X-0.0682 Y0.5877
G3 F10.0 X-0.0651 Y0.5824 I0.0122 J0.0037
G1 X-0.0498 Y0.5671
G3 X-0.0408 Y0.5634 I0.0091 J0.0091
G1 X-0.0192
G3 X-0.0102 Y0.5671 I0.0 J0.0128
G1 X0.0051 Y0.5824
G3 X0.0088 Y0.5914 I-0.0091 J0.0091
G1 Y0.613
G3 X0.0051 Y0.622 I-0.0128 J0.0
G1 X-0.0102 Y0.6372
G3 X-0.0192 Y0.641 I-0.0091 J-0.0091
G1 X-0.0408
G3 X-0.0498 Y0.6372 I0.0 J-0.0128
G1 X-0.0651 Y0.622
G3 X-0.0688 Y0.613 I0.0091 J-0.0091
G1 Y0.5914
G3 X-0.0682 Y0.5877 I0.0128 J0.0
G1 F5.0 X-0.0652 Y0.5886
G3 F10.0 X-0.0628 Y0.5846 I0.0092 J0.0028
G1 X-0.0476 Y0.5694
G3 X-0.0408 Y0.5666 I0.0068 J0.0068
G1 X-0.0192
G3 X-0.0124 Y0.5694 I0.0 J0.0096
G1 X0.0028 Y0.5846
G3 X0.0056 Y0.5914 I-0.0068 J0.0068
G1 Y0.613
G3 X0.0028 Y0.6197 I-0.0096 J0.0
G1 X-0.0124 Y0.635
G3 X-0.0192 Y0.6378 I-0.0068 J-0.0068
G1 X-0.0408
G3 X-0.0476 Y0.635 I0.0 J-0.0096
G1 X-0.0628 Y0.6197
G3 X-0.0656 Y0.613 I0.0068 J-0.0068
G1 Y0.5914
G3 X-0.0652 Y0.5886 I0.0096 J0.0
G1 F5.0 X-0.0621 Y0.5895
G3 F10.0 X-0.0605 Y0.5869 I0.0061 J0.0019
G1 X-0.0453 Y0.5717
G3 X-0.0408 Y0.5698 I0.0045 J0.0045
G1 X-0.0192
G3 X-0.0147 Y0.5717 I0.0 J0.0064
G1 X0.0005 Y0.5869
G3 X0.0024 Y0.5914 I-0.0045 J0.0045
G1 Y0.613
G3 X0.0005 Y0.6175 I-0.0064 J0.0
G1 X-0.0147 Y0.6327
G3 X-0.0192 Y0.6346 I-0.0045 J-0.0045
G1 X-0.0408
G3 X-0.0453 Y0.6327 I0.0 J-0.0064
G1 X-0.0605 Y0.6175
G3 X-0.0624 Y0.613 I0.0045 J-0.0045
G1 Y0.5914
G3 X-0.0621 Y0.5895 I0.0064 J0.0
G1 F5.0 X-0.0598 Y0.5902
G3 F10.0 X-0.0588 Y0.5886 I0.0038 J0.0012
G1 X-0.0436 Y0.5734
G3 X-0.0408 Y0.5722 I0.0028 J0.0028
G1 X-0.0192
G3 X-0.0164 Y0.5734 I0.0 J0.004
G1 X-0.0012 Y0.5886
G3 X0.0 Y0.5914 I-0.0028 J0.0028
G1 Y0.613
G3 X-0.0012 Y0.6158 I-0.004 J0.0
G1 X-0.0164 Y0.631
G3 X-0.0192 Y0.6322 I-0.0028 J-0.0028
G1 X-0.0408
G3 X-0.0436 Y0.631 I0.0 J-0.004
G1 X-0.0588 Y0.6158
G3 X-0.06 Y0.613 I0.0028 J-0.0028
G1 Y0.5914
G3 X-0.0598 Y0.5902 I0.004 J0.0
G0 Z0.125
G0 X0.2517 Y0.5848
G0 Z0.012
G1 F5.0 Z-0.004
G3 F10.0 X0.2748 Y0.5441 I0.0461 J-0.0008
G3 X0.344 Y0.584 I0.0231 J0.0399
G3 X0.2517 Y0.5848 I-0.0461 J0.0
G1 F5.0 X0.2549 Y0.5847
G3 F10.0 X0.2764 Y0.5468 I0.0429 J-0.0008
G3 X0.3408 Y0.584 I0.0215 J0.0372
G3 X0.2549 Y0.5847 I-0.0429 J0.0
G1 F5.0 X0.2581
G3 F10.0 X0.278 Y0.5496 I0.0397 J-0.0007
G3 X0.3376 Y0.584 I0.0199 J0.0344
G3 X0.2581 Y0.5847 I-0.0397 J0.0
G1 F5.0 X0.2613 Y0.5846
G3 F10.0 X0.2796 Y0.5524 I0.0365 J-0.0006
G3 X0.3344 Y0.584 I0.0183 J0.0316
G3 X0.2613 Y0.5846 I-0.0365 J0.0
G1 F5.0 X0.2637
G3 F10.0 X0.2808 Y0.5544 I0.0341 J-0.0006
G3 X0.332 Y0.584 I0.0171 J0.0295
G3 X0.2637 Y0.5846 I-0.0341 J0.0
G0 Z0.125
G0 X0.267 Y0.656
G0 Z0.012
G1 F5.0 Z-0.004
G3 F10.0 X0.2677 I0.0007 J0.016
G1 X0.328
G3 X0.344 Y0.672 I0.0 J0.016
G1 Y0.7322
G3 X0.328 Y0.7482 I-0.016 J0.0
G1 X0.2677
G3 X0.2517 Y0.7322 I0.0 J-0.016
G1 Y0.672
G3 X0.267 Y0.656 I0.016 J0.0
G1 F5.0 X0.2671 Y0.6592
G3 F10.0 X0.2677 I0.0006 J0.0128
G1 X0.328
G3 X0.3408 Y0.672 I0.0 J0.0128
G1 Y0.7322
G3 X0.328 Y0.745 I-0.0128 J0.0
G1 X0.2677
G3 X0.2549 Y0.7322 I0.0 J-0.0128
G1 Y0.672
G3 X0.2671 Y0.6592 I0.0128 J0.0
G1 F5.0 X0.2673 Y0.6624
G3 F10.0 X0.2677 I0.0004 J0.0096
G1 X0.328
G3 X0.3376 Y0.672 I0.0 J0.0096
G1 Y0.7322
G3 X0.328 Y0.7418 I-0.0096 J0.0
G1 X0.2677
G3 X0.2581 Y0.7322 I0.0 J-0.0096
G1 Y0.672
G3 X0.2673 Y0.6624 I0.0096 J0.0
G1 F5.0 X0.2674 Y0.6656
G3 F10.0 X0.2677 I0.0003 J0.0064
G1 X0.328
G3 X0.3344 Y0.672 I0.0 J0.0064
G1 Y0.7322
G3 X0.328 Y0.7386 I-0.0064 J0.0
G1 X0.2677
G3 X0.2613 Y0.7322 I0.0 J-0.0064
G1 Y0.672
G3 X0.2674 Y0.6656 I0.0064 J0.0
G1 F5.0 X0.2675 Y0.668
G3 F10.0 X0.2677 I0.0002 J0.004
G1 X0.328
G3 X0.332 Y0.672 I0.0 J0.004
G1 Y0.7322
G3 X0.328 Y0.7362 I-0.004 J0.0
G1 X0.2677
G3 X0.2637 Y0.7322 I0.0 J-0.004
G1 Y0.672
G3 X0.2675 Y0.668 I0.004 J0.0
G0 Z0.125
G0 X0.371 Y0.6918
G0 Z0.012
G1 F5.0 Z-0.004
G3 F10.0 X0.3929 Y0.6622 I0.0449 J0.0103
G3 X0.4621 Y0.7021 I0.0231 J0.0399
G3 X0.371 Y0.6918 I-0.0461 J0.0
G1 F5.0 X0.3741 Y0.6925
G3 F10.0 X0.3945 Y0.6649 I0.0418 J0.0096
G3 X0.4589 Y0.7021 I0.0215 J0.0372
G3 X0.3741 Y0.6925 I-0.0429 J0.0
G1 F5.0 X0.3772 Y0.6932
G3 F10.0 X0.3961 Y0.6677 I0.0387 J0.0089
G3 X0.4557 Y0.7021 I0.0199 J0.0344
G3 X0.3772 Y0.6932 I-0.0397 J0.0
G1 F5.0 X0.3804 Y0.6939
G3 F10.0 X0.3977 Y0.6705 I0.0356 J0.0082
G3 X0.4525 Y0.7021 I0.0183 J0.0316
G3 X0.3804 Y0.6939 I-0.0365 J0.0
G1 F5.0 X0.3827 Y0.6945
G3 F10.0 X0.3989 Y0.6726 I0.0333 J0.0076
G3 X0.4501 Y0.7021 I0.0171 J0.0295
G3 X0.3827 Y0.6945 I-0.0341 J0.0
G0 Z0.125
G0 X0.4027 Y0.6282
G0 Z0.012
G1 F5.0 Z-0.004
G3 F10.0 X0.3929 Y0.5441 I0.0133 J-0.0442
G3 X0.4621 Y0.584 I0.0231 J0.0399
G3 X0.4027 Y0.6282 I-0.0461 J0.0
G1 F5.0 X0.4036 Y0.6251
G3 F10.0 X0.3945 Y0.5468 I0.0124 J-0.0411
G3 X0.4589 Y0.584 I0.0215 J0.0372
G3 X0.4036 Y0.6251 I-0.0429 J0.0
G1 F5.0 X0.4045 Y0.622
G3 F10.0 X0.3961 Y0.5496 I0.0114 J-0.038
G3 X0.4557 Y0.584 I0.0199 J0.0344
G3 X0.4045 Y0.622 I-0.0397 J0.0
G1 F5.0 X0.4054 Y0.619
G3 F10.0 X0.3977 Y0.5524 I0.0105 J-0.035
G3 X0.4525 Y0.584 I0.0183 J0.0316
G3 X0.4054 Y0.619 I-0.0365 J0.0
G1 F5.0 X0.4061 Y0.6167
G3 F10.0 X0.3989 Y0.5544 I0.0098 J-0.0327
G3 X0.4501 Y0.584 I0.0171 J0.0295
G3 X0.4061 Y0.6167 I-0.0341 J0.0
G0 Z0.125
G0 X0.4957 Y0.6765
G0 Z0.012
G1 F5.0 Z-0.004
G3 F10.0 X0.511 Y0.6622 I0.0384 J0.0256
G3 X0.5802 Y0.7021 I0.0231 J0.0399
G3 X0.4957 Y0.6765 I-0.0461 J0.0
G1 F5.0 X0.4984 Y0.6783
G3 F10.0 X0.5126 Y0.6649 I0.0357 J0.0238
G3 X0.577 Y0.7021 I0.0215 J0.0372
G3 X0.4984 Y0.6783 I-0.0429 J0.0
G1 F5.0 X0.501 Y0.68
G3 F10.0 X0.5142 Y0.6677 I0.033 J0.0221
G3 X0.5738 Y0.7021 I0.0199 J0.0344
G3 X0.501 Y0.68 I-0.0397 J0.0
G1 F5.0 X0.5037 Y0.6818
G3 F10.0 X0.5158 Y0.6705 I0.0304 J0.0203
G3 X0.5706 Y0.7021 I0.0183 J0.0316
G3 X0.5037 Y0.6818 I-0.0365 J0.0
G1 F5.0 X0.5057 Y0.6832
G3 F10.0 X0.517 Y0.6726 I0.0284 J0.0189
G3 X0.5682 Y0.7021 I0.0171 J0.0295
G3 X0.5057 Y0.6832 I-0.0341 J0.0
G0 Z0.125
G0 X0.6064 Y0.6962
G0 Z0.012
G1 F5.0 Z-0.004
G3 F10.0 X0.6291 Y0.6622 I0.0457 J0.0059
G3 X0.6983 Y0.7021 I0.0231 J0.0399
G3 X0.6064 Y0.6962 I-0.0461 J0.0
G1 F5.0 X0.6096 Y0.6966
G3 F10.0 X0.6307 Y0.6649 I0.0426 J0.0055
G3 X0.6951 Y0.7021 I0.0215 J0.0372
G3 X0.6096 Y0.6966 I-0.0429 J0.0
G1 F5.0 X0.6128 Y0.697
G3 F10.0 X0.6323 Y0.6677 I0.0394 J0.0051
G3 X0.6919 Y0.7021 I0.0199 J0.0344
G3 X0.6128 Y0.697 I-0.0397 J0.0
G1 F5.0 X0.6159 Y0.6974
G3 F10.0 X0.6339 Y0.6705 I0.0362 J0.0047
G3 X0.6887 Y0.7021 I0.0183 J0.0316
G3 X0.6159 Y0.6974 I-0.0365 J0.0
G1 F5.0 X0.6183 Y0.6977
G3 F10.0 X0.6351 Y0.6726 I0.0338 J0.0044
G3 X0.6863 Y0.7021 I0.0171 J0.0295
G3 X0.6183 Y0.6977 I-0.0341 J0.0
G0 Z0.125
G0 X0.639 Y0.6282
G0 Z0.012
G1 F5.0 Z-0.004
G3 F10.0 X0.6291 Y0.5441 I0.0132 J-0.0442
G3 X0.6983 Y0.584 I0.0231 J0.0399
G3 X0.639 Y0.6282 I-0.0461 J0.0
G1 F5.0 X0.6399 Y0.6251
G3 F10.0 X0.6307 Y0.5468 I0.0122 J-0.0411
G3 X0.6951 Y0.584 I0.0215 J0.0372
G3 X0.6399 Y0.6251 I-0.0429 J0.0
G1 F5.0 X0.6408 Y0.6221
G3 F10.0 X0.6323 Y0.5496 I0.0113 J-0.0381
G3 X0.6919 Y0.584 I0.0199 J0.0344
G3 X0.6408 Y0.6221 I-0.0397 J0.0
G1 F5.0 X0.6418 Y0.619
G3 F10.0 X0.6339 Y0.5524 I0.0104 J-0.035
G3 X0.6887 Y0.584 I0.0183 J0.0316
G3 X0.6418 Y0.619 I-0.0365 J0.0
G1 F5.0 X0.6424 Y0.6167
G3 F10.0 X0.6351 Y0.5544 I0.0097 J-0.0327
G3 X0.6863 Y0.584 I0.0171 J0.0295
G3 X0.6424 Y0.6167 I-0.0341 J0.0
G0 Z0.125
G0 X0.8831 Y0.585
G0 Z0.012
G1 F5.0 Z-0.004
G3 F10.0 X0.883 Y0.583 I0.0159 J-0.0021
G1 Y0.5614
G3 X0.8877 Y0.5501 I0.016 J0.0
G1 X0.9029 Y0.5349
G3 X0.9142 Y0.5302 I0.0113 J0.0113
G1 X0.9358
G3 X0.9471 Y0.5349 I0.0 J0.016
G1 X0.9623 Y0.5501
G3 X0.967 Y0.5614 I-0.0113 J0.0113
G1 Y0.583
G3 X0.9623 Y0.5943 I-0.016 J0.0
G1 X0.9471 Y0.6095
G3 X0.9358 Y0.6142 I-0.0113 J-0.0113
G1 X0.9142
G3 X0.9029 Y0.6095 I0.0 J-0.016
G1 X0.8877 Y0.5943
G3 X0.8831 Y0.585 I0.0113 J-0.0113
G1 F5.0 X0.8863 Y0.5846
G3 F10.0 X0.8862 Y0.583 I0.0127 J-0.0017
G1 Y0.5614
G3 X0.8899 Y0.5524 I0.0128 J0.0
G1 X0.9052 Y0.5371
G3 X0.9142 Y0.5334 I0.0091 J0.0091
G1 X0.9358
G3 X0.9448 Y0.5371 I0.0 J0.0128
G1 X0.9601 Y0.5524
G3 X0.9638 Y0.5614 I-0.0091 J0.0091
G1 Y0.583
G3 X0.9601 Y0.592 I-0.0128 J0.0
G1 X0.9448 Y0.6072
G3 X0.9358 Y0.611 I-0.0091 J-0.0091
G1 X0.9142
G3 X0.9052 Y0.6072 I0.0 J-0.0128
G1 X0.8899 Y0.592
G3 X0.8863 Y0.5846 I0.0091 J-0.0091
G1 F5.0 X0.8895 Y0.5842
G3 F10.0 X0.8894 Y0.583 I0.0095 J-0.0013
G1 Y0.5614
G3 X0.8922 Y0.5546 I0.0096 J0.0
G1 X0.9074 Y0.5394
G3 X0.9142 Y0.5366 I0.0068 J0.0068
G1 X0.9358
G3 X0.9426 Y0.5394 I0.0 J0.0096
G1 X0.9578 Y0.5546
G3 X0.9606 Y0.5614 I-0.0068 J0.0068
G1 Y0.583
G3 X0.9578 Y0.5897 I-0.0096 J0.0
G1 X0.9426 Y0.605
G3 X0.9358 Y0.6078 I-0.0068 J-0.0068
G1 X0.9142
G3 X0.9074 Y0.605 I0.0 J-0.0096
G1 X0.8922 Y0.5897
G3 X0.8895 Y0.5842 I0.0068 J-0.0068
G1 F5.0 X0.8927 Y0.5838
G3 F10.0 X0.8926 Y0.583 I0.0063 J-0.0008
G1 Y0.5614
G3 X0.8945 Y0.5569 I0.0064 J0.0
G1 X0.9097 Y0.5417
G3 X0.9142 Y0.5398 I0.0045 J0.0045
G1 X0.9358
G3 X0.9403 Y0.5417 I0.0 J0.0064
G1 X0.9555 Y0.5569
G3 X0.9574 Y0.5614 I-0.0045 J0.0045
G1 Y0.583
G3 X0.9555 Y0.5875 I-0.0064 J0.0
G1 X0.9403 Y0.6027
G3 X0.9358 Y0.6046 I-0.0045 J-0.0045
G1 X0.9142
G3 X0.9097 Y0.6027 I0.0 J-0.0064
G1 X0.8945 Y0.5875
G3 X0.8927 Y0.5838 I0.0045 J-0.0045
G1 F5.0 X0.895 Y0.5835
G3 F10.0 Y0.583 I0.004 J-0.0005
G1 Y0.5614
G3 X0.8962 Y0.5586 I0.004 J0.0
G1 X0.9114 Y0.5434
G3 X0.9142 Y0.5422 I0.0028 J0.0028
G1 X0.9358
G3 X0.9386 Y0.5434 I0.0 J0.004
G1 X0.9538 Y0.5586
G3 X0.955 Y0.5614 I-0.0028 J0.0028
G1 Y0.583
G3 X0.9538 Y0.5858 I-0.004 J0.0
G1 X0.9386 Y0.601
G3 X0.9358 Y0.6022 I-0.0028 J-0.0028
G1 X0.9142
G3 X0.9114 Y0.601 I0.0 J-0.004
G1 X0.8962 Y0.5858
G3 X0.895 Y0.5835 I0.0028 J-0.0028
G0 Z0.125
G0 X0.5113 Y0.2162
G0 Z0.012
G1 F5.0 Z-0.004
G3 F10.0 X0.481 Y0.2292 I-0.0303 J-0.029
G1 X0.429
G3 Y0.1452 I0.0 J-0.042
G1 X0.481
G3 X0.5113 Y0.2162 I0.0 J0.042
G1 F5.0 X0.509 Y0.214
G3 F10.0 X0.481 Y0.226 I-0.028 J-0.0268
G1 X0.429
G3 Y0.1484 I0.0 J-0.0388
G1 X0.481
G3 X0.509 Y0.214 I0.0 J0.0388
G1 F5.0 X0.5067 Y0.2118
G3 F10.0 X0.481 Y0.2228 I-0.0257 J-0.0246
G1 X0.429
G3 Y0.1516 I0.0 J-0.0356
G1 X0.481
G3 X0.5067 Y0.2118 I0.0 J0.0356
G1 F5.0 X0.5044 Y0.2096
G3 F10.0 X0.481 Y0.2196 I-0.0234 J-0.0224
G1 X0.429
G3 Y0.1548 I0.0 J-0.0324
G1 X0.481
G3 X0.5044 Y0.2096 I0.0 J0.0324
G1 F5.0 X0.5027 Y0.2079
G3 F10.0 X0.481 Y0.2172 I-0.0217 J-0.0207
G1 X0.429
G3 Y0.1572 I0.0 J-0.03
G1 X0.481
G3 X0.5027 Y0.2079 I0.0 J0.03
( Rub Out, 1/16" Stub )
G0 Z0.125
( T7 : 0.0625 )
( Tool Taper coming soon )
( TOOL/MILL,0.0625,0.0,0.0,0 )
T7 M6
M3 S1000
G0 X-0.3088 Y-0.3973
G0 Z0.012
G1 F5.0 Z-0.004
G1 F10.0 X-0.2982
G1 Y-0.577
G3 X-0.3088 Y-0.5851 I0.0287 J-0.0483
G1 Y-0.3973
G0 Z0.125
G0 X-0.1658
G0 Z0.012
G1 F5.0 Z-0.004
G1 F10.0 X-0.1422
G1 Y-0.577
G3 X-0.154 Y-0.5864 I0.0287 J-0.0483
G3 X-0.1658 Y-0.577 I-0.0405 J-0.039
G1 Y-0.3973
G0 Z0.125
G0 X-0.0098
G0 Z0.012
G1 F5.0 Z-0.004
G1 F10.0 X0.0138
G1 Y-0.577
G3 X0.002 Y-0.5864 I0.0287 J-0.0483
G3 X-0.0098 Y-0.577 I-0.0405 J-0.039
G1 Y-0.3973
G0 Z0.125
G0 X0.1462
G0 Z0.012
G1 F5.0 Z-0.004
G1 F10.0 X0.1698
G1 Y-0.577
G3 X0.158 Y-0.5864 I0.0287 J-0.0483
G3 X0.1462 Y-0.577 I-0.0405 J-0.039
G1 Y-0.3973
G0 Z0.125
G0 X0.3022
G0 Z0.012
G1 F5.0 Z-0.004
G1 F10.0 X0.3258
G1 Y-0.577
G3 X0.314 Y-0.5864 I0.0287 J-0.0483
G3 X0.3022 Y-0.577 I-0.0405 J-0.039
G1 Y-0.3973
G0 Z0.125
G0 X0.4957 Y-0.4348
G0 Z0.012
G1 F5.0 Z-0.004
G1 F10.0 X0.4993
G1 Y-0.5628
G3 X0.4957 Y-0.559 I-0.0698 J-0.0626
G1 Y-0.4348
G1 F5.0 X0.4832
G1 F10.0 Y-0.4223
G1 X0.5118
G1 Y-0.9398
G1 X0.5107
G1 Y-0.6253
G3 X0.4832 Y-0.5644 I-0.0812 J0.0
G1 Y-0.4348
G1 F5.0 X0.4582
G1 F10.0 Y-0.3973
G1 X0.5368
G1 Y-0.9648
G1 X0.4838
G3 X0.4857 Y-0.9503 I-0.0543 J0.0144
G1 Y-0.6253
G3 X0.4582 Y-0.577 I-0.0562 J0.0
G1 Y-0.4348
G0 Z0.125
G0 X-0.4787
G0 Z0.012
G1 F5.0 Z-0.004
G1 F10.0 Y-0.5482
G3 X-0.4873 Y-0.5548 I0.0532 J-0.0771
G1 Y-0.4348
G1 X-0.4787
G1 F5.0 X-0.4662
G1 F10.0 Y-0.5551
G3 X-0.4998 Y-0.5924 I0.0407 J-0.0703
G1 Y-0.4223
G1 X-0.4662
G1 Y-0.4348
G1 F5.0 X-0.4412
G1 F10.0 Y-0.5714
G3 X-0.4817 Y-0.6253 I0.0157 J-0.054
G1 Y-0.9503
G3 X-0.4798 Y-0.9648 I0.0562 J0.0
G1 X-0.5248
G1 Y-0.3973
G1 X-0.4412
G1 Y-0.4348
G1 F5.0 X-0.4162 Y-0.4347
G1 F10.0 Y-0.5941
G1 X-0.4255
G3 X-0.4567 Y-0.6253 I0.0 J-0.0313
G1 Y-0.9503
G3 X-0.4255 Y-0.9816 I0.0313 J0.0
G1 X-0.3505
G3 X-0.3192 Y-0.9503 I0.0 J0.0313
G1 Y-0.6253
G3 X-0.3337 Y-0.5989 I-0.0313 J0.0
G1 Y-0.3758
G3 X-0.334 Y-0.3723 I-0.0313 J0.0
G1 X-0.273
G3 X-0.2732 Y-0.3758 I0.031 J-0.0036
G1 Y-0.5943
G3 X-0.3007 Y-0.6253 I0.0038 J-0.031
G1 Y-0.9503
G3 X-0.2695 Y-0.9816 I0.0313 J0.0
G1 X-0.1945
G3 X-0.1632 Y-0.9503 I0.0 J0.0313
G1 Y-0.6253
G3 X-0.1907 Y-0.5943 I-0.0313 J0.0
G1 Y-0.3758
G3 X-0.191 Y-0.3723 I-0.0313 J0.0
G1 X-0.117
G3 X-0.1172 Y-0.3758 I0.031 J-0.0036
G1 Y-0.5943
G3 X-0.1447 Y-0.6253 I0.0038 J-0.031
G1 Y-0.9503
G3 X-0.1135 Y-0.9816 I0.0313 J0.0
G1 X-0.0385
G3 X-0.0072 Y-0.9503 I0.0 J0.0313
G1 Y-0.6253
G3 X-0.0347 Y-0.5943 I-0.0313 J0.0
G1 Y-0.3758
G3 X-0.035 Y-0.3723 I-0.0313 J0.0
G1 X0.039
G3 X0.0387 Y-0.3758 I0.031 J-0.0036
G1 Y-0.5943
G3 X0.0112 Y-0.6253 I0.0038 J-0.031
G1 Y-0.9503
G3 X0.0425 Y-0.9816 I0.0313 J0.0
G1 X0.1175
G3 X0.1487 Y-0.9503 I0.0 J0.0313
G1 Y-0.6253
G3 X0.1212 Y-0.5943 I-0.0313 J0.0
G1 Y-0.3758
G3 X0.121 Y-0.3723 I-0.0312 J0.0
G1 X0.195
G3 X0.1947 Y-0.3758 I0.031 J-0.0036
G1 Y-0.5943
G3 X0.1672 Y-0.6253 I0.0038 J-0.031
G1 Y-0.9503
G3 X0.1985 Y-0.9816 I0.0313 J0.0
G1 X0.2735
G3 X0.3047 Y-0.9503 I0.0 J0.0313
G1 Y-0.6253
G3 X0.2772 Y-0.5943 I-0.0313 J0.0
G1 Y-0.3758
G3 X0.277 Y-0.3723 I-0.0313 J0.0
G1 X0.351
G3 X0.3507 Y-0.3758 I0.031 J-0.0036
G1 Y-0.5943
G3 X0.3232 Y-0.6253 I0.0038 J-0.031
G1 Y-0.9503
G3 X0.3545 Y-0.9816 I0.0313 J0.0
G1 X0.4295
G3 X0.4607 Y-0.9503 I0.0 J0.0313
G1 Y-0.6253
G3 X0.4332 Y-0.5943 I-0.0313 J0.0
G1 Y-0.3758
G3 X0.433 Y-0.3723 I-0.0313 J0.0
G1 X0.5618
G1 Y-0.9898
G1 X-0.5498
G1 Y-0.3723
G1 X-0.416
G3 X-0.4162 Y-0.3758 I0.031 J-0.0036
G1 Y-0.4347
( Rubout Edge, 1/16" Stub )
S1000
G0 Z0.125
G0 X-0.0751 Y-0.9961
G0 Z0.012
G1 F5.0 Z-0.004
G3 F10.0 X0.439 Y-0.996 I0.2557 J20.4724
G3 X0.4392 I-0.0003 J0.0212
G3 X0.5582 Y-0.8741 I-0.003 J0.122
G1 Y-0.3911
G1 X1.009
G3 X1.1431 Y-0.2855 I0.0137 J0.1205
G3 X1.1432 Y-0.2829 I-0.0211 J0.0026
G1 Y0.8672
G3 X1.1431 Y0.8694 I-0.0213 J0.0
G3 X0.9893 Y0.9954 I-0.1404 J-0.0145
G1 X-0.9892
G3 X-1.1431 Y0.8694 I-0.0137 J-0.1404
G3 X-1.1432 Y0.8672 I0.0211 J-0.0022
G1 Y-0.2829
G3 X-1.143 Y-0.2864 I0.0213 J0.0
G3 X-1.0094 Y-0.3911 I0.1241 J0.0208
G1 X-0.5585
G3 X-0.5582 Y-0.8768 I20.0751 J-0.2324
G3 Y-0.877 I0.0212 J0.0003
G3 X-0.4363 Y-0.9961 I0.122 J0.003
G1 X-0.4362
G1 X-0.241
G1 X-0.0751
G0 Z0.125
M5
M30
