( Made using CamBam - http://www.cambam.co.uk )
( Cassette Adapter 11/4/2018 9:10:41 AM )
( T6 : 0.008 )
( T7 : 0.0625 )
( T8 : 0.0625 )
( CUTVIEWER )
( FROM/0,0,5 )
( Select dummy tool to avoid warnings )
( TOOL/MILL,1,0,20.0,0 )
( STOCK/BLOCK,3.0,2.5,0.0625,1.5,1.25,0.0625 )
G20 G90 G91.1 G64 G40
G0 Z0.125
( T6 : 0.008 )
( Tool Taper coming soon )
( TOOL/MILL,0.008,0.0,0.0,0 )
T6 M6
( Isolation, 60V )
G17
M3 S1000
G0 X-0.335 Y0.6633
G0 Z0.012
G1 F5.0 Z-0.004
G2 F10.0 X-0.3371 Y0.6618 I-0.0165 J0.0211
G2 X-0.3379 Y0.6614 I-0.006 J0.0094
G2 X-0.3382 Y0.6612 I-0.0067 J0.0118
G3 X-0.331 I0.0454 J32.2259
G2 X-0.335 Y0.6633 I0.003 J0.0108
G0 Z0.125
G0 X-0.3698 Y0.6613
G0 Z0.012
G1 F5.0 Z-0.004
G2 F10.0 X-0.3701 Y0.6614 I0.0158 J0.0327
G2 X-0.3705 Y0.6617 I0.005 J0.01
G2 X-0.3733 Y0.6636 I0.0079 J0.0143
G1 X-0.3739 Y0.6641
G2 X-0.3762 Y0.6667 I0.0071 J0.0087
G2 X-0.3806 Y0.6808 I0.0238 J0.015
G2 X-0.3825 Y0.6778 I-0.0354 J0.0213
G1 X-0.3744 Y0.6613
G3 X-0.3698 I0.0816 J32.2258
G0 Z0.125
G0 X-0.3699 Y0.6181
G0 Z0.012
G1 F5.0 Z-0.004
G2 F10.0 X-0.3849 I0.0754 J32.729
G2 X-0.3919 Y0.5446 I-0.031 J-0.0341
G1 Y0.4822
G2 X-0.3945 Y0.4715 I-0.024 J0.0
G1 X-0.4195 Y0.4214
G2 X-0.4294 Y0.4112 I-0.0215 J0.0107
G1 X-0.651 Y0.289
G1 Y-0.1934
G1 X-0.5946 Y-0.2538
G1 X-0.426
G2 X-0.399 Y-0.2368 I0.034 J-0.024
G1 X-0.52
G2 X-0.537 Y-0.2298 I0.0 J0.024
G1 X-0.607 Y-0.1598
G2 X-0.614 Y-0.1428 I0.017 J0.017
G1 Y0.2822
G2 X-0.6019 Y0.303 I0.024 J0.0
G2 X-0.6016 Y0.3032 I0.0079 J-0.0139
G3 X-0.3383 Y0.4542 I-3.4709 J6.3577
G1 X-0.3239 Y0.4828
G1 X-0.3226 Y0.5451
G2 X-0.329 Y0.618 I0.0248 J0.0389
G2 X-0.3699 Y0.6181 I0.0345 J32.7291
G0 Z0.125
G0 X-0.4066 Y0.6291
G0 Z0.012
G1 F5.0 Z-0.004
G2 F10.0 X-0.4079 Y0.6315 I0.0202 J0.013
G1 X-0.4201 Y0.6562
G2 X-0.4615 Y0.6947 I0.0041 J0.0459
G2 X-0.4739 Y0.691 I-0.0135 J0.0225
G1 X-0.4607 Y0.6822
G2 X-0.4499 Y0.6622 I-0.0133 J-0.02
G1 X-0.4501 Y0.615
G2 X-0.4066 Y0.6291 I0.0341 J-0.031
G0 Z0.125
G0 X-0.4503 Y0.5532
G0 Z0.012
G1 F5.0 Z-0.004
G1 F10.0 X-0.4504 Y0.5116
G2 X-0.466 Y0.4625 I-0.0241 J-0.0194
G2 X-0.4655 Y0.4617 I-0.0136 J-0.0085
G2 X-0.4647 Y0.4599 I-0.014 J-0.0078
G1 X-0.4641 Y0.4583
G2 X-0.4638 Y0.4577 I-0.0148 J-0.006
G2 X-0.4625 Y0.4514 I-0.0189 J-0.0072
G2 Y0.451 I-0.016 J-0.0009
G1 Y0.4493
G2 Y0.4481 I-0.016 J-0.0004
G2 Y0.4477 I-0.016 J0.0007
G1 X-0.4591 Y0.4496
G1 X-0.4399 Y0.4879
G1 Y0.5446
G2 X-0.4503 Y0.5532 I0.024 J0.0394
G1 F5.0 X-0.4467 Y0.5564
G2 F10.0 X-0.455 Y0.5705 I0.0307 J0.0276
G1 X-0.4552 Y0.5098
G2 X-0.4753 Y0.4661 I-0.0193 J-0.0176
G2 X-0.4739 Y0.4649 I-0.0097 J-0.0122
G2 X-0.4715 Y0.4621 I-0.0114 J-0.0126
G2 X-0.471 Y0.4614 I-0.009 J-0.0067
G1 X-0.4701 Y0.4599
G2 X-0.4697 Y0.4593 I-0.0095 J-0.006
G2 X-0.4691 Y0.4581 I-0.0098 J-0.0054
G1 X-0.4685 Y0.4565
G2 X-0.4683 Y0.4561 I-0.0104 J-0.0042
G2 X-0.4673 Y0.4512 I-0.0144 J-0.0055
G2 Y0.4508 I-0.0112 J-0.0007
G1 Y0.4492
G2 Y0.4483 I-0.0112 J-0.0003
G2 X-0.4674 Y0.4471 I-0.0112 J0.0005
G1 X-0.4677 Y0.4454
G2 X-0.4678 Y0.4445 I-0.0111 J0.0017
G2 X-0.4681 Y0.4434 I-0.0109 J0.0026
G1 X-0.4687 Y0.4418
G2 X-0.469 Y0.4411 I-0.0106 J0.0036
G2 X-0.4707 Y0.4378 I-0.0156 J0.0062
G2 X-0.4708 Y0.4377 I-0.0129 J0.0077
G1 X-0.4555 Y0.4461
G1 X-0.4351 Y0.4868
G1 Y0.5474
G2 X-0.4467 Y0.5564 I0.0192 J0.0366
G0 Z0.125
G0 X-0.4983 Y0.5549
G0 Z0.012
G1 F5.0 Z-0.004
G2 F10.0 X-0.5013 Y0.5515 I-0.0358 J0.0291
G2 X-0.4983 Y0.5497 I-0.0129 J-0.0257
G1 Y0.5549
G1 F5.0 X-0.4935
G1 F10.0 X-0.4934 Y0.5767
G2 X-0.5112 Y0.5495 I-0.0407 J0.0073
G2 X-0.4946 Y0.5395 I-0.003 J-0.0238
G2 X-0.4943 Y0.5391 I-0.0092 J-0.0064
G2 X-0.4935 Y0.5377 I-0.0139 J-0.0089
G1 Y0.5549
G0 Z0.125
G0 X-0.4981 Y0.6128
G0 Z0.012
G1 F5.0 Z-0.004
G1 F10.0 X-0.498 Y0.6494
G1 X-0.5145 Y0.6603
G2 X-0.5267 Y0.6566 I-0.0195 J0.0418
G2 Y0.6295 I-0.0225 J-0.0135
G2 X-0.4981 Y0.6128 I-0.0074 J-0.0455
G1 F5.0 X-0.4933
G1 F10.0 X-0.4932 Y0.6519
G1 X-0.5142 Y0.6659
G2 X-0.5373 Y0.6609 I-0.0199 J0.0362
G2 Y0.6252 I-0.0118 J-0.0179
G2 X-0.4933 Y0.5911 I0.0033 J-0.0412
G1 Y0.6128
G0 Z0.125
G0 X-0.5752 Y0.6988
G0 Z0.012
G1 F5.0 Z-0.004
G2 F10.0 Y0.7054 I0.0412 J0.0033
G2 X-0.5779 Y0.7021 I-0.0179 J0.0118
G2 X-0.5752 Y0.6988 I-0.0152 J-0.0151
G0 Z0.125
G0 X-0.6083 Y0.7021
G0 Z0.012
G1 F5.0 Z-0.004
G2 F10.0 X-0.611 Y0.7054 I0.0152 J0.0151
G2 Y0.6988 I-0.0412 J-0.0033
G2 X-0.6083 Y0.7021 I0.0179 J-0.0118
G0 Z0.125
G0 X-0.6793 Y0.671
G0 Z0.012
G1 F5.0 Z-0.004
G2 F10.0 X-0.6813 Y0.6728 I0.0272 J0.0311
G1 X-0.6838 Y0.6721
G2 X-0.6793 Y0.671 I-0.0236 J-0.1025
G0 Z0.125
G0 X-0.7566 Y0.6493
G0 Z0.012
G1 F5.0 Z-0.004
G1 F10.0 X-0.7607 Y0.648
G1 Y0.6437
G2 X-0.7566 Y0.6493 I0.0195 J-0.01
G0 Z0.125
G0 X-0.7992 Y0.5107
G0 Z0.012
G1 F5.0 Z-0.004
G3 F10.0 X-0.8015 Y0.507 I0.0233 J-0.0168
G2 X-0.7992 Y0.5099 I0.0215 J-0.0148
G1 Y0.5107
G1 F5.0 X-0.8031 Y0.5135
G2 F10.0 X-0.8028 Y0.5139 I0.0272 J-0.0197
G3 X-0.8016 Y0.5178 I-0.0051 J0.0038
G2 X-0.8012 Y0.6679 I3.0822 J0.0677
G2 X-0.7839 Y0.6838 I0.019 J-0.0034
G3 X-0.7837 I-0.0006 J0.0064
G3 X-0.7831 Y0.6839 I-0.0008 J0.0064
G1 X-0.7814 Y0.6843
G3 X-0.7812 Y0.6844 I-0.0014 J0.0063
G3 X-0.7808 Y0.6845 I-0.0015 J0.0062
G1 X-0.7031 Y0.7088
G3 X-0.703 I-0.0019 J0.0061
G3 X-0.6882 Y0.7285 I-0.0069 J0.0205
G2 X-0.6086 Y0.7115 I0.036 J-0.0263
G3 X-0.6081 Y0.7101 I0.0063 J0.0013
G3 X-0.6001 Y0.7021 I0.015 J0.0071
G3 X-0.6081 Y0.6941 I0.007 J-0.0151
G3 X-0.6086 Y0.6927 I0.0058 J-0.0027
G2 X-0.6599 Y0.6581 I-0.0433 J0.0089
G3 X-0.6861 Y0.6677 I-0.0474 J-0.0885
G3 X-0.6874 Y0.6678 I-0.0014 J-0.0063
G3 X-0.6906 Y0.6674 I-0.0001 J-0.0111
G3 X-0.6908 Y0.6673 I0.0018 J-0.0061
G2 X-0.7468 Y0.6498 I-1.4692 J4.603
G3 X-0.7471 Y0.6497 I0.0019 J-0.0061
G3 X-0.7583 Y0.6345 I0.0058 J-0.016
G3 Y0.6342 I0.0064 J-0.0003
G1 X-0.7584 Y0.5177
G3 Y0.5173 I0.0064 J0.0
G1 Y0.517
G3 X-0.7583 Y0.516 I0.0064 J-0.0001
G3 X-0.758 Y0.5142 I0.0097 J0.0007
G1 X-0.7579 Y0.5137
G3 X-0.7571 Y0.5113 I0.0098 J0.0019
G3 X-0.7566 Y0.5103 I0.006 J0.0022
G1 Y0.5102
G3 X-0.7562 Y0.5097 I0.0056 J0.0032
G2 X-0.8043 Y0.476 I-0.024 J-0.0168
G2 X-0.8031 Y0.5135 I0.0284 J0.0179
G0 Z0.125
G0 X-0.9207 Y0.7298
G0 Z0.012
G1 F5.0 Z-0.004
G3 F10.0 X-0.9717 Y0.7207 I-0.0393 J0.0723
G1 X-0.9483
G3 X-0.9207 Y0.7298 I-0.0117 J0.0815
G1 F5.0 X-0.9184 Y0.7256
G3 F10.0 X-0.9721 Y0.7159 I-0.0416 J0.0765
G1 X-0.9479
G3 X-0.9184 Y0.7256 I-0.0121 J0.0863
G0 Z0.125
G0 X-0.5708 Y0.271
G0 Z0.012
G1 F5.0 Z-0.004
G1 F10.0 Y0.2699
G2 X-0.5706 Y0.2702 I0.012 J-0.0068
G1 X-0.5705 Y0.2705
G2 X-0.5698 Y0.2716 I0.0122 J-0.0061
G1 X-0.5708 Y0.271
G0 Z0.125
G0 X-0.4831 Y0.1452
G0 Z0.012
G1 F5.0 Z-0.004
G2 F10.0 Y0.1291 I-0.026 J-0.0081
G2 X-0.481 Y0.1292 I0.0021 J-0.0419
G1 X-0.429
G2 X-0.4275 I0.0 J-0.042
G2 X-0.4271 Y0.1452 I0.0269 J0.0074
G2 X-0.429 I-0.0019 J0.042
G1 X-0.481
G2 X-0.4831 I0.0 J0.042
G1 F5.0 X-0.4829 Y0.15
G2 F10.0 X-0.492 Y0.1517 I0.0019 J0.0372
G2 Y0.1227 I-0.0171 J-0.0145
G2 X-0.481 Y0.1244 I0.011 J-0.0355
G1 X-0.429
G2 X-0.4192 Y0.1231 I0.0 J-0.0372
G2 X-0.4206 Y0.125 I0.0083 J0.0075
G2 X-0.4181 Y0.1516 I0.02 J0.0116
G2 X-0.429 Y0.15 I-0.0109 J0.0356
G1 X-0.481
G2 X-0.4829 I0.0 J0.0372
G0 Z0.125
G0 X-0.4825 Y0.05
G0 Z0.012
G1 F5.0 Z-0.004
G2 F10.0 X-0.4816 Y0.0494 I-0.0079 J-0.0134
G2 X-0.4784 Y0.0469 I-0.0082 J-0.0137
G2 X-0.4779 Y0.0464 I-0.0078 J-0.008
G1 X-0.4768 Y0.0452
G2 X-0.4762 Y0.0445 I-0.0083 J-0.0076
G2 X-0.4742 Y0.0414 I-0.0126 J-0.0104
G1 Y0.05
G1 X-0.481
G2 X-0.4825 I0.0 J0.0372
G0 Z0.125
G0 X-0.4358
G0 Z0.012
G1 F5.0 Z-0.004
G1 F10.0 Y0.0414
G2 X-0.4353 Y0.0423 I0.0138 J-0.0075
G2 X-0.4329 Y0.0455 I0.0142 J-0.0079
G2 X-0.4324 Y0.046 I0.0083 J-0.0075
G1 X-0.4312 Y0.0472
G2 X-0.4306 Y0.0478 I0.0079 J-0.008
G2 X-0.4263 Y0.0501 I0.0073 J-0.0085
G2 X-0.429 Y0.05 I-0.0027 J0.0371
G1 X-0.4358
G0 Z0.125
G0 Y-0.0518
G0 Z0.012
G1 F5.0 Z-0.004
G1 F10.0 Y-0.0523
G1 X-0.4353 Y-0.0526
G1 Y-0.0525
G2 X-0.4356 Y-0.0521 I0.0095 J0.006
G2 X-0.4358 Y-0.0518 I0.0142 J0.0083
G0 Z0.125
G0 X-0.4143 Y-0.1144
G0 Z0.012
G1 F5.0 Z-0.004
G3 F10.0 X-0.4703 Y-0.0787 I-2.6505 J-4.0958
G2 X-0.4766 Y-0.0599 I0.0294 J0.0204
G3 Y0.032 I-0.5907 J0.0459
G1 X-0.4767 Y0.033
G3 Y0.0334 I-0.0064 J-0.0004
G3 X-0.4773 Y0.0363 I-0.0124 J-0.001
G3 X-0.4784 Y0.039 I-0.0115 J-0.0031
G3 X-0.48 Y0.0415 I-0.0105 J-0.0049
G3 X-0.4804 Y0.042 I-0.0051 J-0.0039
G1 X-0.4815 Y0.0432
G3 X-0.4818 Y0.0435 I-0.0047 J-0.0043
G3 X-0.4842 Y0.0454 I-0.008 J-0.0077
G3 X-0.4874 Y0.0469 I-0.0062 J-0.0088
G3 X-0.488 Y0.0471 I-0.0018 J-0.0061
G2 X-0.5044 Y0.1202 I0.0076 J0.0401
G3 Y0.1541 I-0.0047 J0.0169
G2 X-0.4895 Y0.2268 I0.0234 J0.033
G1 X-0.4205
G2 X-0.4056 Y0.1541 I-0.0085 J-0.0396
G3 X-0.4164 Y0.1274 I0.005 J-0.0176
G3 X-0.4153 Y0.1259 I0.0055 J0.0032
G3 X-0.3947 Y0.1088 I0.1453 J0.1531
G2 X-0.4242 Y0.0456 I-0.0352 J-0.022
G3 X-0.4275 Y0.0441 I0.0009 J-0.0063
G3 X-0.4279 Y0.0438 I0.0041 J-0.0049
G1 X-0.4291 Y0.0426
G3 X-0.4294 Y0.0423 I0.0045 J-0.0046
G3 X-0.4311 Y0.0399 I0.0084 J-0.0079
G3 X-0.4324 Y0.0372 I0.0092 J-0.006
G3 X-0.4332 Y0.0341 I0.0098 J-0.0042
G3 Y0.0337 I0.0063 J-0.0009
G3 X-0.4334 Y-0.0424 I0.5086 J-0.039
G1 X-0.4333 Y-0.0435
G3 Y-0.0439 I0.0064 J0.0004
G3 X-0.4332 Y-0.0445 I0.0064 J0.0007
G1 X-0.4328 Y-0.0462
G3 X-0.4327 Y-0.0465 I0.0063 J0.0013
G3 X-0.4315 Y-0.0497 I0.0113 J0.0028
G3 X-0.4313 Y-0.05 I0.0056 J0.0031
G1 X-0.4304 Y-0.0514
G3 X-0.4303 Y-0.0515 I0.0054 J0.0034
G3 X-0.4277 Y-0.0543 I0.0088 J0.0054
G3 X-0.3972 Y-0.074 I0.0874 J0.1023
G3 X-0.3968 Y-0.0742 I0.0032 J0.0056
G3 X-0.3945 Y-0.0752 I0.0066 J0.0114
G3 X-0.3941 Y-0.0754 I0.0021 J0.006
G1 X-0.394
G3 X-0.3921 Y-0.0759 I0.0032 J0.0084
G1 X-0.3915 Y-0.076
G3 X-0.3888 Y-0.0762 I0.0023 J0.0111
G1 X-0.2816
G3 X-0.2812 I0.0 J0.0064
G2 X-0.2619 Y-0.0798 I0.0028 J-0.0377
G1 X-0.2618 Y-0.08
G3 X-0.2601 Y-0.0809 I0.0053 J0.0071
G3 X-0.2598 Y-0.0811 I0.003 J0.0056
G1 X0.072 Y-0.2371
G3 X0.0723 Y-0.2372 I0.0027 J0.0058
G3 X0.085 Y-0.2387 I0.0092 J0.0219
G2 X0.1041 Y-0.3052 I-0.0087 J-0.0385
G1 X0.1039 Y-0.3053
G3 X0.1033 Y-0.306 I0.0045 J-0.0046
G3 X0.1028 Y-0.3067 I0.0048 J-0.0042
G3 X0.1006 Y-0.3335 I0.0229 J-0.0153
G1 X0.1008 Y-0.3339
G3 X0.1015 Y-0.3355 I0.0087 J0.0028
G3 X0.102 Y-0.3363 I0.0057 J0.0029
G1 X0.1024 Y-0.3369
G1 X0.1028 Y-0.3375
G3 X0.1052 Y-0.3402 I0.0092 J0.006
G3 X0.1058 Y-0.3406 I0.0043 J0.0048
G1 X0.106 Y-0.3408
G3 X0.108 Y-0.3421 I0.0057 J0.0065
G1 X0.1084 Y-0.3423
G3 X0.1101 Y-0.3431 I0.0047 J0.0076
G3 X0.1108 Y-0.3434 I0.0024 J0.0059
G1 X0.1116 Y-0.3436
G1 X0.1124 Y-0.3438
G3 X0.1147 Y-0.3441 I0.0025 J0.0086
G1 X0.1153 Y-0.3442
G3 X0.1923 I0.0387 J0.4505
G3 X0.2022 Y-0.3407 I-0.0003 J0.0163
G3 X0.2025 Y-0.3404 I-0.004 J0.005
G1 X0.2029 Y-0.34
G3 X0.2043 Y-0.3387 I-0.0054 J0.0069
G3 X0.2048 Y-0.3381 I-0.0047 J0.0043
G1 X0.205 Y-0.3378
G3 X0.2063 Y-0.3358 I-0.0065 J0.0057
G1 X0.2065 Y-0.3354
G3 X0.2073 Y-0.3337 I-0.0076 J0.0047
G3 X0.2076 Y-0.333 I-0.0059 J0.0024
G1 X0.2077 Y-0.3322
G1 X0.208 Y-0.3314
G3 X0.2083 Y-0.3291 I-0.0087 J0.0025
G1 X0.2084 Y-0.3285
G3 X0.1984 Y-0.2996 I-0.0371 J0.0033
G2 X0.26 Y-0.3053 I0.0331 J0.0216
G1 X0.2599
G3 X0.2593 Y-0.306 I0.0045 J-0.0046
G3 X0.2588 Y-0.3067 I0.0048 J-0.0042
G3 X0.2566 Y-0.3335 I0.0229 J-0.0153
G1 X0.2568 Y-0.3339
G3 X0.2575 Y-0.3355 I0.0087 J0.0028
G3 X0.258 Y-0.3363 I0.0057 J0.0029
G1 X0.2584 Y-0.3369
G1 X0.2588 Y-0.3375
G3 X0.2612 Y-0.3402 I0.0092 J0.006
G3 X0.2618 Y-0.3406 I0.0043 J0.0048
G1 X0.262 Y-0.3408
G3 X0.264 Y-0.3421 I0.0057 J0.0065
G1 X0.2644 Y-0.3423
G3 X0.2661 Y-0.3431 I0.0047 J0.0076
G3 X0.2668 Y-0.3434 I0.0024 J0.0059
G1 X0.2676 Y-0.3436
G1 X0.2684 Y-0.3438
G3 X0.2707 Y-0.3441 I0.0025 J0.0086
G1 X0.2713 Y-0.3442
G3 X0.3586 Y-0.3447 I0.0472 J0.5497
G1 Y-0.6189
G1 X0.3505
G3 X0.3441 Y-0.6253 I0.0 J-0.0064
G1 Y-0.9503
G3 X0.3505 Y-0.9567 I0.0064 J0.0
G1 X0.4255
G3 X0.4319 Y-0.9503 I0.0 J0.0064
G1 Y-0.6253
G3 X0.4255 Y-0.6189 I-0.0064 J0.0
G1 X0.3914
G1 Y-0.3442
G1 X0.9539
G3 X0.9543 I0.0 J0.0064
G3 X1.0258 Y-0.3298 I-0.0172 J0.2707
G3 X1.0269 Y-0.3294 I-0.0021 J0.006
G3 X1.0855 Y-0.2902 I-0.2093 J0.3767
G3 X1.086 Y-0.2898 I-0.004 J0.005
G1 X1.0869 Y-0.2889
G3 X1.0871 Y-0.2887 I-0.0045 J0.0045
G3 X1.0872 Y-0.2886 I-0.0047 J0.0044
G1 X1.0873 Y-0.2885
G1 Y-0.2884
G3 X1.0891 Y-0.286 I-0.008 J0.0075
G1 X1.0894 Y-0.2854
G3 X1.0904 Y-0.2831 I-0.0099 J0.006
G3 X1.0905 Y-0.2828 I-0.0061 J0.0021
G1 X1.0906 Y-0.2826
G3 X1.0911 Y-0.2805 I-0.0085 J0.0032
G1 X1.0912 Y-0.2799
G3 X1.0914 Y-0.2775 I-0.0111 J0.0021
G1 Y0.8715
G3 Y0.8719 I-0.0064 J0.0
G1 X1.0913 Y0.8731
G3 Y0.8737 I-0.0064 J-0.0004
G3 X1.0912 Y0.8742 I-0.0063 J-0.0008
G1 X1.0908 Y0.8759
G3 Y0.8761 I-0.0063 J-0.0014
G3 X1.0895 Y0.8792 I-0.0102 J-0.0022
G3 X1.088 Y0.8816 I-0.0099 J-0.0047
G3 X1.0265 Y0.9412 I-0.17 J-0.1139
G3 X1.0262 Y0.9414 I-0.0034 J-0.0054
G3 X1.0258 Y0.9416 I-0.0031 J-0.0056
G1 X1.0243 Y0.9423
G3 X1.024 Y0.9424 I-0.0028 J-0.0058
G3 X1.0209 Y0.9433 I-0.0045 J-0.0099
G3 X1.0179 Y0.9436 I-0.0025 J-0.0112
G1 X-0.2881
G3 X-0.2904 Y0.9434 I-0.0006 J-0.0107
G3 X-0.2934 Y0.9428 I0.001 J-0.0111
G3 X-0.294 Y0.9426 I0.002 J-0.0061
G1 X-0.2947 Y0.9422
G1 X-0.2955 Y0.9419
G3 X-0.2972 Y0.9409 I0.0034 J-0.0081
G3 X-0.2985 Y0.94 I0.0044 J-0.0076
G3 X-0.299 Y0.9396 I0.004 J-0.005
G1 X-0.2996 Y0.9391
G1 X-0.2995
G1 X-0.3001 Y0.9385
G3 X-0.3015 Y0.9369 I0.006 J-0.0065
G3 X-0.3023 Y0.9357 I0.0071 J-0.0057
G3 X-0.3026 Y0.9353 I0.0054 J-0.0034
G3 X-0.2953 Y0.9061 I0.0203 J-0.0105
G2 X-0.4616 Y0.8237 I-0.0868 J-0.0338
G1 X-0.4617 Y0.8238
G3 X-0.463 Y0.8254 I-0.0076 J-0.0047
G3 X-0.464 Y0.8265 I-0.0068 J-0.0058
G3 X-0.4645 Y0.8269 I-0.0043 J-0.0047
G1 X-0.4652 Y0.8274
G1 X-0.4658 Y0.8279
G3 X-0.4676 Y0.8289 I-0.0054 J-0.0071
G3 X-0.4689 Y0.8295 I-0.0044 J-0.0078
G3 X-0.4694 Y0.8297 I-0.0025 J-0.0059
G3 X-0.4945 Y0.8138 I-0.0059 J-0.0184
G2 X-0.647 Y0.9201 I-0.0728 J0.0582
G3 X-0.6467 Y0.9205 I-0.0055 J0.0033
G3 X-0.6461 Y0.9222 I-0.0084 J0.0042
G3 X-0.6457 Y0.9237 I-0.0083 J0.0031
G3 X-0.6455 Y0.9244 I-0.0062 J0.0014
G1 Y0.9252
G1 X-0.6454 Y0.926
G3 X-0.6453 Y0.928 I-0.0086 J0.0012
G3 X-0.6455 Y0.9297 I-0.0084 J0.0
G3 X-0.6456 Y0.9302 I-0.0063 J-0.001
G1 X-0.6458 Y0.931
G1 X-0.646 Y0.9318
G1 Y0.9319
G3 X-0.6473 Y0.935 I-0.0115 J-0.0029
G3 X-0.6476 Y0.9356 I-0.0057 J-0.0029
G1 X-0.6481 Y0.9363
G1 X-0.6485 Y0.9369
G3 X-0.6499 Y0.9385 I-0.0073 J-0.0047
G3 X-0.651 Y0.9396 I-0.0066 J-0.0058
G3 X-0.6514 Y0.94 I-0.0042 J-0.0048
G1 X-0.6521 Y0.9404
G1 X-0.6528 Y0.9409
G1 Y0.941
G3 X-0.6545 Y0.9419 I-0.0054 J-0.0076
G3 X-0.6558 Y0.9425 I-0.0045 J-0.0082
G3 X-0.6565 Y0.9427 I-0.0024 J-0.0059
G1 X-0.6573 Y0.9429
G1 X-0.6581 Y0.9432
G3 X-0.6601 Y0.9435 I-0.0024 J-0.0086
G3 X-0.6617 Y0.9436 I-0.0013 J-0.0086
G1 X-1.018
G3 X-1.0184 I0.0 J-0.0064
G1 X-1.0196 Y0.9435
G3 X-1.0201 Y0.9434 I0.0004 J-0.0064
G3 X-1.0207 Y0.9433 I0.0008 J-0.0063
G1 X-1.0223 Y0.943
G3 X-1.0225 Y0.9429 I0.0014 J-0.0063
G3 X-1.0256 Y0.9417 I0.0022 J-0.0102
G3 X-1.028 Y0.9402 I0.0047 J-0.0099
G3 X-1.0888 Y0.8803 I0.1274 J-0.1903
G3 X-1.0892 Y0.8797 I0.0053 J-0.0036
G3 X-1.0894 Y0.8794 I0.0056 J-0.0031
G1 X-1.0901 Y0.8779
G3 X-1.0903 Y0.8776 I0.0058 J-0.0028
G3 X-1.0911 Y0.8744 I0.0099 J-0.0045
G3 X-1.0914 Y0.8714 I0.0112 J-0.0025
G1 Y-0.2817
G3 X-1.0913 Y-0.2841 I0.0104 J-0.0006
G3 X-1.091 Y-0.2855 I0.0088 J0.001
G3 X-1.0906 Y-0.2869 I0.0089 J0.0016
G3 X-1.0904 Y-0.2876 I0.0061 J0.0019
G1 X-1.09 Y-0.2883
G1 X-1.0897 Y-0.289
G3 X-1.0888 Y-0.2908 I0.0079 J0.0032
G3 X-1.0878 Y-0.2921 I0.0073 J0.0042
G3 X-1.0875 Y-0.2925 I0.005 J0.004
G3 X-1.0509 Y-0.3205 I0.1051 J0.0995
G3 X-1.0076 Y-0.3382 I0.0742 J0.1193
G3 X-0.962 Y-0.3442 I0.0385 J0.1165
G3 X-0.9617 I0.0003 J0.0064
G1 X-0.432
G3 X-0.4218 Y-0.3407 I0.0 J0.0163
G3 X-0.4215 Y-0.3404 I-0.004 J0.005
G1 X-0.4211 Y-0.34
G3 X-0.4197 Y-0.3387 I-0.0054 J0.0069
G3 X-0.4192 Y-0.3381 I-0.0047 J0.0043
G1 X-0.419 Y-0.3378
G3 X-0.4177 Y-0.3358 I-0.0065 J0.0057
G1 X-0.4175 Y-0.3354
G3 X-0.4167 Y-0.3337 I-0.0076 J0.0047
G3 X-0.4164 Y-0.333 I-0.0059 J0.0024
G1 Y-0.3326
G3 X-0.4158 Y-0.3304 I-0.0084 J0.0031
G1 Y-0.3299
G3 X-0.4156 Y-0.3289 I-0.0088 J0.0017
G3 X-0.4305 Y-0.2998 I-0.0227 J0.0068
G3 X-0.4326 Y-0.2994 I-0.0021 J-0.006
G1 X-0.5982
G3 X-0.6006 Y-0.2996 I-0.0003 J-0.0114
G1 X-0.6007
G2 X-0.6245 Y-0.2888 I-0.0007 J0.03
G1 X-0.6249 Y-0.2882
G1 X-0.625
G3 X-0.6907 Y-0.2177 I-0.4584 J-0.3617
G2 X-0.6966 Y-0.2028 I0.0131 J0.0139
G1 Y-0.2027
G3 Y-0.2022 I-0.0064 J0.0006
G1 Y0.3011
G3 Y0.3015 I-0.0064 J0.0
G2 X-0.6967 Y0.3074 I0.0509 J0.0034
G2 X-0.6834 Y0.3232 I0.0303 J-0.012
G1 X-0.4805 Y0.435
G3 X-0.4802 Y0.4352 I-0.0031 J0.0056
G1 X-0.4792 Y0.4358
G3 X-0.479 Y0.436 I-0.0034 J0.0054
G3 X-0.4768 Y0.4378 I-0.0069 J0.0104
G3 X-0.4748 Y0.4404 I-0.0068 J0.0076
G3 X-0.4734 Y0.4429 I-0.0098 J0.0069
G3 X-0.4732 Y0.4434 I-0.0059 J0.0025
G1 X-0.4727 Y0.445
G3 X-0.4725 Y0.4456 I-0.0061 J0.002
G3 X-0.4724 Y0.4461 I-0.0062 J0.0015
G1 X-0.4722 Y0.4478
G3 X-0.4721 Y0.4485 I-0.0063 J0.001
G3 Y0.449 I-0.0064 J0.0003
G1 Y0.4507
G3 Y0.4509 I-0.0064 J-0.0002
G3 X-0.4729 Y0.4544 I-0.0106 J-0.0004
G3 X-0.473 Y0.4547 I-0.0061 J-0.0021
G1 X-0.4736 Y0.4563
G3 X-0.4739 Y0.457 I-0.0059 J-0.0024
G3 X-0.4742 Y0.4574 I-0.0056 J-0.003
G1 X-0.475 Y0.4588
G3 X-0.4753 Y0.4593 I-0.0054 J-0.0034
G3 X-0.4773 Y0.4614 I-0.01 J-0.007
G3 X-0.4799 Y0.4634 I-0.0077 J-0.0075
G3 X-0.4802 Y0.4635 I-0.0032 J-0.0055
G1 X-0.4817 Y0.4643
G3 X-0.4831 Y0.4649 I-0.0029 J-0.0057
G2 X-0.5033 Y0.4967 I0.0064 J0.0264
G3 X-0.4961 Y0.5305 I-0.0477 J0.0277
G3 X-0.4964 Y0.5315 I-0.0064 J-0.0007
G1 Y0.5317
G3 X-0.497 Y0.5337 I-0.0088 J-0.0016
G1 X-0.4973 Y0.5343
G3 X-0.4984 Y0.5365 I-0.011 J-0.0041
G3 X-0.4985 Y0.5368 I-0.0054 J-0.0034
G3 X-0.5273 Y0.5398 I-0.0157 J-0.011
G2 X-0.5434 Y0.6276 I-0.0068 J0.0441
G3 X-0.542 Y0.628 I-0.0013 J0.0063
G3 Y0.6581 I-0.0071 J0.015
G3 X-0.5435 Y0.6586 I-0.0027 J-0.0058
G2 X-0.5776 Y0.6927 I0.0087 J0.0428
G3 X-0.5781 Y0.6941 I-0.0063 J-0.0013
G3 X-0.5861 Y0.7021 I-0.015 J-0.0071
G3 X-0.5781 Y0.7101 I-0.007 J0.0151
G3 X-0.5776 Y0.7115 I-0.0058 J0.0027
G2 X-0.4905 I0.0436 J-0.009
G3 X-0.49 Y0.7101 I0.0063 J0.0013
G3 X-0.46 I0.015 J0.0071
G3 X-0.4595 Y0.7115 I-0.0058 J0.0027
G2 X-0.3718 Y0.6947 I0.0437 J-0.009
G3 X-0.3722 Y0.6693 I0.0194 J-0.013
G3 X-0.3708 Y0.6678 I0.0054 J0.0034
G1 X-0.3702 Y0.6673
G3 X-0.3682 Y0.6659 I0.0077 J0.0087
G3 X-0.3679 Y0.6657 I0.0031 J0.0056
G3 X-0.3426 Y0.6646 I0.014 J0.0283
G3 X-0.3425 I-0.0023 J0.006
G1 X-0.342 Y0.6648
G3 X-0.3402 Y0.6656 I-0.0026 J0.0084
G3 X-0.3397 Y0.6659 I-0.0029 J0.0057
G3 X-0.3342 Y0.6708 I-0.0118 J0.0185
G3 X-0.328 Y0.6656 I0.0063 J0.0012
G1 X-0.2677
G3 X-0.2617 Y0.6699 I0.0 J0.0064
G3 X-0.2526 Y0.6607 I0.0236 J0.0143
G3 X-0.2242 Y0.6326 I2.1371 J2.1343
G3 X-0.2235 Y0.632 I0.0047 J0.0044
G2 X-0.2126 Y0.6067 I-0.0184 J-0.023
G1 Y0.6065
G3 X-0.2127 Y0.6054 I0.0063 J-0.0011
G2 X-0.2134 Y0.5573 I-1.6703 J-0.0002
G3 Y0.5569 I0.0064 J-0.0004
G1 Y0.2412
G3 Y0.2408 I0.0064 J0.0
G3 X-0.1883 Y0.2268 I0.017 J0.001
G1 X-0.1474
G3 X-0.1471 I0.0 J0.0064
G3 X-0.139 Y0.2288 I-0.0009 J0.0212
G1 X-0.0462
G3 X-0.0459 I0.0 J0.0064
G3 X-0.0196 Y0.2468 I-0.0016 J0.0305
G1 X0.0114
G1 X0.0346 Y0.2236
G1 Y0.191
G3 X0.0209 Y0.1771 I0.117 J-0.1285
G3 X0.0202 Y0.1762 I0.0045 J-0.0046
G1 X0.0201 Y0.176
G1 Y0.1761
G1 X0.0197 Y0.1755
G3 X0.0187 Y0.174 I0.007 J-0.0058
G3 X0.0182 Y0.1731 I0.0055 J-0.0033
G1 Y0.1729
G3 X0.0174 Y0.1708 I0.0078 J-0.0042
G1 X0.0172 Y0.1703
G3 X0.0168 Y0.1685 I0.0086 J-0.003
G3 X0.0167 Y0.1676 I0.0063 J-0.0012
G3 X0.0166 Y0.1131 I0.6534 J-0.0282
G3 X0.0346 Y0.0867 I0.0305 J0.0016
G1 Y0.0558
G1 X0.0106 Y0.0318
G3 X0.0104 Y0.0315 I0.0045 J-0.0045
G3 X0.0219 Y0.0038 I0.0123 J-0.0112
G3 X0.0222 I0.0003 J0.0064
G1 X0.357
G3 X0.3621 Y0.0046 I0.0 J0.016
G3 X0.3625 Y0.0048 I-0.002 J0.0061
G1 X0.363 Y0.005
G3 X0.3647 Y0.0057 I-0.0028 J0.0087
G3 X0.3654 Y0.0061 I-0.0029 J0.0057
G1 X0.3657 Y0.0063
G3 X0.3676 Y0.0077 I-0.0043 J0.0078
G1 X0.3679 Y0.008
G3 X0.3693 Y0.0093 I-0.0054 J0.0069
G3 X0.3698 Y0.0099 I-0.0047 J0.0043
G1 X0.37 Y0.0102
G3 X0.3713 Y0.0122 I-0.0065 J0.0057
G1 X0.3715 Y0.0126
G3 X0.3723 Y0.0143 I-0.0076 J0.0047
G3 X0.3726 Y0.015 I-0.0059 J0.0024
G1 X0.3727 Y0.0158
G1 X0.373 Y0.0165
G3 X0.3733 Y0.0189 I-0.0086 J0.0025
G1 X0.3734 Y0.0195
G3 X0.3554 Y0.0568 I-0.0403 J0.0035
G1 Y0.0886
G1 X0.3786 Y0.1118
G1 X0.4114
G1 X0.4346 Y0.0886
G1 Y0.056
G3 X0.4209 Y0.0421 I0.117 J-0.1285
G3 X0.4202 Y0.0412 I0.0045 J-0.0046
G3 X0.4168 Y0.0173 I0.0214 J-0.0152
G3 X0.4174 Y0.0151 I0.0112 J0.0017
G3 X0.4181 Y0.0134 I0.0084 J0.0025
G1 X0.4183 Y0.0129
G3 X0.4201 Y0.01 I0.0103 J0.0044
G3 X0.4214 Y0.0086 I0.007 J0.0052
G1 X0.4218 Y0.0083
G3 X0.4245 Y0.0061 I0.0082 J0.0077
G3 X0.4261 Y0.0053 I0.0048 J0.0075
G1 X0.4266 Y0.0051
G3 X0.4302 Y0.004 I0.0049 J0.01
G3 X0.4635 Y0.0039 I0.0173 J0.1461
G3 X0.4646 Y0.0041 I-0.0004 J0.0064
G1 X0.4653 Y0.0042
G1 X0.4661 Y0.0044
G3 X0.4681 Y0.0051 I-0.0018 J0.0085
G3 X0.4694 Y0.0057 I-0.0031 J0.0083
G3 X0.47 Y0.0061 I-0.0029 J0.0057
G3 X0.4972 Y0.0275 I-0.114 J0.1723
G3 X0.4999 Y0.0304 I-0.0052 J0.0078
G3 X0.5011 Y0.0321 I-0.0068 J0.0058
G1 X0.5014 Y0.0327
G3 X0.5024 Y0.0349 I-0.0098 J0.0059
G3 X0.5026 Y0.0353 I-0.0061 J0.002
G1 Y0.0355
G3 X0.5031 Y0.0375 I-0.0084 J0.0031
G1 X0.5032 Y0.0381
G3 X0.5034 Y0.0405 I-0.0112 J0.0021
G1 Y0.4908
G3 X0.5027 Y0.4956 I-0.016 J0.0
G3 X0.5023 Y0.4966 I-0.0062 J-0.0016
G1 X0.5022 Y0.4969
G3 X0.5012 Y0.499 I-0.0086 J-0.0029
G1 X0.5009 Y0.4994
G3 X0.4999 Y0.5009 I-0.0078 J-0.0041
G3 X0.4994 Y0.5015 I-0.0051 J-0.0038
G3 X0.4731 Y0.5075 I-0.0176 J-0.0165
G2 X0.4745 Y0.6131 I0.0125 J0.0527
G1 X0.5755
G2 X0.5604 Y0.5066 I-0.0111 J-0.0527
G3 X0.5575 Y0.5062 I-0.0005 J-0.0064
G1 X0.557 Y0.506
G3 X0.5553 Y0.5052 I0.0028 J-0.0087
G3 X0.5546 Y0.5048 I0.0029 J-0.0057
G1 X0.5543 Y0.5046
G3 X0.5524 Y0.5033 I0.0043 J-0.0078
G1 X0.5521 Y0.5029
G3 X0.5507 Y0.5016 I0.0054 J-0.0069
G3 X0.5502 Y0.501 I0.0047 J-0.0043
G1 X0.55 Y0.5008
G3 X0.5487 Y0.4988 I0.0065 J-0.0057
G1 X0.5485 Y0.4984
G3 X0.5477 Y0.4967 I0.0076 J-0.0047
G3 X0.5474 Y0.4959 I0.0059 J-0.0024
G1 Y0.4956
G3 X0.5468 Y0.4933 I0.0084 J-0.0031
G1 Y0.4928
G3 X0.5466 Y0.491 I0.0088 J-0.0017
G3 Y0.4908 I0.0064 J-0.0002
G1 Y0.3352
G3 X0.5474 Y0.3301 I0.016 J0.0
G3 X0.5476 Y0.3297 I0.0061 J0.002
G1 X0.5478 Y0.3291
G3 X0.5485 Y0.3275 I0.0087 J0.0028
G3 X0.549 Y0.3267 I0.0057 J0.0029
G1 X0.5492 Y0.3265
G3 X0.5505 Y0.3246 I0.0078 J0.0043
G1 X0.5508 Y0.3243
G3 X0.5522 Y0.3229 I0.0069 J0.0054
G3 X0.5528 Y0.3224 I0.0043 J0.0047
G1 X0.553 Y0.3222
G3 X0.555 Y0.3209 I0.0057 J0.0065
G1 X0.5554 Y0.3207
G3 X0.5571 Y0.3199 I0.0047 J0.0076
G3 X0.5578 Y0.3196 I0.0024 J0.0059
G1 X0.5582 Y0.3195
G3 X0.5604 Y0.319 I0.0031 J0.0084
G1 X0.5609
G3 X0.5628 Y0.3188 I0.0017 J0.0088
G3 X0.563 I0.0002 J0.0064
G1 X0.6938
G3 X0.6941 I0.0 J0.0064
G3 X0.7204 Y0.3368 I-0.0016 J0.0305
G1 X0.7514
G1 X0.7743 Y0.3139
G3 X0.7752 Y0.289 I0.0877 J-0.0092
G3 X0.7753 Y0.2886 I0.0063 J0.0011
G1 Y0.2885
G3 X0.7756 Y0.2875 I0.0062 J0.0015
G3 X0.7923 Y0.2753 I0.0183 J0.0075
G1 X0.7795 Y0.2625
G3 X0.7776 Y0.258 I0.0045 J-0.0045
G1 Y0.2364
G3 X0.7795 Y0.2319 I0.0064 J0.0
G1 X0.7936 Y0.2178
G3 X0.7866 Y0.2169 I0.0019 J-0.0442
G3 X0.7864 I0.0013 J-0.0063
G1 X0.7863
G3 X0.7852 Y0.2165 I0.0015 J-0.0062
G1 X0.7848 Y0.2163
G3 X0.7828 Y0.2154 I0.0029 J-0.0086
G1 X0.7824 Y0.2151
G3 X0.7808 Y0.2141 I0.0041 J-0.0078
G3 X0.7803 Y0.2136 I0.0038 J-0.0051
G3 X0.7732 Y0.1793 I0.0211 J-0.0223
G1 X0.7514 Y0.1576
G1 X0.7186
G1 X0.6954 Y0.1808
G1 Y0.2136
G1 X0.7174 Y0.2356
G3 X0.7209 Y0.2536 I-0.0116 J0.0116
G3 X0.7207 Y0.254 I-0.0059 J-0.0025
G3 X0.6958 Y0.2753 I-0.0383 J-0.0197
G3 X0.6938 Y0.2756 I-0.002 J-0.0061
G1 X0.563
G3 X0.5579 Y0.2747 I0.0 J-0.016
G3 X0.5575 Y0.2746 I0.002 J-0.0061
G1 X0.557 Y0.2744
G3 X0.5553 Y0.2737 I0.0028 J-0.0087
G3 X0.5546 Y0.2732 I0.0029 J-0.0057
G1 X0.5543 Y0.273
G3 X0.5524 Y0.2717 I0.0043 J-0.0078
G1 X0.5521 Y0.2714
G3 X0.5507 Y0.27 I0.0054 J-0.0069
G3 X0.5502 Y0.2694 I0.0047 J-0.0043
G1 X0.55 Y0.2692
G3 X0.5487 Y0.2672 I0.0065 J-0.0057
G1 X0.5485 Y0.2668
G3 X0.5477 Y0.2651 I0.0076 J-0.0047
G3 X0.5474 Y0.2643 I0.0059 J-0.0024
G1 Y0.264
G3 X0.5468 Y0.2618 I0.0084 J-0.0031
G1 Y0.2613
G3 X0.5466 Y0.2594 I0.0088 J-0.0017
G3 Y0.2592 I0.0064 J-0.0002
G1 Y0.0276
G3 Y0.0274 I0.0064 J0.0
G3 X0.547 Y0.0241 I0.0188 J0.0005
G2 X0.5395 Y0.0061 I-0.0331 J0.0031
G0 Z0.125
G0 X0.4232 Y0.0014
G0 Z0.012
G1 F5.0 Z-0.004
G2 F10.0 X0.4221 Y0.002 I0.0061 J0.0123
G2 X0.4183 Y0.0049 I0.0078 J0.014
G1 X0.4181 Y0.0051
G2 X0.4164 Y0.007 I0.009 J0.0101
G2 X0.4142 Y0.0104 I0.0123 J0.0103
G1 Y0.0014
G1 X0.4232
G0 Z0.125
G0 X0.3758
G0 Z0.012
G1 F5.0 Z-0.004
G1 F10.0 Y0.0104
G2 X0.3757 Y0.0102 I-0.0119 J0.0068
G1 X0.3756 Y0.0101
G2 X0.3737 Y0.0072 I-0.0121 J0.0058
G1 Y0.0071
G2 X0.3729 Y0.0062 I-0.0091 J0.0065
G2 X0.3711 Y0.0044 I-0.0104 J0.0087
G1 X0.3709 Y0.0042
G2 X0.3683 Y0.0022 I-0.0094 J0.0099
G1 X0.3682
G2 X0.367 Y0.0015 I-0.0063 J0.0093
G2 X0.3668 Y0.0014 I-0.0067 J0.0122
G1 X0.3758
G0 Z0.125
G0 Y0.0379
G0 Z0.012
G1 F5.0 Z-0.004
G1 F10.0 Y0.0388
G1 X0.3753 Y0.0393
G2 X0.3758 Y0.0379 I-0.0422 J-0.0163
G0 Z0.125
G0 X0.5442 Y0.2689
G0 Z0.012
G1 F5.0 Z-0.004
G2 F10.0 X0.5443 Y0.2691 I0.0119 J-0.0068
G1 X0.5444 Y0.2693
G2 X0.5463 Y0.2721 I0.0121 J-0.0058
G1 Y0.2722
G2 X0.5471 Y0.2732 I0.0091 J-0.0065
G2 X0.5489 Y0.275 I0.0104 J-0.0087
G1 X0.5491 Y0.2752
G2 X0.5517 Y0.2771 I0.0094 J-0.0099
G1 X0.5518 Y0.2772
G2 X0.553 Y0.2779 I0.0063 J-0.0093
G2 X0.5532 Y0.278 I0.0067 J-0.0122
G1 X0.5442
G1 Y0.2689
G0 Z0.125
G0 Y0.3164
G0 Z0.012
G1 F5.0 Z-0.004
G1 F10.0 X0.5533
G2 X0.5531 Y0.3165 I0.0068 J0.0119
G1 X0.5529 Y0.3166
G2 X0.55 Y0.3184 I0.0058 J0.0121
G1 Y0.3185
G2 X0.549 Y0.3193 I0.0065 J0.0091
G2 X0.5472 Y0.3211 I0.0087 J0.0104
G1 X0.547 Y0.3213
G2 X0.5451 Y0.3239 I0.0099 J0.0094
G1 X0.545 Y0.324
G2 X0.5443 Y0.3252 I0.0093 J0.0063
G2 X0.5442 Y0.3254 I0.0122 J0.0067
G1 Y0.3164
G0 Z0.125
G0 Y0.5005
G0 Z0.012
G1 F5.0 Z-0.004
G2 F10.0 X0.5443 Y0.5007 I0.0119 J-0.0068
G1 X0.5444 Y0.5009
G2 X0.5463 Y0.5037 I0.0121 J-0.0058
G1 Y0.5038
G2 X0.5471 Y0.5047 I0.0091 J-0.0065
G2 X0.5489 Y0.5066 I0.0104 J-0.0087
G1 X0.5491 Y0.5068
G2 X0.5517 Y0.5087 I0.0094 J-0.0099
G1 X0.5518 Y0.5088
G2 X0.553 Y0.5095 I0.0063 J-0.0093
G2 X0.5532 Y0.5096 I0.0067 J-0.0122
G1 X0.5442
G1 Y0.5005
G0 Z0.125
G0 X0.5058 Y0.5006
G0 Z0.012
G1 F5.0 Z-0.004
G1 F10.0 Y0.5096
G1 X0.497
G2 X0.5029 Y0.5047 I-0.0152 J-0.0246
G2 X0.5036 Y0.5039 I-0.0082 J-0.0077
G2 X0.505 Y0.5018 I-0.0106 J-0.0087
G1 X0.5052 Y0.5016
G2 X0.5058 Y0.5006 I-0.0117 J-0.0076
G0 Z0.125
G0 X0.2998 Y0.3464
G0 Z0.012
G1 F5.0 Z-0.004
G2 F10.0 X0.2962 Y0.3487 I0.0101 J0.02
G1 X0.2972 Y0.3464
G1 X0.2998
G0 Z0.125
G0 X0.1492 Y0.2764
G0 Z0.012
G1 F5.0 Z-0.004
G1 F10.0 Y0.276
G1 X0.1495 Y0.2758
G2 X0.1492 Y0.2764 I0.0396 J0.0186
G0 Z0.125
G0 X-0.029 Y0.1718
G0 Z0.012
G1 F5.0 Z-0.004
G1 F10.0 X-0.0404 Y0.1832
G1 X-0.0872
G2 X-0.129 Y0.1452 I-0.0418 J0.004
G1 X-0.181
G2 X-0.2117 Y0.1585 I0.0 J0.042
G3 X-0.2112 Y0.1163 I18.5957 J0.1677
G2 X-0.181 Y0.1292 I0.0302 J-0.0291
G1 X-0.129
G2 Y0.0452 I0.0 J-0.042
G1 X-0.181
G2 X-0.211 Y0.0578 I0.0 J0.042
G1 Y0.0281
G1 X-0.186 Y0.0062
G1 X0.0007
G2 X-0.0016 Y0.0302 I0.022 J0.0142
G1 X-0.0158
G2 X-0.0271 Y0.0349 I0.0 J0.016
G1 X-0.0423 Y0.0501
G2 X-0.047 Y0.0614 I0.0113 J0.0113
G1 Y0.083
G2 X-0.0423 Y0.0943 I0.016 J0.0
G1 X-0.029 Y0.1076
G1 Y0.1718
G1 F5.0 X-0.0242
G1 F10.0 Y0.1738
G1 X-0.0384 Y0.188
G1 X-0.0918
G2 X-0.129 Y0.15 I-0.0372 J-0.0008
G1 X-0.181
G2 X-0.2166 Y0.1765 I0.0 J0.0372
G3 X-0.2159 Y0.1064 I18.6007 J0.1497
G1 X-0.2129
G2 X-0.181 Y0.1244 I0.0319 J-0.0192
G1 X-0.129
G2 Y0.05 I0.0 J-0.0372
G1 X-0.181
G2 X-0.2129 Y0.068 I0.0 J0.0372
G1 X-0.2158
G1 Y0.0259
G1 X-0.1878 Y0.0014
G1 X0.0128
G2 X0.0068 Y0.0348 I0.0099 J0.019
G2 X0.0071 Y0.0351 I0.0083 J-0.0075
G2 X0.0058 Y0.035 I-0.0013 J0.0111
G1 X-0.0158
G2 X-0.0237 Y0.0383 I0.0 J0.0112
G1 X-0.0389 Y0.0535
G2 X-0.0422 Y0.0614 I0.0079 J0.0079
G1 Y0.083
G2 X-0.0389 Y0.0909 I0.0112 J0.0
G1 X-0.0242 Y0.1056
G1 Y0.1718
G0 Z0.125
G0 X-0.2091 Y0.2184
G0 Z0.012
G1 F5.0 Z-0.004
G2 F10.0 X-0.2121 Y0.2203 I0.0127 J0.0234
G3 Y0.2154 I18.5962 J0.1058
G2 X-0.2091 Y0.2184 I0.0311 J-0.0282
G1 F5.0 X-0.2059 Y0.2148
G2 F10.0 X-0.1984 Y0.2201 I0.0249 J-0.0277
G2 X-0.217 Y0.2346 I0.002 J0.0217
G3 X-0.2168 Y0.1973 I18.6011 J0.0915
G2 X-0.2059 Y0.2148 I0.0358 J-0.0102
G0 Z0.125
G0 X-0.2599 Y0.468
G0 Z0.012
G1 F5.0 Z-0.004
G2 F10.0 X-0.259 Y0.5592 I21.3238 J-0.1808
G2 X-0.2746 Y0.5441 I-0.0389 J0.0248
G1 X-0.276 Y0.4763
G2 X-0.2766 Y0.4713 I-0.024 J0.0005
G2 X-0.2599 Y0.468 I0.0035 J-0.0259
G1 F5.0 X-0.2551
G2 F10.0 X-0.2536 Y0.6043 I21.319 J-0.1807
G1 X-0.2723 Y0.6228
G2 X-0.2836 I-0.0222 J32.7243
G2 X-0.2794 Y0.547 I-0.0143 J-0.0388
G1 X-0.2808 Y0.4764
G2 X-0.2829 Y0.4682 I-0.0192 J0.0004
G1 X-0.2856 Y0.4627
G2 X-0.2552 Y0.457 I0.0125 J-0.0173
G2 X-0.2551 Y0.468 I21.3191 J-0.1698
G0 Z0.125
G0 X-0.2605 Y0.6608
G0 Z0.012
G1 F5.0 Z-0.004
G2 F10.0 X-0.262 Y0.6623 I0.0224 J0.0234
G2 X-0.2648 Y0.6612 I-0.0057 J0.0096
G1 X-0.2644
G2 X-0.2605 Y0.6608 I0.0 J-0.0192
G0 Z0.125
G0 X0.0672 Y0.603
G0 Z0.012
G1 F5.0 Z-0.004
G1 F10.0 Y0.601
G2 X0.0913 Y0.5934 I0.0067 J-0.0208
G2 X0.0922 Y0.592 I-0.0089 J-0.0068
G2 X0.0928 Y0.5909 I-0.0117 J-0.0074
G2 Y0.5914 I0.0112 J0.0005
G1 Y0.613
G2 X0.0929 Y0.6144 I0.0112 J0.0
G3 X0.0856 Y0.6063 I0.3419 J-0.3173
G2 X0.08 Y0.6029 I-0.0084 J0.0074
G2 X0.0772 Y0.6023 I-0.0042 J0.013
G1 X0.0767
G2 X0.073 Y0.6021 I-0.0027 J0.0159
G2 X0.0725 I0.0007 J0.0112
G2 X0.0672 Y0.603 I0.0048 J0.0444
G0 Z0.125
G0 X0.1255 Y0.5602
G0 Z0.012
G1 F5.0 Z-0.004
G2 F10.0 X0.1263 Y0.5571 I-0.0177 J-0.006
G1 Y0.5568
G2 X0.1267 Y0.5539 I-0.0183 J-0.004
G2 X0.1268 Y0.5522 I-0.016 J-0.0012
G2 X0.1259 Y0.5442 I-0.049 J0.0015
G1 X0.1345
G2 X0.1339 Y0.5461 I0.0177 J0.006
G2 X0.1336 Y0.5478 I0.0155 J0.0038
G2 X0.1332 Y0.5518 I0.0184 J0.0037
G1 Y0.5521
G2 X0.1334 Y0.5552 I0.0188 J0.0007
G2 X0.1336 Y0.5566 I0.0159 J-0.0018
G2 X0.1345 Y0.5602 I0.0364 J-0.0073
G1 X0.1255
G1 F5.0 Y0.565
G1 F10.0 X0.1192
G2 X0.1176 Y0.5651 I0.0 J0.0112
G2 X0.1189 Y0.5632 I-0.0107 J-0.0085
G1 X0.119 Y0.563
G2 X0.1202 Y0.5608 I-0.0117 J-0.0076
G2 X0.1206 Y0.5596 I-0.0102 J-0.0047
G1 X0.1207 Y0.5594
G2 X0.1216 Y0.5563 I-0.0128 J-0.0053
G1 Y0.5559
G2 X0.122 Y0.5536 I-0.0136 J-0.0031
G2 Y0.5523 I-0.0112 J-0.0009
G2 X0.1196 Y0.5394 I-0.0442 J0.0013
G1 X0.1408
G2 X0.1424 Y0.5393 I0.0 J-0.0112
G2 X0.1416 Y0.5404 I0.0107 J0.0085
G2 X0.141 Y0.5414 I0.0093 J0.0063
G1 X0.1409 Y0.5416
G2 X0.1395 Y0.5444 I0.0118 J0.0075
G1 X0.1394 Y0.5448
G2 X0.1386 Y0.5472 I0.0128 J0.0054
G2 X0.1384 Y0.5484 I0.0109 J0.0027
G1 X0.1383 Y0.5486
G2 X0.138 Y0.5518 I0.0136 J0.0029
G1 Y0.5521
G2 X0.1381 Y0.5547 I0.014 J0.0006
G2 X0.1383 Y0.5557 I0.0111 J-0.0012
G2 X0.1418 Y0.565 I0.0317 J-0.0064
G2 X0.1408 I-0.001 J0.0112
G1 X0.1255
G0 Z0.125
G0 X0.7305 Y0.2552
G0 Z0.012
G1 F5.0 Z-0.004
G2 F10.0 Y0.2392 I-0.0248 J-0.008
G1 X0.7458
G2 X0.7571 Y0.2345 I0.0 J-0.016
G1 X0.7723 Y0.2193
G1 X0.7724 Y0.2192
G2 X0.7737 Y0.2205 I0.029 J-0.0279
G2 X0.7749 Y0.2216 I0.011 J-0.0116
G2 X0.7756 Y0.2222 I0.0117 J-0.0143
G1 X0.7727 Y0.2251
G2 X0.768 Y0.2364 I0.0113 J0.0113
G1 Y0.258
G2 X0.7727 Y0.2693 I0.016 J0.0
G1 X0.7755 Y0.2721
G2 X0.7723 Y0.2751 I0.0183 J0.0229
G1 X0.7571 Y0.2599
G2 X0.7458 Y0.2552 I-0.0113 J0.0113
G1 X0.7305
G1 F5.0 X0.726 Y0.2537
G2 F10.0 X0.7226 Y0.2343 I-0.0202 J-0.0065
G2 X0.7242 Y0.2344 I0.0016 J-0.0111
G1 X0.7458
G2 X0.7537 Y0.2311 I0.0 J-0.0112
G1 X0.7689 Y0.2159
G2 X0.7718 Y0.2109 I-0.0079 J-0.0079
G2 X0.777 Y0.2171 I0.0296 J-0.0196
G2 X0.7779 Y0.2178 I0.0077 J-0.0081
G2 X0.7799 Y0.2192 I0.0087 J-0.0106
G1 X0.7802 Y0.2194
G2 X0.7831 Y0.2208 I0.0076 J-0.0117
G1 X0.7832 Y0.2209
G2 X0.7836 Y0.221 I0.0045 J-0.0102
G1 X0.7761 Y0.2285
G2 X0.7728 Y0.2364 I0.0079 J0.0079
G1 Y0.258
G2 X0.7761 Y0.2659 I0.0112 J0.0
G1 X0.7832 Y0.2729
G2 X0.7719 Y0.284 I0.0107 J0.0221
G2 X0.7689 Y0.2785 I-0.0109 J0.0024
G1 X0.7537 Y0.2633
G2 X0.7458 Y0.26 I-0.0079 J0.0079
G1 X0.7242
G2 X0.7227 Y0.2601 I0.0 J0.0112
G2 X0.725 Y0.2562 I-0.0403 J-0.0257
G2 X0.7253 Y0.2555 I-0.01 J-0.0051
G2 X0.726 Y0.2537 I-0.0195 J-0.0083
G0 Z0.125
G0 X0.7182 Y0.0112
G0 Z0.012
G1 F5.0 Z-0.004
G2 F10.0 X0.7198 Y0.0061 I-0.0276 J-0.0111
G2 X0.7258 Y0.0082 I0.0152 J-0.0339
G2 X0.7182 Y0.0112 I0.0092 J0.034
G0 Z0.125
G0 X0.7442 Y0.0082
G0 Z0.012
G1 F5.0 Z-0.004
G2 F10.0 X0.7488 Y0.0067 I-0.0092 J-0.036
G2 X0.7498 Y0.0103 I0.0277 J-0.0061
G2 X0.7442 Y0.0082 I-0.0148 J0.0319
G0 Z0.125
G0 X0.8787 Y-0.1371
G0 Z0.012
G1 F5.0 Z-0.004
G3 F10.0 X0.9232 Y-0.2798 I0.0563 J-0.0608
G1 X0.9468
G3 X0.8787 Y-0.1371 I-0.0118 J0.082
G1 F5.0 X0.8755 Y-0.1336
G3 F10.0 X0.9229 Y-0.2846 I0.0595 J-0.0643
G1 X0.9471
G3 X0.8755 Y-0.1336 I-0.0121 J0.0868
G0 Z0.125
G0 X0.2108 Y-0.3079
G0 Z0.012
G1 F5.0 Z-0.004
G2 F10.0 X0.2089 Y-0.3065 I0.0212 J0.0301
G2 X0.2108 Y-0.3109 I-0.0376 J-0.0187
G1 Y-0.3079
G0 Z0.125
G0 X-0.1012
G0 Z0.012
G1 F5.0 Z-0.004
G2 F10.0 X-0.1031 Y-0.3065 I0.0212 J0.0301
G2 X-0.1012 Y-0.3109 I-0.0376 J-0.0187
G1 Y-0.3079
G0 Z0.125
G0 X-0.4132
G0 Z0.012
G1 F5.0 Z-0.004
G2 F10.0 X-0.414 Y-0.3073 I0.0212 J0.0301
G2 X-0.4132 Y-0.3087 I-0.0243 J-0.0148
G1 Y-0.3079
G0 Z0.125
G0 X-0.4224 Y-0.2985
G0 Z0.012
G1 F5.0 Z-0.004
G2 F10.0 X-0.4234 Y-0.297 I0.0304 J0.0207
G1 X-0.4249
G2 X-0.4224 Y-0.2985 I-0.0134 J-0.0251
G0 Z0.125
G0 X-0.4128 Y-0.1155
G0 Z0.012
G1 F5.0 Z-0.004
G3 F10.0 X-0.4056 Y-0.1189 I0.0125 J0.0172
G2 X-0.405 Y-0.1192 I-0.0016 J-0.0062
G3 X-0.3971 Y-0.1195 I0.0049 J0.0222
G2 X-0.3962 Y-0.1194 I0.0008 J-0.0063
G2 X-0.3958 I0.0003 J-0.0064
G1 X-0.2835
G2 X-0.2833 I0.0 J-0.0064
G2 X-0.2767 Y-0.1209 I-0.0007 J-0.0183
G2 X-0.2765 Y-0.121 I-0.0025 J-0.0059
G1 X-0.0887 Y-0.2093
G2 X-0.0883 Y-0.2095 I-0.0027 J-0.0058
G2 X-0.0865 Y-0.2106 I-0.0037 J-0.0081
G2 X-0.0888 Y-0.239 I-0.01 J-0.0135
G2 X-0.0889 Y-0.2391 I-0.003 J0.0056
G2 X-0.0902 Y-0.2396 I-0.0029 J0.0057
G3 X-0.1136 Y-0.2996 I0.0098 J-0.0384
G2 X-0.1036 Y-0.3285 I-0.0271 J-0.0255
G1 X-0.1037 Y-0.3291
G2 X-0.104 Y-0.3314 I-0.009 J0.0001
G1 X-0.1043 Y-0.3322
G1 X-0.1044 Y-0.333
G2 X-0.1047 Y-0.3337 I-0.0062 J0.0017
G2 X-0.1055 Y-0.3354 I-0.0084 J0.003
G1 X-0.1057 Y-0.3358
G2 X-0.107 Y-0.3378 I-0.0078 J0.0037
G1 X-0.1072 Y-0.3381
G2 X-0.1077 Y-0.3387 I-0.0052 J0.0037
G2 X-0.1091 Y-0.34 I-0.0067 J0.0056
G1 X-0.1095 Y-0.3404
G2 X-0.1098 Y-0.3407 I-0.0043 J0.0047
G2 X-0.1197 Y-0.3442 I-0.0102 J0.0127
G2 X-0.1967 I-0.0383 J0.4505
G1 X-0.1973 Y-0.3441
G2 X-0.1996 Y-0.3438 I0.0001 J0.0089
G1 X-0.2004 Y-0.3436
G1 X-0.2012 Y-0.3434
G2 X-0.2019 Y-0.3431 I0.0017 J0.0062
G2 X-0.2036 Y-0.3423 I0.003 J0.0084
G1 X-0.204 Y-0.3421
G2 X-0.206 Y-0.3408 I0.0037 J0.0078
G1 X-0.2062 Y-0.3406
G2 X-0.2068 Y-0.3402 I0.0037 J0.0052
G2 X-0.2092 Y-0.3375 I0.0069 J0.0086
G1 X-0.2096 Y-0.3369
G1 X-0.21 Y-0.3363
G2 X-0.2105 Y-0.3355 I0.0053 J0.0036
G2 X-0.2112 Y-0.3339 I0.0079 J0.0045
G1 X-0.2114 Y-0.3335
G2 X-0.2092 Y-0.3067 I0.025 J0.0114
G2 X-0.2087 Y-0.306 I0.0053 J-0.0036
G2 X-0.2081 Y-0.3053 I0.0051 J-0.0039
G1 X-0.2079 Y-0.3052
G3 X-0.2427 Y-0.2383 I-0.0281 J0.0279
G2 X-0.2605 Y-0.239 I-0.0096 J0.0161
G2 X-0.3364 Y-0.1956 I0.3534 J0.7061
G2 X-0.3368 Y-0.1953 I0.0035 J0.0054
G3 X-0.3547 Y-0.1912 I-0.0157 J-0.0274
G2 X-0.3551 I-0.0004 J0.0064
G1 X-0.5043
G2 X-0.5045 I0.0 J0.0064
G2 X-0.5157 Y-0.1866 I0.0007 J0.0175
G2 X-0.5646 Y-0.1375 I0.6257 J0.6731
G2 X-0.5652 Y-0.1367 I0.0047 J0.0043
G2 X-0.5662 Y-0.1352 I0.0071 J0.0055
G1 X-0.5665 Y-0.1347
G2 X-0.5674 Y-0.1327 I0.0077 J0.0046
G1 X-0.5675 Y-0.1325
G2 X-0.5678 Y-0.1316 I0.0059 J0.0024
G2 X-0.5681 Y-0.1297 I0.0083 J0.0027
G1 X-0.5683 Y-0.1291
G1 Y-0.129
G1 Y-0.1288
G2 X-0.5684 Y-0.1277 I0.0063 J0.001
G1 Y-0.1275
G2 Y-0.1271 I0.0064 J0.0004
G1 Y0.2601
G2 Y0.2605 I0.0064 J0.0
G2 X-0.5682 Y0.2623 I0.0091 J0.0001
G1 X-0.5681 Y0.2628
G2 X-0.5676 Y0.265 I0.0089 J-0.001
G1 X-0.5675 Y0.2653
G2 X-0.5672 Y0.2661 I0.0062 J-0.0017
G2 X-0.5664 Y0.2678 I0.0084 J-0.003
G1 X-0.5662 Y0.2683
G2 X-0.5649 Y0.2701 I0.0079 J-0.0039
G1 X-0.5648 Y0.2704
G2 X-0.5642 Y0.2711 I0.0052 J-0.0037
G2 X-0.5629 Y0.2724 I0.007 J-0.0059
G1 X-0.5625 Y0.2727
G2 X-0.56 Y0.2745 I0.0076 J-0.0082
G1 X-0.3407 Y0.3997
G2 X-0.311 Y0.4172 I0.1237 J-0.1761
G3 X-0.288 Y0.4526 I-0.06 J0.0643
G2 X-0.2875 Y0.4537 I0.006 J-0.0021
G2 X-0.2566 Y0.4463 I0.0143 J-0.0083
G2 Y0.446 I-0.0064 J-0.0004
G1 Y0.0234
G2 Y0.0232 I-0.0064 J0.0
G2 X-0.2568 Y0.0214 I-0.0089 J-0.0001
G1 Y0.021
G3 X-0.2449 Y-0.0029 I0.0296 J-0.0002
G2 X-0.2448 Y-0.003 I-0.0038 J-0.0051
G2 X-0.2069 Y-0.0364 I-0.2392 J-0.3089
G2 X-0.2064 Y-0.0368 I-0.0048 J-0.0081
G3 X-0.1942 Y-0.0394 I0.0106 J0.0195
G2 X-0.1937 I0.0005 J-0.0064
G1 X0.4729
G2 X0.4735 Y-0.0395 I0.0 J-0.0064
G1 X0.4736
G3 X0.4898 Y-0.0337 I0.0014 J0.0215
G2 X0.536 Y0.0031 I0.2834 J-0.3085
G2 X0.5365 Y0.0035 I0.0036 J-0.0053
G2 X0.5376 Y0.0039 I0.0032 J-0.0055
G3 X0.5378 Y0.0041 I-0.0001 J0.0003
G0 Z0.125
G0 X-0.867 Y-0.0234
G0 Z0.012
G1 F5.0 Z-0.004
G2 F10.0 X-0.8718 Y-0.0244 I-0.0129 J0.0517
G2 X-0.8732 Y-0.0246 I-0.0024 J0.0158
G2 X-0.8766 Y-0.0245 I-0.0016 J0.0183
G1 X-0.8768
G2 X-0.8807 Y-0.024 I0.0007 J0.0188
G1 X-0.8808 Y-0.0239
G2 X-0.8824 Y-0.0235 I0.003 J0.0157
G2 X-0.883 Y-0.0234 I0.0049 J0.0176
G1 Y-0.0322
G2 X-0.8782 Y-0.0312 I0.0129 J-0.0517
G2 X-0.8768 Y-0.0311 I0.0024 J-0.0158
G2 X-0.8734 I0.0016 J-0.0183
G1 X-0.8732
G2 X-0.8693 Y-0.0317 I-0.0007 J-0.0188
G1 X-0.8692
G2 X-0.8676 Y-0.0321 I-0.003 J-0.0157
G2 X-0.867 Y-0.0323 I-0.0049 J-0.0176
G1 Y-0.0234
G1 F5.0 X-0.8682 Y-0.0188
G2 F10.0 X-0.8725 Y-0.0197 I-0.0118 J0.047
G2 X-0.8735 Y-0.0198 I-0.0017 J0.0111
G2 X-0.8763 Y-0.0197 I-0.0013 J0.0135
G1 X-0.8766
G2 X-0.8797 Y-0.0193 I0.0005 J0.014
G1 X-0.8799 Y-0.0192
G2 X-0.8811 Y-0.0189 I0.0021 J0.011
G2 X-0.8836 Y-0.018 I0.0036 J0.013
G1 X-0.8837 Y-0.0179
G2 X-0.8866 Y-0.0163 I0.005 J0.0126
G1 X-0.8867 Y-0.0162
G1 X-0.8868
G2 X-0.8879 Y-0.0156 I0.0202 J0.0384
G2 X-0.8878 Y-0.017 I-0.0111 J-0.0014
G1 Y-0.0386
G2 Y-0.0388 I-0.0112 J0.0
G2 X-0.8775 Y-0.036 I0.0177 J-0.0451
G2 X-0.8765 Y-0.0359 I0.0017 J-0.0111
G2 X-0.8737 I0.0013 J-0.0135
G1 X-0.8734
G2 X-0.8703 Y-0.0364 I-0.0005 J-0.014
G1 X-0.8701
G2 X-0.8689 Y-0.0367 I-0.0021 J-0.011
G2 X-0.8665 Y-0.0377 I-0.0036 J-0.013
G1 X-0.8661 Y-0.0378
G2 X-0.8641 Y-0.0389 I-0.0043 J-0.0103
G2 X-0.8621 Y-0.0404 I-0.0719 J-0.1029
G2 X-0.8622 Y-0.0386 I0.0111 J0.0018
G1 Y-0.017
G2 Y-0.0169 I0.0112 J0.0
G2 X-0.8682 Y-0.0188 I-0.0177 J0.0451
G0 Z0.125
G0 X-1.101
G0 Z0.012
G1 F5.0 Z-0.004
G1 F10.0 Y0.8712
G2 X-1.1006 Y0.8761 I0.021 J0.0008
G2 X-1.099 Y0.8814 I0.0202 J-0.0031
G2 X-1.0987 Y0.8821 I0.0147 J-0.0063
G1 X-1.098 Y0.8836
G2 X-1.0976 Y0.8844 I0.0144 J-0.007
G2 X-1.0967 Y0.8858 I0.014 J-0.0077
G2 X-1.0337 Y0.9479 I0.1961 J-0.1359
G2 X-1.0302 Y0.9502 I0.0128 J-0.0161
G2 X-1.0247 Y0.9523 I0.0099 J-0.0174
G2 X-1.0244 Y0.9524 I0.0038 J-0.0155
G1 X-1.0227 Y0.9527
G2 X-1.0214 Y0.9529 I0.0034 J-0.0156
G2 X-1.0202 Y0.9531 I0.0022 J-0.0158
G1 X-1.0189
G2 X-1.018 Y0.9532 I0.001 J-0.016
G1 X-0.6618
G2 X-0.6591 Y0.953 I0.0004 J-0.0183
G2 X-0.6556 Y0.9524 I-0.0015 J-0.0185
G1 X-0.6548 Y0.9522
G1 X-0.654 Y0.952
G2 X-0.6524 Y0.9515 I-0.0042 J-0.0154
G2 X-0.6503 Y0.9505 I-0.0066 J-0.0178
G2 X-0.6473 Y0.9488 I-0.0079 J-0.0172
G1 X-0.6472
G1 X-0.6465 Y0.9482
G1 X-0.6458 Y0.9477
G2 X-0.6448 Y0.9469 I-0.0093 J-0.013
G2 X-0.6429 Y0.9452 I-0.0117 J-0.0142
G2 X-0.6405 Y0.9422 I-0.0129 J-0.0129
G1 X-0.6401 Y0.9417
G1 Y0.9416
G1 X-0.6397 Y0.941
G2 X-0.6389 Y0.9396 I-0.0133 J-0.009
G2 X-0.6367 Y0.9342 I-0.0187 J-0.0106
G2 Y0.9341 I-0.0155 J-0.0039
G1 X-0.6364 Y0.9332
G1 X-0.6365 Y0.9333
G1 X-0.6363 Y0.9325
G2 X-0.636 Y0.9314 I-0.0155 J-0.0038
G2 X-0.6357 Y0.9284 I-0.0177 J-0.0033
G2 X-0.6358 Y0.9248 I-0.0183 J-0.0012
G1 X-0.6359 Y0.9241
G1 X-0.636 Y0.9233
G2 X-0.6363 Y0.9218 I-0.0159 J0.0018
G2 X-0.6369 Y0.9193 I-0.0181 J0.0035
G2 X-0.6381 Y0.9163 I-0.0182 J0.0054
G2 X-0.6388 Y0.9151 I-0.0143 J0.0071
G3 X-0.5035 Y0.8179 I0.0715 J-0.0432
G2 X-0.4664 Y0.8389 I0.0282 J-0.0066
G2 X-0.4653 Y0.8384 I-0.0049 J-0.0152
G2 X-0.4632 Y0.8375 I-0.0067 J-0.0173
G2 X-0.4601 Y0.8356 I-0.008 J-0.0167
G1 X-0.4594 Y0.8351
G1 X-0.4595
G1 X-0.4588 Y0.8346
G2 X-0.4576 Y0.8337 I-0.0095 J-0.0128
G2 X-0.4559 Y0.832 I-0.0122 J-0.014
G2 X-0.4535 Y0.8289 I-0.0133 J-0.0129
G2 X-0.4534 Y0.8287 I-0.0136 J-0.0085
G3 X-0.3034 Y0.9002 I0.0713 J0.0435
G2 X-0.3111 Y0.9397 I0.0211 J0.0246
G2 X-0.3106 Y0.9406 I0.0142 J-0.0073
G2 X-0.3092 Y0.9426 I0.0162 J-0.0094
G2 X-0.3067 Y0.9455 I0.0151 J-0.0106
G1 X-0.3061 Y0.946
G1 X-0.3062
G1 X-0.3056 Y0.9465
G2 X-0.3046 Y0.9474 I0.0111 J-0.0115
G2 X-0.3024 Y0.949 I0.0118 J-0.014
G2 X-0.2992 Y0.9507 I0.0104 J-0.0152
G1 X-0.2985 Y0.9511
G1 X-0.2978 Y0.9514
G2 X-0.2967 Y0.9518 I0.0063 J-0.0147
G2 X-0.2917 Y0.953 I0.0072 J-0.0195
G2 X-0.2879 Y0.9532 I0.003 J-0.0201
G1 X1.0177
G2 X1.0225 Y0.9528 I0.0008 J-0.021
G2 X1.0278 Y0.9512 I-0.0031 J-0.0202
G2 X1.0285 Y0.9509 I-0.0063 J-0.0147
G1 X1.03 Y0.9502
G2 X1.0308 Y0.9498 I-0.007 J-0.0144
G2 X1.0316 Y0.9493 I-0.0077 J-0.014
G2 X1.0957 Y0.8873 I-0.1137 J-0.1816
G2 X1.098 Y0.8837 I-0.0161 J-0.0128
G2 X1.1001 Y0.8783 I-0.0174 J-0.0099
G2 X1.1002 Y0.8779 I-0.0155 J-0.0038
G1 X1.1005 Y0.8763
G2 X1.1008 Y0.875 I-0.0156 J-0.0034
G2 X1.1009 Y0.8737 I-0.0158 J-0.0022
G1 X1.101 Y0.8725
G2 Y0.8715 I-0.016 J-0.001
G1 Y-0.2774
G2 X1.1007 Y-0.2815 I-0.0209 J-0.0004
G1 X1.1006 Y-0.2819
G2 X1.0998 Y-0.2855 I-0.0185 J0.0025
G2 X1.0995 Y-0.2862 I-0.0154 J0.0044
G2 X1.0977 Y-0.2902 I-0.02 J0.0068
G1 X1.0975 Y-0.2905
G2 X1.0944 Y-0.2949 I-0.0182 J0.0096
G1 X1.0943 Y-0.295
G2 X1.0941 Y-0.2952 I-0.0119 J0.0107
G2 X1.0937 Y-0.2957 I-0.0118 J0.0109
G1 X1.0928 Y-0.2966
G2 X1.0914 Y-0.2978 I-0.0113 J0.0113
G2 X1.0315 Y-0.3378 I-0.2738 J0.3451
G2 X1.029 Y-0.3389 I-0.0078 J0.014
G2 X0.955 Y-0.3538 I-0.0918 J0.2655
G2 X0.9539 I-0.001 J0.016
G1 X0.401
G1 Y-0.6093
G1 X0.4255
G2 X0.4415 Y-0.6253 I0.0 J-0.016
G1 Y-0.9503
G2 X0.4255 Y-0.9663 I-0.016 J0.0
G1 X0.3505
G2 X0.3345 Y-0.9503 I0.0 J0.016
G1 Y-0.6253
G2 X0.349 Y-0.6094 I0.016 J0.0
G1 Y-0.355
G2 X0.2705 Y-0.3537 I-0.0305 J0.5605
G1 X0.2704
G1 X0.2702
G2 X0.2658 Y-0.353 I0.0006 J0.0185
G1 X0.2651 Y-0.3528
G1 X0.2643 Y-0.3526
G2 X0.2627 Y-0.3521 I0.0042 J0.0154
G2 X0.2598 Y-0.3507 I0.0064 J0.0174
G1 X0.2597
G2 X0.258 Y-0.3497 I0.008 J0.0164
G1 Y-0.6093
G1 X0.2695
G2 X0.2855 Y-0.6253 I0.0 J-0.016
G1 Y-0.9503
G2 X0.2695 Y-0.9663 I-0.016 J0.0
G1 X0.1945
G2 X0.1785 Y-0.9503 I0.0 J0.016
G1 Y-0.6253
G2 X0.1945 Y-0.6093 I0.016 J0.0
G1 X0.206
G1 Y-0.3497
G2 X0.1928 Y-0.3538 I-0.014 J0.0218
G2 X0.1145 Y-0.3537 I-0.0388 J0.4601
G1 X0.1144
G1 X0.1142
G2 X0.1098 Y-0.353 I0.0006 J0.0185
G1 X0.1091 Y-0.3528
G1 X0.1083 Y-0.3526
G2 X0.1067 Y-0.3521 I0.0042 J0.0154
G2 X0.1038 Y-0.3507 I0.0064 J0.0174
G1 X0.1037
G2 X0.102 Y-0.3497 I0.008 J0.0164
G1 Y-0.6093
G1 X0.1135
G2 X0.1295 Y-0.6253 I0.0 J-0.016
G1 Y-0.9503
G2 X0.1135 Y-0.9663 I-0.016 J0.0
G1 X0.0385
G2 X0.0225 Y-0.9503 I0.0 J0.016
G1 Y-0.6253
G2 X0.0385 Y-0.6093 I0.016 J0.0
G1 X0.05
G1 Y-0.3103
G2 X0.0351 Y-0.2701 I0.026 J0.0325
G1 X-0.0703 Y-0.2206
G2 X-0.0733 Y-0.2368 I-0.0261 J-0.0035
G2 X-0.054 Y-0.3103 I-0.0067 J-0.041
G1 Y-0.6093
G1 X-0.0425
G2 X-0.0265 Y-0.6253 I0.0 J-0.016
G1 Y-0.9503
G2 X-0.0425 Y-0.9663 I-0.016 J0.0
G1 X-0.1175
G2 X-0.1335 Y-0.9503 I0.0 J0.016
G1 Y-0.6253
G2 X-0.1175 Y-0.6093 I0.016 J0.0
G1 X-0.106
G1 Y-0.3497
G2 X-0.1192 Y-0.3538 I-0.014 J0.0218
G2 X-0.1975 Y-0.3537 I-0.0388 J0.4601
G1 X-0.1976
G1 X-0.1978
G2 X-0.2022 Y-0.353 I0.0006 J0.0185
G1 X-0.2029 Y-0.3528
G1 X-0.2037 Y-0.3526
G2 X-0.2053 Y-0.3521 I0.0042 J0.0154
G2 X-0.2082 Y-0.3507 I0.0064 J0.0174
G1 X-0.2083
G2 X-0.21 Y-0.3497 I0.008 J0.0164
G1 Y-0.6093
G1 X-0.1985
G2 X-0.1825 Y-0.6253 I0.0 J-0.016
G1 Y-0.9503
G2 X-0.1985 Y-0.9663 I-0.016 J0.0
G1 X-0.2735
G2 X-0.2895 Y-0.9503 I0.0 J0.016
G1 Y-0.6253
G2 X-0.2735 Y-0.6093 I0.016 J0.0
G1 X-0.262
G1 Y-0.3103
G2 X-0.2774 Y-0.2818 I0.026 J0.0325
G1 X-0.3564 Y-0.2368
G1 X-0.385
G2 X-0.366 Y-0.3103 I-0.007 J-0.041
G1 Y-0.6093
G1 X-0.3545
G2 X-0.3385 Y-0.6253 I0.0 J-0.016
G1 Y-0.9503
G2 X-0.3545 Y-0.9663 I-0.016 J0.0
G1 X-0.4295
G2 X-0.4455 Y-0.9503 I0.0 J0.016
G1 Y-0.6253
G2 X-0.4295 Y-0.6093 I0.016 J0.0
G1 X-0.418
G1 Y-0.3497
G2 X-0.432 Y-0.3538 I-0.014 J0.0218
G1 X-0.9617
G1 X-0.9618
G2 X-1.0102 Y-0.3475 I-0.0074 J0.1321
G2 X-1.0558 Y-0.3288 I0.0335 J0.1463
G2 X-1.0944 Y-0.2991 I0.0734 J0.1358
G2 X-1.0952 Y-0.2983 I0.0116 J0.011
G2 X-1.0968 Y-0.296 I0.0137 J0.0117
G2 X-1.0986 Y-0.2927 I0.015 J0.0102
G1 X-1.0989 Y-0.2921
G1 X-1.0992 Y-0.2914
G2 X-1.0997 Y-0.2899 I0.0147 J0.0064
G2 X-1.1003 Y-0.2876 I0.0177 J0.006
G2 X-1.1008 Y-0.2855 I0.0179 J0.0045
G2 X-1.101 Y-0.2814 I0.0198 J0.0032
G1 Y-0.0188
G1 F5.0 X-1.0962
G1 F10.0 Y0.8713
G2 X-1.0959 Y0.8753 I0.0162 J0.0007
G2 X-1.0946 Y0.8795 I0.0155 J-0.0023
G2 X-1.0944 Y0.88 I0.0103 J-0.0044
G1 X-1.0937 Y0.8815
G2 X-1.0934 Y0.882 I0.0101 J-0.0049
G2 X-1.0928 Y0.8831 I0.0098 J-0.0054
G2 X-1.0309 Y0.944 I0.1921 J-0.1332
G2 X-1.0279 Y0.9459 I0.01 J-0.0122
G2 X-1.0236 Y0.9476 I0.0076 J-0.0132
G2 X-1.0233 Y0.9477 I0.0027 J-0.0109
G1 X-1.0217 Y0.948
G2 X-1.0208 Y0.9482 I0.0024 J-0.0109
G2 X-1.0199 Y0.9483 I0.0016 J-0.0111
G1 X-1.0186 Y0.9484
G2 X-1.018 I0.0007 J-0.0112
G1 X-0.6617
G2 X-0.6596 Y0.9483 I0.0004 J-0.0135
G2 X-0.6568 Y0.9478 I-0.001 J-0.0137
G1 X-0.656 Y0.9476
G1 X-0.6553 Y0.9474
G2 X-0.6541 Y0.947 I-0.0029 J-0.0108
G2 X-0.6524 Y0.9462 I-0.0049 J-0.0133
G2 X-0.6501 Y0.9449 I-0.0058 J-0.0128
G1 X-0.65 Y0.9448
G1 X-0.6493 Y0.9443
G1 X-0.6486 Y0.9439
G2 X-0.6479 Y0.9433 I-0.0065 J-0.0091
G2 X-0.6464 Y0.9418 I-0.0086 J-0.0105
G2 X-0.6445 Y0.9396 I-0.0094 J-0.0096
G1 X-0.6441 Y0.939
G1 X-0.6437 Y0.9383
G2 X-0.6431 Y0.9373 I-0.0093 J-0.0063
G2 X-0.6413 Y0.933 I-0.0145 J-0.0083
G2 Y0.9329 I-0.0109 J-0.0027
G1 X-0.6411 Y0.9321
G1 X-0.6409 Y0.9313
G2 X-0.6408 Y0.9305 I-0.0109 J-0.0027
G2 X-0.6405 Y0.9282 I-0.0129 J-0.0025
G2 X-0.6406 Y0.9254 I-0.0135 J-0.001
G1 X-0.6407 Y0.9246
G1 Y0.9247
G1 X-0.6408 Y0.9239
G2 X-0.641 Y0.9228 I-0.0111 J0.0013
G2 X-0.6415 Y0.9208 I-0.0134 J0.0026
G2 X-0.6424 Y0.9184 I-0.0136 J0.0039
G2 X-0.6429 Y0.9176 I-0.01 J0.005
G3 X-0.499 Y0.8158 I0.0756 J-0.0457
G2 X-0.4679 Y0.8343 I0.0237 J-0.0045
G2 X-0.4671 Y0.834 I-0.0034 J-0.0107
G2 X-0.4654 Y0.8332 I-0.0049 J-0.0129
G2 X-0.463 Y0.8317 I-0.0059 J-0.0125
G1 X-0.4623 Y0.8312
G1 X-0.4617 Y0.8308
G2 X-0.4608 Y0.8301 I-0.0067 J-0.009
G2 X-0.4594 Y0.8287 I-0.009 J-0.0104
G2 X-0.4576 Y0.8263 I-0.0098 J-0.0096
G2 X-0.4575 Y0.8262 I-0.0095 J-0.0059
G3 X-0.2993 Y0.9031 I0.0754 J0.046
G2 X-0.3068 Y0.9375 I0.017 J0.0217
G2 X-0.3065 Y0.9381 I0.01 J-0.0051
G2 X-0.3053 Y0.9398 I0.012 J-0.0069
G2 X-0.3034 Y0.942 I0.0112 J-0.0077
G1 X-0.3028 Y0.9426
G1 X-0.3029 Y0.9425
G1 X-0.3023 Y0.9431
G2 X-0.3016 Y0.9437 I0.0078 J-0.0081
G2 X-0.2998 Y0.945 I0.0087 J-0.0103
G2 X-0.2974 Y0.9463 I0.0078 J-0.0112
G1 X-0.2966 Y0.9466
G1 X-0.2959 Y0.947
G2 X-0.295 Y0.9473 I0.0044 J-0.0103
G2 X-0.2911 Y0.9482 I0.0056 J-0.0149
G2 X-0.288 Y0.9484 I0.0024 J-0.0153
G1 X1.0178
G2 X1.0217 Y0.9481 I0.0007 J-0.0162
G2 X1.0259 Y0.9468 I-0.0023 J-0.0155
G2 X1.0264 Y0.9466 I-0.0044 J-0.0103
G1 X1.0279 Y0.9459
G2 X1.0285 Y0.9456 I-0.0049 J-0.0101
G2 X1.0291 Y0.9452 I-0.0054 J-0.0098
G2 X1.0918 Y0.8845 I-0.1111 J-0.1775
G2 X1.0937 Y0.8815 I-0.0122 J-0.01
G2 X1.0954 Y0.8772 I-0.0132 J-0.0076
G2 X1.0955 Y0.8769 I-0.0109 J-0.0027
G1 X1.0958 Y0.8753
G2 X1.096 Y0.8743 I-0.0109 J-0.0024
G2 X1.0961 Y0.8734 I-0.0111 J-0.0016
G1 X1.0962 Y0.8722
G2 Y0.8715 I-0.0112 J-0.0007
G1 Y-0.2775
G2 X1.0959 Y-0.2807 I-0.0161 J-0.0003
G1 Y-0.2812
G2 X1.0952 Y-0.284 I-0.0138 J0.0018
G2 X1.095 Y-0.2847 I-0.0108 J0.003
G2 X1.0935 Y-0.2878 I-0.0155 J0.0053
G1 X1.0933 Y-0.2882
G2 X1.0909 Y-0.2917 I-0.014 J0.0073
G1 X1.0908 Y-0.2918
G2 X1.0906 Y-0.292 I-0.0083 J0.0075
G2 X1.0903 Y-0.2923 I-0.0082 J0.0076
G1 X1.0894 Y-0.2932
G2 X1.0885 Y-0.294 I-0.0079 J0.0079
G2 X1.0292 Y-0.3336 I-0.2709 J0.3413
G2 X1.0274 Y-0.3344 I-0.0054 J0.0098
G2 X0.9547 Y-0.349 I-0.0902 J0.2609
G2 X0.9539 I-0.0007 J0.0112
G1 X0.3962
G1 Y-0.6141
G1 X0.4255
G2 X0.4367 Y-0.6253 I0.0 J-0.0112
G1 Y-0.9503
G2 X0.4255 Y-0.9615 I-0.0112 J0.0
G1 X0.3505
G2 X0.3393 Y-0.9503 I0.0 J0.0112
G1 Y-0.6253
G2 X0.3505 Y-0.6141 I0.0112 J0.0
G1 X0.3538
G1 Y-0.3499
G2 X0.2709 Y-0.349 I-0.0353 J0.5554
G1 X0.2705 Y-0.3489
G2 X0.2671 Y-0.3484 I0.0003 J0.0137
G1 X0.2663 Y-0.3482
G1 X0.2656 Y-0.348
G2 X0.2644 Y-0.3476 I0.0029 J0.0108
G2 X0.2621 Y-0.3465 I0.0047 J0.0129
G1 X0.2619 Y-0.3464
G2 X0.259 Y-0.3446 I0.0058 J0.0121
G1 Y-0.3445
G2 X0.2581 Y-0.3438 I0.0065 J0.0091
G2 X0.2548 Y-0.3402 I0.0099 J0.0123
G1 X0.2544 Y-0.3395
G1 Y-0.3396
G1 X0.254 Y-0.339
G2 X0.2533 Y-0.3378 I0.0093 J0.0063
G2 X0.2532 Y-0.3376 I0.0122 J0.0067
G1 Y-0.6141
G1 X0.2695
G2 X0.2807 Y-0.6253 I0.0 J-0.0112
G1 Y-0.9503
G2 X0.2695 Y-0.9615 I-0.0112 J0.0
G1 X0.1945
G2 X0.1833 Y-0.9503 I0.0 J0.0112
G1 Y-0.6253
G2 X0.1945 Y-0.6141 I0.0112 J0.0
G1 X0.2108
G1 Y-0.3376
G2 X0.2107 Y-0.3378 I-0.0119 J0.0068
G1 X0.2106 Y-0.3379
G2 X0.2087 Y-0.3408 I-0.0121 J0.0058
G1 Y-0.3409
G2 X0.2079 Y-0.3418 I-0.0091 J0.0065
G2 X0.2061 Y-0.3436 I-0.0104 J0.0087
G1 X0.2058 Y-0.3439
G2 X0.2052 Y-0.3444 I-0.0076 J0.0082
G2 X0.1926 Y-0.349 I-0.0132 J0.0165
G2 X0.1149 I-0.0386 J0.4553
G1 X0.1145 Y-0.3489
G2 X0.1111 Y-0.3484 I0.0003 J0.0137
G1 X0.1103 Y-0.3482
G1 X0.1096 Y-0.348
G2 X0.1084 Y-0.3476 I0.0029 J0.0108
G2 X0.1061 Y-0.3465 I0.0047 J0.0129
G1 X0.1059 Y-0.3464
G2 X0.103 Y-0.3446 I0.0058 J0.0121
G1 Y-0.3445
G2 X0.1021 Y-0.3438 I0.0065 J0.0091
G2 X0.0988 Y-0.3402 I0.0099 J0.0123
G1 X0.0984 Y-0.3395
G1 Y-0.3396
G1 X0.098 Y-0.339
G2 X0.0973 Y-0.3378 I0.0093 J0.0063
G2 X0.0972 Y-0.3376 I0.0122 J0.0067
G1 Y-0.6141
G1 X0.1135
G2 X0.1247 Y-0.6253 I0.0 J-0.0112
G1 Y-0.9503
G2 X0.1135 Y-0.9615 I-0.0112 J0.0
G1 X0.0385
G2 X0.0273 Y-0.9503 I0.0 J0.0112
G1 Y-0.6253
G2 X0.0385 Y-0.6141 I0.0112 J0.0
G1 X0.0548
G1 Y-0.3079
G2 X0.0407 Y-0.2674 I0.0212 J0.0301
G1 X-0.0792 Y-0.2111
G2 X-0.0833 Y-0.2412 I-0.0172 J-0.013
G2 X-0.0588 Y-0.3079 I0.0033 J-0.0366
G1 Y-0.6141
G1 X-0.0425
G2 X-0.0313 Y-0.6253 I0.0 J-0.0112
G1 Y-0.9503
G2 X-0.0425 Y-0.9615 I-0.0112 J0.0
G1 X-0.1175
G2 X-0.1287 Y-0.9503 I0.0 J0.0112
G1 Y-0.6253
G2 X-0.1175 Y-0.6141 I0.0112 J0.0
G1 X-0.1012
G1 Y-0.3376
G2 X-0.1013 Y-0.3378 I-0.0119 J0.0068
G1 X-0.1014 Y-0.3379
G2 X-0.1033 Y-0.3408 I-0.0121 J0.0058
G1 Y-0.3409
G2 X-0.1041 Y-0.3418 I-0.0091 J0.0065
G2 X-0.1059 Y-0.3436 I-0.0104 J0.0087
G1 X-0.1062 Y-0.3439
G2 X-0.1068 Y-0.3444 I-0.0076 J0.0082
G2 X-0.1194 Y-0.349 I-0.0132 J0.0165
G2 X-0.1971 I-0.0386 J0.4553
G1 X-0.1975 Y-0.3489
G2 X-0.2009 Y-0.3484 I0.0003 J0.0137
G1 X-0.2017 Y-0.3482
G1 X-0.2024 Y-0.348
G2 X-0.2036 Y-0.3476 I0.0029 J0.0108
G2 X-0.2059 Y-0.3465 I0.0047 J0.0129
G1 X-0.2061 Y-0.3464
G2 X-0.209 Y-0.3446 I0.0058 J0.0121
G1 Y-0.3445
G2 X-0.2099 Y-0.3438 I0.0065 J0.0091
G2 X-0.2132 Y-0.3402 I0.0099 J0.0123
G1 X-0.2136 Y-0.3395
G1 Y-0.3396
G1 X-0.214 Y-0.339
G2 X-0.2147 Y-0.3378 I0.0093 J0.0063
G2 X-0.2148 Y-0.3376 I0.0122 J0.0067
G1 Y-0.6141
G1 X-0.1985
G2 X-0.1873 Y-0.6253 I0.0 J-0.0112
G1 Y-0.9503
G2 X-0.1985 Y-0.9615 I-0.0112 J0.0
G1 X-0.2735
G2 X-0.2847 Y-0.9503 I0.0 J0.0112
G1 Y-0.6253
G2 X-0.2735 Y-0.6141 I0.0112 J0.0
G1 X-0.2572
G1 Y-0.3079
G2 X-0.2728 Y-0.279 I0.0212 J0.0301
G1 X-0.3551 Y-0.232
G1 X-0.52
G2 X-0.5336 Y-0.2264 I0.0 J0.0192
G1 X-0.6036 Y-0.1564
G2 X-0.6092 Y-0.1428 I0.0136 J0.0136
G1 Y0.2822
G2 X-0.5995 Y0.2989 I0.0192 J0.0
G2 X-0.5993 Y0.299 I0.0056 J-0.0097
G3 X-0.3346 Y0.4508 I-3.4732 J6.3619
G1 X-0.3191 Y0.4816
G1 X-0.3178 Y0.5478
G2 X-0.3121 Y0.6228 I0.0199 J0.0362
G2 X-0.3864 Y0.6229 I0.0176 J32.7243
G2 X-0.4036 Y0.6336 I0.0 J0.0192
G1 X-0.417 Y0.6608
G2 X-0.4571 Y0.7054 I0.001 J0.0413
G2 X-0.4929 I-0.0179 J0.0118
G2 X-0.493 Y0.6979 I-0.0412 J-0.0033
G1 X-0.4633 Y0.6782
G2 X-0.4547 Y0.6622 I-0.0106 J-0.016
G1 X-0.4549 Y0.5977
G2 X-0.3967 Y0.5474 I0.039 J-0.0137
G1 Y0.4822
G2 X-0.3988 Y0.4736 I-0.0192 J0.0
G1 X-0.4238 Y0.4236
G2 X-0.4317 Y0.4154 I-0.0172 J0.0086
G1 X-0.6558 Y0.2918
G1 Y-0.1953
G1 X-0.5967 Y-0.2586
G1 X-0.4234
G2 X-0.3708 Y-0.3079 I0.0314 J-0.0192
G1 Y-0.6141
G1 X-0.3545
G2 X-0.3433 Y-0.6253 I0.0 J-0.0112
G1 Y-0.9503
G2 X-0.3545 Y-0.9615 I-0.0112 J0.0
G1 X-0.4295
G2 X-0.4407 Y-0.9503 I0.0 J0.0112
G1 Y-0.6253
G2 X-0.4295 Y-0.6141 I0.0112 J0.0
G1 X-0.4132
G1 Y-0.3376
G2 X-0.4133 Y-0.3378 I-0.0119 J0.0068
G1 X-0.4134 Y-0.3379
G2 X-0.4153 Y-0.3408 I-0.0121 J0.0058
G1 Y-0.3409
G2 X-0.4161 Y-0.3418 I-0.0091 J0.0065
G2 X-0.4179 Y-0.3436 I-0.0104 J0.0087
G1 X-0.4182 Y-0.3439
G2 X-0.4188 Y-0.3444 I-0.0076 J0.0082
G2 X-0.432 Y-0.349 I-0.0132 J0.0165
G1 X-0.9617
G2 X-0.9619 I0.0 J0.0112
G2 X-1.0089 Y-0.3429 I-0.0073 J0.1273
G2 X-1.0534 Y-0.3246 I0.0322 J0.1417
G2 X-1.0909 Y-0.2958 I0.071 J0.1316
G2 X-1.0915 Y-0.2952 I0.0081 J0.0077
G2 X-1.0928 Y-0.2934 I0.01 J0.0086
G2 X-1.0942 Y-0.2909 I0.011 J0.0076
G1 X-1.0945 Y-0.2902
G1 X-1.0948 Y-0.2895
G2 X-1.0952 Y-0.2884 I0.0103 J0.0045
G2 X-1.0957 Y-0.2866 I0.0131 J0.0045
G2 X-1.096 Y-0.2848 I0.0132 J0.0034
G2 X-1.0962 Y-0.2815 I0.0151 J0.0025
G1 Y-0.0188
G0 Z0.125
G0 X-0.9574
G0 Z0.012
G1 F5.0 Z-0.004
G1 F10.0 Y-0.017
G2 X-0.9555 Y-0.0125 I0.0064 J0.0
G1 X-0.9403 Y0.0027
G2 X-0.9394 Y0.0035 I0.0045 J-0.0045
G1 Y0.1409
G2 X-0.9403 Y0.1417 I0.0036 J0.0053
G1 X-0.9555 Y0.1569
G2 X-0.9574 Y0.1614 I0.0045 J0.0045
G1 Y0.183
G2 X-0.9555 Y0.1875 I0.0064 J0.0
G1 X-0.9403 Y0.2027
G2 X-0.9358 Y0.2046 I0.0045 J-0.0045
G1 X-0.9142
G2 X-0.9097 Y0.2027 I0.0 J-0.0064
G1 X-0.8945 Y0.1875
G2 X-0.8926 Y0.183 I-0.0045 J-0.0045
G1 Y0.1614
G2 X-0.8945 Y0.1569 I-0.0064 J0.0
G1 X-0.9097 Y0.1417
G2 X-0.9106 Y0.1409 I-0.0045 J0.0045
G1 Y0.0035
G2 X-0.9097 Y0.0027 I-0.0036 J-0.0053
G1 X-0.8945 Y-0.0125
G2 X-0.8926 Y-0.017 I-0.0045 J-0.0045
G1 Y-0.0386
G2 X-0.8945 Y-0.0431 I-0.0064 J0.0
G1 X-0.9097 Y-0.0583
G2 X-0.9142 Y-0.0602 I-0.0045 J0.0045
G1 X-0.9358
G2 X-0.9403 Y-0.0583 I0.0 J0.0064
G1 X-0.9555 Y-0.0431
G2 X-0.9574 Y-0.0386 I0.0045 J0.0045
G1 Y-0.0188
G1 F5.0 X-0.955
G1 F10.0 Y-0.017
G2 X-0.9538 Y-0.0142 I0.004 J0.0
G1 X-0.9386 Y0.001
G2 X-0.937 Y0.002 I0.0028 J-0.0028
G1 Y0.1424
G2 X-0.9386 Y0.1434 I0.0012 J0.0038
G1 X-0.9538 Y0.1586
G2 X-0.955 Y0.1614 I0.0028 J0.0028
G1 Y0.183
G2 X-0.9538 Y0.1858 I0.004 J0.0
G1 X-0.9386 Y0.201
G2 X-0.9358 Y0.2022 I0.0028 J-0.0028
G1 X-0.9142
G2 X-0.9114 Y0.201 I0.0 J-0.004
G1 X-0.8962 Y0.1858
G2 X-0.895 Y0.183 I-0.0028 J-0.0028
G1 Y0.1614
G2 X-0.8962 Y0.1586 I-0.004 J0.0
G1 X-0.9114 Y0.1434
G2 X-0.913 Y0.1424 I-0.0028 J0.0028
G1 Y0.002
G2 X-0.9114 Y0.001 I-0.0012 J-0.0038
G1 X-0.8962 Y-0.0142
G2 X-0.895 Y-0.017 I-0.0028 J-0.0028
G1 Y-0.0386
G2 X-0.8962 Y-0.0414 I-0.004 J0.0
G1 X-0.9114 Y-0.0566
G2 X-0.9142 Y-0.0578 I-0.0028 J0.0028
G1 X-0.9358
G2 X-0.9386 Y-0.0566 I0.0 J0.004
G1 X-0.9538 Y-0.0414
G2 X-0.955 Y-0.0386 I0.0028 J0.0028
G1 Y-0.0188
G0 Z0.125
G0 X-0.8574
G0 Z0.012
G1 F5.0 Z-0.004
G1 F10.0 Y-0.017
G2 X-0.8555 Y-0.0125 I0.0064 J0.0
G1 X-0.8403 Y0.0027
G2 X-0.8358 Y0.0046 I0.0045 J-0.0045
G1 X-0.8142
G2 X-0.8097 Y0.0027 I0.0 J-0.0064
G1 X-0.7945 Y-0.0125
G2 X-0.7926 Y-0.017 I-0.0045 J-0.0045
G1 Y-0.0386
G2 X-0.7945 Y-0.0431 I-0.0064 J0.0
G1 X-0.8097 Y-0.0583
G2 X-0.8142 Y-0.0602 I-0.0045 J0.0045
G1 X-0.8358
G2 X-0.8403 Y-0.0583 I0.0 J0.0064
G1 X-0.8555 Y-0.0431
G2 X-0.8574 Y-0.0386 I0.0045 J0.0045
G1 Y-0.0188
G1 F5.0 X-0.855
G1 F10.0 Y-0.017
G2 X-0.8538 Y-0.0142 I0.004 J0.0
G1 X-0.8386 Y0.001
G2 X-0.8358 Y0.0022 I0.0028 J-0.0028
G1 X-0.8142
G2 X-0.8114 Y0.001 I0.0 J-0.004
G1 X-0.7962 Y-0.0142
G2 X-0.795 Y-0.017 I-0.0028 J-0.0028
G1 Y-0.0386
G2 X-0.7962 Y-0.0414 I-0.004 J0.0
G1 X-0.8114 Y-0.0566
G2 X-0.8142 Y-0.0578 I-0.0028 J0.0028
G1 X-0.8358
G2 X-0.8386 Y-0.0566 I0.0 J0.004
G1 X-0.8538 Y-0.0414
G2 X-0.855 Y-0.0386 I0.0028 J0.0028
G1 Y-0.0188
G0 Z0.125
G0 X-0.6894
G0 Z0.012
G1 F5.0 Z-0.004
G1 F10.0 Y0.3032
G2 X-0.682 Y0.3158 I0.0144 J0.0
G1 X-0.4519 Y0.4426
G1 X-0.4303 Y0.4856
G1 Y0.5504
G2 X-0.4015 I0.0144 J0.0336
G1 Y0.4822
G2 X-0.4031 Y0.4758 I-0.0144 J0.0
G1 X-0.4281 Y0.4257
G2 X-0.434 Y0.4196 I-0.0129 J0.0064
G1 X-0.6606 Y0.2947
G1 Y-0.1971
G1 X-0.5987 Y-0.2634
G1 X-0.4206
G2 X-0.3756 Y-0.3053 I0.0286 J-0.0144
G1 Y-0.6189
G1 X-0.3545
G2 X-0.3481 Y-0.6253 I0.0 J-0.0064
G1 Y-0.9503
G2 X-0.3545 Y-0.9567 I-0.0064 J0.0
G1 X-0.4295
G2 X-0.4359 Y-0.9503 I0.0 J0.0064
G1 Y-0.6253
G2 X-0.4295 Y-0.6189 I0.0064 J0.0
G1 X-0.4084
G1 Y-0.3053
G2 X-0.4206 Y-0.2922 I0.0164 J0.0275
G1 X-0.605
G2 X-0.6155 Y-0.2876 I0.0 J0.0144
G1 X-0.6855 Y-0.2126
G2 X-0.6894 Y-0.2028 I0.0105 J0.0098
G1 Y-0.0188
G1 F5.0 X-0.687
G1 F10.0 Y0.3032
G2 X-0.6808 Y0.3137 I0.012 J0.0
G1 X-0.45 Y0.4409
G1 X-0.4279 Y0.4851
G1 Y0.5521
G2 X-0.4039 I0.012 J0.0319
G1 Y0.4822
G2 X-0.4052 Y0.4769 I-0.012 J0.0
G1 X-0.4303 Y0.4268
G2 X-0.4352 Y0.4217 I-0.0107 J0.0054
G1 X-0.663 Y0.2961
G1 Y-0.1981
G1 X-0.5998 Y-0.2658
G1 X-0.419
G2 X-0.378 Y-0.3039 I0.027 J-0.012
G1 Y-0.6213
G1 X-0.3545
G2 X-0.3505 Y-0.6253 I0.0 J-0.004
G1 Y-0.9503
G2 X-0.3545 Y-0.9543 I-0.004 J0.0
G1 X-0.4295
G2 X-0.4335 Y-0.9503 I0.0 J0.004
G1 Y-0.6253
G2 X-0.4295 Y-0.6213 I0.004 J0.0
G1 X-0.406
G1 Y-0.3039
G2 X-0.419 Y-0.2898 I0.014 J0.0261
G1 X-0.605
G2 X-0.6138 Y-0.286 I0.0 J0.012
G1 X-0.6838 Y-0.211
G2 X-0.687 Y-0.2028 I0.0088 J0.0082
G1 Y-0.0188
G0 Z0.125
G0 X-0.6044
G0 Z0.012
G1 F5.0 Z-0.004
G1 F10.0 Y0.2822
G2 X-0.5971 Y0.2947 I0.0144 J0.0
G2 X-0.597 I0.0032 J-0.0056
G3 X-0.331 Y0.4474 I-3.4755 J6.3662
G1 X-0.3143 Y0.4804
G1 X-0.3129 Y0.5507
G2 X-0.2841 Y0.5501 I0.0151 J0.0333
G1 X-0.2856 Y0.4765
G2 X-0.2871 Y0.4703 I-0.0144 J0.0003
G1 X-0.3071 Y0.4307
G2 X-0.3091 Y0.4284 I-0.0057 J0.0029
G2 X-0.3378 Y0.4097 I-0.2104 J0.2919
G1 X-0.3379
G1 X-0.5756 Y0.2738
G1 Y-0.1369
G1 X-0.514 Y-0.1984
G1 X-0.35
G2 X-0.3429 Y-0.2003 I0.0 J-0.0144
G1 X-0.2537 Y-0.2512
G2 X-0.2196 Y-0.3053 I0.0177 J-0.0267
G1 Y-0.6189
G1 X-0.1985
G2 X-0.1921 Y-0.6253 I0.0 J-0.0064
G1 Y-0.9503
G2 X-0.1985 Y-0.9567 I-0.0064 J0.0
G1 X-0.2735
G2 X-0.2799 Y-0.9503 I0.0 J0.0064
G1 Y-0.6253
G2 X-0.2735 Y-0.6189 I0.0064 J0.0
G1 X-0.2524
G1 Y-0.3053
G2 X-0.2679 Y-0.2762 I0.0164 J0.0275
G1 X-0.3538 Y-0.2272
G1 X-0.52
G2 X-0.5302 Y-0.223 I0.0 J0.0144
G1 X-0.6002 Y-0.153
G2 X-0.6044 Y-0.1428 I0.0102 J0.0102
G1 Y-0.0188
G1 F5.0 X-0.602
G1 F10.0 Y0.2822
G2 X-0.596 Y0.2926 I0.012 J0.0
G1 X-0.5959
G3 X-0.3292 Y0.4457 I-3.4766 J6.3683
G1 X-0.3119 Y0.4798
G1 X-0.3105 Y0.5523
G2 X-0.2865 Y0.5518 I0.0126 J0.0317
G1 X-0.288 Y0.4766
G2 X-0.2893 Y0.4714 I-0.012 J0.0002
G1 X-0.3093 Y0.4318
G2 X-0.3105 Y0.4303 I-0.0036 J0.0018
G2 X-0.339 Y0.4118 I-0.209 J0.2899
G1 X-0.578 Y0.2752
G1 Y-0.1378
G1 X-0.515 Y-0.2008
G1 X-0.35
G2 X-0.3441 Y-0.2024 I0.0 J-0.012
G1 X-0.2536 Y-0.254
G2 X-0.222 Y-0.3039 I0.0176 J-0.0238
G1 Y-0.6213
G1 X-0.1985
G2 X-0.1945 Y-0.6253 I0.0 J-0.004
G1 Y-0.9503
G2 X-0.1985 Y-0.9543 I-0.004 J0.0
G1 X-0.2735
G2 X-0.2775 Y-0.9503 I0.0 J0.004
G1 Y-0.6253
G2 X-0.2735 Y-0.6213 I0.004 J0.0
G1 X-0.25
G1 Y-0.3039
G2 X-0.2654 Y-0.2748 I0.014 J0.0261
G1 X-0.3532 Y-0.2248
G1 X-0.52
G2 X-0.5285 Y-0.2213 I0.0 J0.012
G1 X-0.5985 Y-0.1513
G2 X-0.602 Y-0.1428 I0.0085 J0.0085
G1 Y-0.0188
G0 Z0.125
G0 X-0.5054 Y0.0658
G0 Z0.012
G1 F5.0 Z-0.004
G2 F10.0 X-0.481 Y0.1196 I0.0244 J0.0213
G1 X-0.429
G2 Y0.0548 I0.0 J-0.0324
G1 X-0.4406
G1 Y-0.0549
G1 X-0.3958 Y-0.0834
G1 X-0.275
G2 X-0.2689 Y-0.0848 I0.0 J-0.0144
G1 X0.0739 Y-0.2459
G2 X0.0924 Y-0.3053 I0.0021 J-0.0319
G1 Y-0.6189
G1 X0.1135
G2 X0.1199 Y-0.6253 I0.0 J-0.0064
G1 Y-0.9503
G2 X0.1135 Y-0.9567 I-0.0064 J0.0
G1 X0.0385
G2 X0.0321 Y-0.9503 I0.0 J0.0064
G1 Y-0.6253
G2 X0.0385 Y-0.6189 I0.0064 J0.0
G1 X0.0596
G1 Y-0.3053
G2 X0.0467 Y-0.265 I0.0164 J0.0275
G1 X-0.2782 Y-0.1122
G1 X-0.4
G2 X-0.4077 Y-0.11 I0.0 J0.0144
G1 X-0.4627 Y-0.075
G2 X-0.4694 Y-0.0628 I0.0077 J0.0121
G1 Y0.0548
G1 X-0.481
G2 X-0.5054 Y0.0658 I0.0 J0.0324
G1 F5.0 X-0.5036 Y0.0674
G2 F10.0 X-0.481 Y0.1172 I0.0226 J0.0198
G1 X-0.429
G2 Y0.0572 I0.0 J-0.03
G1 X-0.443
G1 Y-0.0562
G1 X-0.3965 Y-0.0858
G1 X-0.275
G2 X-0.2699 Y-0.087 I0.0 J-0.012
G1 X0.0734 Y-0.2483
G2 X0.09 Y-0.3039 I0.0026 J-0.0295
G1 Y-0.6213
G1 X0.1135
G2 X0.1175 Y-0.6253 I0.0 J-0.004
G1 Y-0.9503
G2 X0.1135 Y-0.9543 I-0.004 J0.0
G1 X0.0385
G2 X0.0345 Y-0.9503 I0.0 J0.004
G1 Y-0.6253
G2 X0.0385 Y-0.6213 I0.004 J0.0
G1 X0.062
G1 Y-0.3039
G2 X0.0499 Y-0.2638 I0.014 J0.0261
G1 X-0.2777 Y-0.1098
G1 X-0.4
G2 X-0.4064 Y-0.1079 I0.0 J0.012
G1 X-0.4614 Y-0.0729
G2 X-0.467 Y-0.0628 I0.0064 J0.0101
G1 Y0.0572
G1 X-0.481
G2 X-0.5036 Y0.0674 I0.0 J0.03
G0 Z0.125
G0 X-0.487 Y0.1553
G0 Z0.012
G1 F5.0 Z-0.004
G2 F10.0 X-0.481 Y0.2196 I0.006 J0.0318
G1 X-0.429
G2 Y0.1548 I0.0 J-0.0324
G1 X-0.481
G2 X-0.487 Y0.1553 I0.0 J0.0324
G1 F5.0 X-0.4866 Y0.1577
G2 F10.0 X-0.481 Y0.2172 I0.0056 J0.0295
G1 X-0.429
G2 Y0.1572 I0.0 J-0.03
G1 X-0.481
G2 X-0.4866 Y0.1577 I0.0 J0.03
G0 Z0.125
G0 X-0.2507 Y0.1591
G0 Z0.012
G1 F5.0 Z-0.004
G2 F10.0 X-0.2487 Y0.6062 I21.3146 J0.1281
G1 X-0.2703 Y0.6276
G2 X-0.3864 Y0.6277 I-0.0241 J32.7195
G2 X-0.3993 Y0.6357 I0.0 J0.0144
G1 X-0.414 Y0.6656
G2 X-0.3882 Y0.6784 I-0.0019 J0.0365
G1 X-0.3774 Y0.6565
G3 X-0.2644 Y0.6564 I0.0846 J32.2306
G2 X-0.2543 Y0.6522 I0.0 J-0.0144
G1 X-0.2241 Y0.6224
G2 X-0.2198 Y0.612 I-0.0101 J-0.0102
G3 X-0.2207 Y0.1016 I18.6039 J-0.2858
G1 X-0.21
G2 X-0.181 Y0.1196 I0.029 J-0.0144
G1 X-0.129
G2 Y0.0548 I0.0 J-0.0324
G1 X-0.181
G2 X-0.21 Y0.0728 I0.0 J0.0324
G1 X-0.2206
G1 Y0.0237
G1 X-0.1896 Y-0.0034
G1 X0.3806
G1 Y0.0409
G2 X0.3797 Y0.0417 I0.0036 J0.0053
G1 X0.3645 Y0.0569
G2 X0.3626 Y0.0614 I0.0045 J0.0045
G1 Y0.083
G2 X0.3645 Y0.0875 I0.0064 J0.0
G1 X0.3797 Y0.1027
G2 X0.3842 Y0.1046 I0.0045 J-0.0045
G1 X0.4058
G2 X0.4103 Y0.1027 I0.0 J-0.0064
G1 X0.4255 Y0.0875
G2 X0.4274 Y0.083 I-0.0045 J-0.0045
G1 Y0.0614
G2 X0.4255 Y0.0569 I-0.0064 J0.0
G1 X0.4103 Y0.0417
G2 X0.4094 Y0.0409 I-0.0045 J0.0045
G1 Y-0.0034
G1 X0.4699
G1 X0.5106 Y0.0291
G1 Y0.5144
G1 X0.4856
G2 Y0.6059 I0.0 J0.0458
G1 X0.5644
G2 Y0.5144 I0.0 J-0.0458
G1 X0.5394
G1 Y0.3116
G1 X0.7037
G2 X0.7045 Y0.3125 I0.0053 J-0.0036
G1 X0.7197 Y0.3277
G2 X0.7242 Y0.3296 I0.0045 J-0.0045
G1 X0.7458
G2 X0.7503 Y0.3277 I0.0 J-0.0064
G1 X0.7655 Y0.3125
G2 X0.7674 Y0.308 I-0.0045 J-0.0045
G1 Y0.2864
G2 X0.7655 Y0.2819 I-0.0064 J0.0
G1 X0.7503 Y0.2667
G2 X0.7458 Y0.2648 I-0.0045 J0.0045
G1 X0.7242
G2 X0.7197 Y0.2667 I0.0 J0.0064
G1 X0.7045 Y0.2819
G2 X0.7037 Y0.2828 I0.0045 J0.0045
G1 X0.5394
G1 Y0.0222
G2 X0.534 Y0.0109 I-0.0144 J0.0
G1 X0.484 Y-0.0291
G2 X0.475 Y-0.0322 I-0.009 J0.0112
G1 X-0.195
G2 X-0.2045 Y-0.0287 I0.0 J0.0144
G1 X-0.2445 Y0.0063
G2 X-0.2494 Y0.0171 I0.0095 J0.0108
G2 X-0.2507 Y0.1591 I21.3133 J0.2701
G1 F5.0 X-0.2483
G2 F10.0 X-0.2463 Y0.6072 I21.3122 J0.1281
G1 X-0.2694 Y0.63
G2 X-0.3864 Y0.6301 I-0.0251 J32.7171
G2 X-0.3971 Y0.6368 I0.0 J0.012
G1 X-0.4126 Y0.6682
G2 X-0.3911 Y0.6788 I-0.0034 J0.034
G1 X-0.3789 Y0.6541
G3 X-0.2644 Y0.654 I0.0861 J32.233
G2 X-0.256 Y0.6505 I0.0 J-0.012
G1 X-0.2258 Y0.6207
G2 X-0.2222 Y0.612 I-0.0084 J-0.0085
G3 X-0.223 Y0.0992 I18.6063 J-0.2859
G1 X-0.2085
G2 X-0.181 Y0.1172 I0.0275 J-0.012
G1 X-0.129
G2 Y0.0572 I0.0 J-0.03
G1 X-0.181
G2 X-0.2085 Y0.0752 I0.0 J0.03
G1 X-0.223
G1 Y0.0226
G1 X-0.1905 Y-0.0058
G1 X0.383
G1 Y0.0424
G2 X0.3814 Y0.0434 I0.0012 J0.0038
G1 X0.3662 Y0.0586
G2 X0.365 Y0.0614 I0.0028 J0.0028
G1 Y0.083
G2 X0.3662 Y0.0858 I0.004 J0.0
G1 X0.3814 Y0.101
G2 X0.3842 Y0.1022 I0.0028 J-0.0028
G1 X0.4058
G2 X0.4086 Y0.101 I0.0 J-0.004
G1 X0.4238 Y0.0858
G2 X0.425 Y0.083 I-0.0028 J-0.0028
G1 Y0.0614
G2 X0.4238 Y0.0586 I-0.004 J0.0
G1 X0.4086 Y0.0434
G2 X0.407 Y0.0424 I-0.0028 J0.0028
G1 Y-0.0058
G1 X0.4708
G1 X0.513 Y0.0279
G1 Y0.5168
G1 X0.4856
G2 Y0.6035 I0.0 J0.0434
G1 X0.5644
G2 Y0.5168 I0.0 J-0.0434
G1 X0.537
G1 Y0.3092
G1 X0.7052
G2 X0.7062 Y0.3108 I0.0038 J-0.0012
G1 X0.7214 Y0.326
G2 X0.7242 Y0.3272 I0.0028 J-0.0028
G1 X0.7458
G2 X0.7486 Y0.326 I0.0 J-0.004
G1 X0.7638 Y0.3108
G2 X0.765 Y0.308 I-0.0028 J-0.0028
G1 Y0.2864
G2 X0.7638 Y0.2836 I-0.004 J0.0
G1 X0.7486 Y0.2684
G2 X0.7458 Y0.2672 I-0.0028 J0.0028
G1 X0.7242
G2 X0.7214 Y0.2684 I0.0 J0.004
G1 X0.7062 Y0.2836
G2 X0.7052 Y0.2852 I0.0028 J0.0028
G1 X0.537
G1 Y0.0222
G2 X0.5325 Y0.0128 I-0.012 J0.0
G1 X0.4825 Y-0.0272
G2 X0.475 Y-0.0298 I-0.0075 J0.0094
G1 X-0.195
G2 X-0.2029 Y-0.0268 I0.0 J0.012
G1 X-0.2429 Y0.0082
G2 X-0.247 Y0.0172 I0.0079 J0.009
G2 X-0.2483 Y0.1591 I21.3109 J0.2701
G0 Z0.125
G0 X-0.2109 Y0.1747
G0 Z0.012
G1 F5.0 Z-0.004
G2 F10.0 X-0.181 Y0.2196 I0.0299 J0.0125
G1 X-0.1423
G2 X-0.135 Y0.2216 I0.0073 J-0.0124
G1 X-0.0363
G2 X-0.0355 Y0.2225 I0.0053 J-0.0036
G1 X-0.0203 Y0.2377
G2 X-0.0158 Y0.2396 I0.0045 J-0.0045
G1 X0.0058
G2 X0.0103 Y0.2377 I0.0 J-0.0064
G1 X0.0255 Y0.2225
G2 X0.0274 Y0.218 I-0.0045 J-0.0045
G1 Y0.1964
G2 X0.0255 Y0.1919 I-0.0064 J0.0
G1 X0.0103 Y0.1767
G2 X0.0094 Y0.1759 I-0.0045 J0.0045
G1 Y0.1035
G2 X0.0103 Y0.1027 I-0.0036 J-0.0053
G1 X0.0255 Y0.0875
G2 X0.0274 Y0.083 I-0.0045 J-0.0045
G1 Y0.0614
G2 X0.0255 Y0.0569 I-0.0064 J0.0
G1 X0.0103 Y0.0417
G2 X0.0058 Y0.0398 I-0.0045 J0.0045
G1 X-0.0158
G2 X-0.0203 Y0.0417 I0.0 J0.0064
G1 X-0.0355 Y0.0569
G2 X-0.0374 Y0.0614 I0.0045 J0.0045
G1 Y0.083
G2 X-0.0355 Y0.0875 I0.0064 J0.0
G1 X-0.0203 Y0.1027
G2 X-0.0194 Y0.1035 I0.0045 J-0.0045
G1 Y0.1759
G2 X-0.0203 Y0.1767 I0.0036 J0.0053
G1 X-0.0355 Y0.1919
G2 X-0.0363 Y0.1928 I0.0045 J0.0045
G1 X-0.0971
G2 X-0.129 Y0.1548 I-0.0319 J-0.0056
G1 X-0.181
G2 X-0.2109 Y0.1747 I0.0 J0.0324
G1 F5.0 X-0.2087 Y0.1756
G2 F10.0 X-0.181 Y0.2172 I0.0277 J0.0115
G1 X-0.1416
G2 X-0.135 Y0.2192 I0.0066 J-0.01
G1 X-0.0348
G2 X-0.0338 Y0.2208 I0.0038 J-0.0012
G1 X-0.0186 Y0.236
G2 X-0.0158 Y0.2372 I0.0028 J-0.0028
G1 X0.0058
G2 X0.0086 Y0.236 I0.0 J-0.004
G1 X0.0238 Y0.2208
G2 X0.025 Y0.218 I-0.0028 J-0.0028
G1 Y0.1964
G2 X0.0238 Y0.1936 I-0.004 J0.0
G1 X0.0086 Y0.1784
G2 X0.007 Y0.1774 I-0.0028 J0.0028
G1 Y0.102
G2 X0.0086 Y0.101 I-0.0012 J-0.0038
G1 X0.0238 Y0.0858
G2 X0.025 Y0.083 I-0.0028 J-0.0028
G1 Y0.0614
G2 X0.0238 Y0.0586 I-0.004 J0.0
G1 X0.0086 Y0.0434
G2 X0.0058 Y0.0422 I-0.0028 J0.0028
G1 X-0.0158
G2 X-0.0186 Y0.0434 I0.0 J0.004
G1 X-0.0338 Y0.0586
G2 X-0.035 Y0.0614 I0.0028 J0.0028
G1 Y0.083
G2 X-0.0338 Y0.0858 I0.004 J0.0
G1 X-0.0186 Y0.101
G2 X-0.017 Y0.102 I0.0028 J-0.0028
G1 Y0.1774
G2 X-0.0186 Y0.1784 I0.0012 J0.0038
G1 X-0.0338 Y0.1936
G2 X-0.0348 Y0.1952 I0.0028 J0.0028
G1 X-0.1001
G2 X-0.129 Y0.1572 I-0.0289 J-0.008
G1 X-0.181
G2 X-0.2087 Y0.1756 I0.0 J0.03
G0 Z0.125
G0 X-0.036 Y0.3124
G0 Z0.012
G1 F5.0 Z-0.004
G2 F10.0 X-0.0374 Y0.3164 I0.005 J0.004
G1 Y0.338
G2 X-0.0355 Y0.3425 I0.0064 J0.0
G1 X-0.0203 Y0.3577
G2 X-0.0158 Y0.3596 I0.0045 J-0.0045
G1 X0.0058
G2 X0.0103 Y0.3577 I0.0 J-0.0064
G1 X0.0255 Y0.3425
G2 X0.0274 Y0.338 I-0.0045 J-0.0045
G1 Y0.3164
G2 X0.0255 Y0.3119 I-0.0064 J0.0
G1 X0.0103 Y0.2967
G2 X0.0058 Y0.2948 I-0.0045 J0.0045
G1 X-0.0158
G2 X-0.0203 Y0.2967 I0.0 J0.0064
G1 X-0.0355 Y0.3119
G2 X-0.036 Y0.3124 I0.0045 J0.0045
G1 F5.0 X-0.0341 Y0.3139
G2 F10.0 X-0.035 Y0.3164 I0.0031 J0.0025
G1 Y0.338
G2 X-0.0338 Y0.3408 I0.004 J0.0
G1 X-0.0186 Y0.356
G2 X-0.0158 Y0.3572 I0.0028 J-0.0028
G1 X0.0058
G2 X0.0086 Y0.356 I0.0 J-0.004
G1 X0.0238 Y0.3408
G2 X0.025 Y0.338 I-0.0028 J-0.0028
G1 Y0.3164
G2 X0.0238 Y0.3136 I-0.004 J0.0
G1 X0.0086 Y0.2984
G2 X0.0058 Y0.2972 I-0.0028 J0.0028
G1 X-0.0158
G2 X-0.0186 Y0.2984 I0.0 J0.004
G1 X-0.0338 Y0.3136
G2 X-0.0341 Y0.3139 I0.0028 J0.0028
G0 Z0.125
G0 X0.1156
G0 Z0.012
G1 F5.0 Z-0.004
G1 F10.0 Y0.4709
G2 X0.1147 Y0.4717 I0.0036 J0.0053
G1 X0.0995 Y0.4869
G2 X0.0976 Y0.4914 I0.0045 J0.0045
G1 Y0.513
G2 X0.0995 Y0.5175 I0.0064 J0.0
G1 X0.1147 Y0.5327
G2 X0.1192 Y0.5346 I0.0045 J-0.0045
G1 X0.1408
G2 X0.1453 Y0.5327 I0.0 J-0.0064
G1 X0.1605 Y0.5175
G2 X0.1624 Y0.513 I-0.0045 J-0.0045
G1 Y0.4914
G2 X0.1605 Y0.4869 I-0.0064 J0.0
G1 X0.1453 Y0.4717
G2 X0.1444 Y0.4709 I-0.0045 J0.0045
G1 Y0.2738
G1 X0.2053 Y0.2216
G1 X0.3637
G2 X0.3645 Y0.2225 I0.0053 J-0.0036
G1 X0.3797 Y0.2377
G2 X0.3842 Y0.2396 I0.0045 J-0.0045
G1 X0.4058
G2 X0.4103 Y0.2377 I0.0 J-0.0064
G1 X0.4255 Y0.2225
G2 X0.4274 Y0.218 I-0.0045 J-0.0045
G1 Y0.1964
G2 X0.4255 Y0.1919 I-0.0064 J0.0
G1 X0.4103 Y0.1767
G2 X0.4058 Y0.1748 I-0.0045 J0.0045
G1 X0.3842
G2 X0.3797 Y0.1767 I0.0 J0.0064
G1 X0.3645 Y0.1919
G2 X0.3637 Y0.1928 I0.0045 J0.0045
G1 X0.2
G2 X0.1906 Y0.1962 I0.0 J0.0144
G1 X0.1206 Y0.2562
G2 X0.1156 Y0.2672 I0.0094 J0.0109
G1 Y0.3139
G1 F5.0 X0.118
G1 F10.0 Y0.4724
G2 X0.1164 Y0.4734 I0.0012 J0.0038
G1 X0.1012 Y0.4886
G2 X0.1 Y0.4914 I0.0028 J0.0028
G1 Y0.513
G2 X0.1012 Y0.5158 I0.004 J0.0
G1 X0.1164 Y0.531
G2 X0.1192 Y0.5322 I0.0028 J-0.0028
G1 X0.1408
G2 X0.1436 Y0.531 I0.0 J-0.004
G1 X0.1588 Y0.5158
G2 X0.16 Y0.513 I-0.0028 J-0.0028
G1 Y0.4914
G2 X0.1588 Y0.4886 I-0.004 J0.0
G1 X0.1436 Y0.4734
G2 X0.142 Y0.4724 I-0.0028 J0.0028
G1 Y0.2727
G1 X0.2044 Y0.2192
G1 X0.3652
G2 X0.3662 Y0.2208 I0.0038 J-0.0012
G1 X0.3814 Y0.236
G2 X0.3842 Y0.2372 I0.0028 J-0.0028
G1 X0.4058
G2 X0.4086 Y0.236 I0.0 J-0.004
G1 X0.4238 Y0.2208
G2 X0.425 Y0.218 I-0.0028 J-0.0028
G1 Y0.1964
G2 X0.4238 Y0.1936 I-0.004 J0.0
G1 X0.4086 Y0.1784
G2 X0.4058 Y0.1772 I-0.0028 J0.0028
G1 X0.3842
G2 X0.3814 Y0.1784 I0.0 J0.004
G1 X0.3662 Y0.1936
G2 X0.3652 Y0.1952 I0.0028 J0.0028
G1 X0.2
G2 X0.1922 Y0.1981 I0.0 J0.012
G1 X0.1222 Y0.2581
G2 X0.118 Y0.2672 I0.0078 J0.0091
G1 Y0.3139
G0 Z0.125
G0 X0.2472 Y0.3742
G0 Z0.012
G1 F5.0 Z-0.004
G1 F10.0 X0.237 Y0.3961
G2 X0.2356 Y0.4022 I0.013 J0.0061
G1 Y0.5551
G1 X0.1996 Y0.5831
G1 X0.1594 Y0.5858
G1 X0.1453 Y0.5717
G2 X0.1408 Y0.5698 I-0.0045 J0.0045
G1 X0.1192
G2 X0.1147 Y0.5717 I0.0 J0.0064
G1 X0.0995 Y0.5869
G2 X0.0976 Y0.5914 I0.0045 J0.0045
G1 Y0.613
G2 X0.0995 Y0.6175 I0.0064 J0.0
G1 X0.1147 Y0.6327
G2 X0.1192 Y0.6346 I0.0045 J-0.0045
G1 X0.1408
G2 X0.1453 Y0.6327 I0.0 J-0.0064
G1 X0.1605 Y0.6175
G2 X0.1622 Y0.6145 I-0.0045 J-0.0045
G1 X0.206 Y0.6115
G2 X0.2138 Y0.6085 I-0.001 J-0.0144
G1 X0.2588 Y0.5735
G2 X0.2644 Y0.5622 I-0.0088 J-0.0114
G1 Y0.4054
G1 X0.2942 Y0.3416
G1 X0.3637
G2 X0.3645 Y0.3425 I0.0053 J-0.0036
G1 X0.3797 Y0.3577
G2 X0.3842 Y0.3596 I0.0045 J-0.0045
G1 X0.4058
G2 X0.4103 Y0.3577 I0.0 J-0.0064
G1 X0.4255 Y0.3425
G2 X0.4274 Y0.338 I-0.0045 J-0.0045
G1 Y0.3164
G2 X0.4255 Y0.3119 I-0.0064 J0.0
G1 X0.4103 Y0.2967
G2 X0.4058 Y0.2948 I-0.0045 J0.0045
G1 X0.3842
G2 X0.3797 Y0.2967 I0.0 J0.0064
G1 X0.3645 Y0.3119
G2 X0.3637 Y0.3128 I0.0045 J0.0045
G1 X0.285
G2 X0.272 Y0.3211 I0.0 J0.0144
G1 X0.2472 Y0.3742
G1 F5.0 X0.2493 Y0.3752
G1 F10.0 X0.2391 Y0.3971
G2 X0.238 Y0.4022 I0.0109 J0.0051
G1 Y0.5563
G1 X0.2005 Y0.5855
G1 X0.1585 Y0.5883
G1 X0.1436 Y0.5734
G2 X0.1408 Y0.5722 I-0.0028 J0.0028
G1 X0.1192
G2 X0.1164 Y0.5734 I0.0 J0.004
G1 X0.1012 Y0.5886
G2 X0.1 Y0.5914 I0.0028 J0.0028
G1 Y0.613
G2 X0.1012 Y0.6158 I0.004 J0.0
G1 X0.1164 Y0.631
G2 X0.1192 Y0.6322 I0.0028 J-0.0028
G1 X0.1408
G2 X0.1436 Y0.631 I0.0 J-0.004
G1 X0.1588 Y0.6158
G2 X0.16 Y0.613 I-0.0028 J-0.0028
G1 Y0.6122
G1 X0.2058 Y0.6092
G2 X0.2124 Y0.6067 I-0.0008 J-0.012
G1 X0.2574 Y0.5717
G2 X0.262 Y0.5622 I-0.0074 J-0.0095
G1 Y0.4048
G1 X0.2926 Y0.3392
G1 X0.3652
G2 X0.3662 Y0.3408 I0.0038 J-0.0012
G1 X0.3814 Y0.356
G2 X0.3842 Y0.3572 I0.0028 J-0.0028
G1 X0.4058
G2 X0.4086 Y0.356 I0.0 J-0.004
G1 X0.4238 Y0.3408
G2 X0.425 Y0.338 I-0.0028 J-0.0028
G1 Y0.3164
G2 X0.4238 Y0.3136 I-0.004 J0.0
G1 X0.4086 Y0.2984
G2 X0.4058 Y0.2972 I-0.0028 J0.0028
G1 X0.3842
G2 X0.3814 Y0.2984 I0.0 J0.004
G1 X0.3662 Y0.3136
G2 X0.3652 Y0.3152 I0.0028 J0.0028
G1 X0.285
G2 X0.2741 Y0.3221 I0.0 J0.012
G1 X0.2493 Y0.3752
G0 Z0.125
G0 X0.703 Y0.2101
G0 Z0.012
G1 F5.0 Z-0.004
G2 F10.0 X0.7045 Y0.2125 I0.006 J-0.0022
G1 X0.7197 Y0.2277
G2 X0.7242 Y0.2296 I0.0045 J-0.0045
G1 X0.7458
G2 X0.7503 Y0.2277 I0.0 J-0.0064
G1 X0.7655 Y0.2125
G2 X0.7674 Y0.208 I-0.0045 J-0.0045
G1 Y0.1864
G2 X0.7655 Y0.1819 I-0.0064 J0.0
G1 X0.7503 Y0.1667
G2 X0.7458 Y0.1648 I-0.0045 J0.0045
G1 X0.7242
G2 X0.7197 Y0.1667 I0.0 J0.0064
G1 X0.7045 Y0.1819
G2 X0.7026 Y0.1864 I0.0045 J0.0045
G1 Y0.208
G2 X0.703 Y0.2101 I0.0064 J0.0
G1 F5.0 X0.7052 Y0.2093
G2 F10.0 X0.7062 Y0.2108 I0.0038 J-0.0014
G1 X0.7214 Y0.226
G2 X0.7242 Y0.2272 I0.0028 J-0.0028
G1 X0.7458
G2 X0.7486 Y0.226 I0.0 J-0.004
G1 X0.7638 Y0.2108
G2 X0.765 Y0.208 I-0.0028 J-0.0028
G1 Y0.1864
G2 X0.7638 Y0.1836 I-0.004 J0.0
G1 X0.7486 Y0.1684
G2 X0.7458 Y0.1672 I-0.0028 J0.0028
G1 X0.7242
G2 X0.7214 Y0.1684 I0.0 J0.004
G1 X0.7062 Y0.1836
G2 X0.705 Y0.1864 I0.0028 J0.0028
G1 Y0.208
G2 X0.7052 Y0.2093 I0.004 J0.0
G0 Z0.125
G0 X0.7297 Y0.0721
G0 Z0.012
G1 F5.0 Z-0.004
G2 F10.0 X0.7502 Y0.0159 I0.0053 J-0.0299
G2 X0.7046 Y0.0422 I-0.0152 J0.0263
G2 X0.7297 Y0.0721 I0.0304 J0.0
G1 F5.0 X0.7301 Y0.0697
G2 F10.0 X0.749 Y0.0179 I0.0049 J-0.0276
G2 X0.707 Y0.0422 I-0.014 J0.0242
G2 X0.7301 Y0.0697 I0.028 J0.0
G0 Z0.125
G0 X0.2582 Y-0.2595
G0 Z0.012
G1 F5.0 Z-0.004
G2 F10.0 X0.2484 Y-0.3053 I-0.0262 J-0.0183
G1 Y-0.6189
G1 X0.2695
G2 X0.2759 Y-0.6253 I0.0 J-0.0064
G1 Y-0.9503
G2 X0.2695 Y-0.9567 I-0.0064 J0.0
G1 X0.1945
G2 X0.1881 Y-0.9503 I0.0 J0.0064
G1 Y-0.6253
G2 X0.1945 Y-0.6189 I0.0064 J0.0
G1 X0.2156
G1 Y-0.3053
G2 X0.2582 Y-0.2595 I0.0164 J0.0275
G1 F5.0 X0.2563 Y-0.2609
G2 F10.0 X0.246 Y-0.3039 I-0.0243 J-0.0169
G1 Y-0.6213
G1 X0.2695
G2 X0.2735 Y-0.6253 I0.0 J-0.004
G1 Y-0.9503
G2 X0.2695 Y-0.9543 I-0.004 J0.0
G1 X0.1945
G2 X0.1905 Y-0.9503 I0.0 J0.004
G1 Y-0.6253
G2 X0.1945 Y-0.6213 I0.004 J0.0
G1 X0.218
G1 Y-0.3039
G2 X0.2563 Y-0.2609 I0.014 J0.0261
G0 Z0.125
G0 X-0.048 Y-0.2762
G0 Z0.012
G1 F5.0 Z-0.004
G2 F10.0 X-0.0636 Y-0.3053 I-0.032 J-0.0016
G1 Y-0.6189
G1 X-0.0425
G2 X-0.0361 Y-0.6253 I0.0 J-0.0064
G1 Y-0.9503
G2 X-0.0425 Y-0.9567 I-0.0064 J0.0
G1 X-0.1175
G2 X-0.1239 Y-0.9503 I0.0 J0.0064
G1 Y-0.6253
G2 X-0.1175 Y-0.6189 I0.0064 J0.0
G1 X-0.0964
G1 Y-0.3053
G2 X-0.048 Y-0.2762 I0.0164 J0.0275
G1 F5.0 X-0.0504 Y-0.2763
G2 F10.0 X-0.066 Y-0.3039 I-0.0296 J-0.0015
G1 Y-0.6213
G1 X-0.0425
G2 X-0.0385 Y-0.6253 I0.0 J-0.004
G1 Y-0.9503
G2 X-0.0425 Y-0.9543 I-0.004 J0.0
G1 X-0.1175
G2 X-0.1215 Y-0.9503 I0.0 J0.004
G1 Y-0.6253
G2 X-0.1175 Y-0.6213 I0.004 J0.0
G1 X-0.094
G1 Y-0.3039
G2 X-0.0504 Y-0.2763 I0.014 J0.0261
G0 Z0.125
G0 X-0.4641 Y0.4735
G0 Z0.012
G1 F5.0 Z-0.004
G2 F10.0 X-0.4888 Y0.5079 I-0.0103 J0.0186
G1 X-0.4884 Y0.6545
G1 X-0.5141 Y0.6716
G2 X-0.4981 Y0.6956 I-0.02 J0.0306
G1 X-0.466 Y0.6742
G2 X-0.4595 Y0.6622 I-0.008 J-0.012
G1 X-0.46 Y0.5078
G2 X-0.4641 Y0.4735 I-0.0144 J-0.0156
G1 F5.0 X-0.4653 Y0.4756
G2 F10.0 X-0.4864 Y0.5068 I-0.0091 J0.0165
G1 X-0.486 Y0.6558
G1 X-0.5141 Y0.6744
G2 X-0.5008 Y0.6944 I-0.02 J0.0277
G1 X-0.4673 Y0.6722
G2 X-0.4619 Y0.6622 I-0.0066 J-0.01
G1 X-0.4624 Y0.5067
G2 X-0.4653 Y0.4756 I-0.012 J-0.0146
G0 Z0.125
G0 X-0.5145 Y0.5532
G0 Z0.012
G1 F5.0 Z-0.004
G2 F10.0 X-0.5158 Y0.5524 I-0.0196 J0.0308
G2 X-0.5706 Y0.584 I-0.0183 J0.0316
G2 X-0.5145 Y0.5532 I0.0365 J0.0
G1 F5.0 X-0.5158 Y0.5552
G2 F10.0 X-0.517 Y0.5544 I-0.0183 J0.0288
G2 X-0.5682 Y0.584 I-0.0171 J0.0295
G2 X-0.5158 Y0.5552 I0.0341 J0.0
G0 Z0.125
G0 X-0.629 Y0.6771
G0 Z0.012
G1 F5.0 Z-0.004
G2 F10.0 X-0.6791 Y0.6811 I-0.0232 J0.025
G1 X-0.7679 Y0.6533
G1 X-0.768 Y0.5068
G2 X-0.792 I-0.012 J-0.0146
G1 X-0.7919 Y0.6621
G2 X-0.7835 Y0.6736 I0.012 J0.0
G1 X-0.6862 Y0.704
G2 X-0.629 Y0.6771 I0.0341 J-0.0019
G0 Z0.125
G0 X-0.756 Y0.5177
G0 Z0.012
G1 F5.0 Z-0.004
G1 F10.0 X-0.7559 Y0.6342
G2 Y0.6344 I0.004 J0.0
G2 X-0.7463 Y0.6475 I0.0147 J-0.0007
G2 X-0.7461 I0.0014 J-0.0038
G3 X-0.69 Y0.6651 I-1.4139 J4.6228
G1 X-0.6899
G2 X-0.6874 Y0.6654 I0.0024 J-0.0083
G2 X-0.6866 Y0.6653 I0.0 J-0.004
G2 X-0.6608 Y0.6558 I-0.0207 J-0.0958
G3 X-0.6063 Y0.6922 I0.0088 J0.0458
G2 X-0.606 Y0.6931 I0.0039 J-0.0008
G2 X-0.5803 I0.0129 J-0.0061
G2 X-0.58 Y0.6922 I-0.0036 J-0.0017
G3 X-0.544 Y0.6562 I0.0452 J0.0092
G2 X-0.543 Y0.6559 I-0.0008 J-0.0039
G2 Y0.6302 I-0.0061 J-0.0129
G2 X-0.5439 Y0.6299 I-0.0017 J0.0036
G3 X-0.5261 Y0.5376 I0.0099 J-0.046
G2 X-0.5005 Y0.5354 I0.0119 J-0.0118
G2 X-0.5004 Y0.5352 I-0.0033 J-0.0023
G2 X-0.4995 Y0.5334 I-0.0078 J-0.005
G1 X-0.4992 Y0.5328
G2 X-0.4987 Y0.5311 I-0.006 J-0.0027
G1 Y0.5309
G2 X-0.4985 Y0.5302 I-0.0038 J-0.0011
G2 X-0.5056 Y0.4976 I-0.0524 J-0.0058
G3 X-0.4837 Y0.4625 I0.0288 J-0.0064
G2 X-0.4828 Y0.4622 I-0.0009 J-0.0039
G1 X-0.4813 Y0.4614
G2 X-0.4811 Y0.4613 I-0.0018 J-0.0036
G2 X-0.4789 Y0.4597 I-0.0039 J-0.0074
G2 X-0.4773 Y0.4578 I-0.0064 J-0.0074
G2 X-0.4771 Y0.4575 I-0.0032 J-0.0024
G1 X-0.4762 Y0.4561
G2 X-0.476 Y0.4559 I-0.0034 J-0.0021
G2 X-0.4758 Y0.4554 I-0.0035 J-0.002
G1 X-0.4752 Y0.4538
G2 X-0.4751 Y0.4536 I-0.0037 J-0.0015
G2 X-0.4745 Y0.4508 I-0.0076 J-0.003
G2 Y0.4506 I-0.004 J-0.0003
G1 Y0.449
G2 Y0.4486 I-0.004 J-0.0001
G2 Y0.4482 I-0.004 J0.0001
G1 X-0.4748 Y0.4465
G2 X-0.4749 Y0.4461 I-0.004 J0.0006
G2 X-0.475 Y0.4457 I-0.0039 J0.0009
G1 X-0.4755 Y0.4441
G2 X-0.4756 Y0.4438 I-0.0038 J0.0013
G2 X-0.4768 Y0.4417 I-0.0089 J0.0034
G2 X-0.4785 Y0.4396 I-0.0068 J0.0038
G2 X-0.4803 Y0.438 I-0.0074 J0.0068
G2 X-0.4805 Y0.4379 I-0.0023 J0.0032
G1 X-0.4815 Y0.4373
G2 X-0.4817 Y0.4371 I-0.0021 J0.0034
G1 X-0.6847 Y0.3252
G3 X-0.699 Y0.3079 I0.0183 J-0.0298
G3 Y0.3013 I0.0534 J-0.003
G2 Y0.3011 I-0.004 J-0.0003
G1 Y-0.2022
G2 Y-0.2025 I-0.004 J0.0
G1 Y-0.2026
G3 X-0.6923 Y-0.2195 I0.0215 J-0.0012
G2 X-0.6268 Y-0.2896 I-0.3911 J-0.4304
G1 Y-0.2897
G1 X-0.6263 Y-0.2903
G3 X-0.6005 Y-0.302 I0.0249 J0.0207
G2 X-0.6003 I0.0006 J-0.004
G1 X-0.6002
G2 X-0.5982 Y-0.3018 I0.0018 J-0.0088
G1 X-0.4326
G2 X-0.4313 Y-0.302 I0.0 J-0.004
G2 X-0.418 Y-0.3285 I-0.007 J-0.0201
G2 X-0.4181 Y-0.3295 I-0.0066 J0.0003
G1 X-0.4182 Y-0.3301
G2 X-0.4186 Y-0.3319 I-0.0065 J0.0007
G1 X-0.4188 Y-0.3323
G2 X-0.419 Y-0.3329 I-0.0039 J0.001
G2 X-0.4196 Y-0.3342 I-0.0062 J0.0021
G1 X-0.4199 Y-0.3348
G2 X-0.4209 Y-0.3363 I-0.0056 J0.0027
G1 X-0.4212 Y-0.3367
G2 X-0.4215 Y-0.3371 I-0.0033 J0.0023
G2 X-0.4226 Y-0.3382 I-0.0049 J0.004
G1 X-0.4231 Y-0.3386
G2 X-0.4233 Y-0.3388 I-0.0027 J0.0029
G2 X-0.432 Y-0.3418 I-0.0087 J0.0109
G1 X-0.9617
G2 X-0.962 I0.0 J0.004
G2 X-1.007 Y-0.3359 I-0.0072 J0.1201
G2 X-1.0497 Y-0.3184 I0.0302 J0.1347
G2 X-1.0857 Y-0.2909 I0.0674 J0.1254
G2 X-1.086 Y-0.2906 I0.0029 J0.0028
G2 X-1.0867 Y-0.2895 I0.0045 J0.004
G2 X-1.0875 Y-0.2881 I0.0049 J0.0037
G1 X-1.0878 Y-0.2873
G1 X-1.0882 Y-0.2866
G2 X-1.0883 Y-0.2861 I0.0037 J0.0016
G2 X-1.0886 Y-0.285 I0.0063 J0.0022
G2 X-1.0889 Y-0.2838 I0.0062 J0.0018
G2 X-1.089 Y-0.2817 I0.0079 J0.0015
G1 Y0.8715
G2 X-1.0888 Y0.874 I0.009 J0.0005
G2 X-1.088 Y0.8766 I0.0084 J-0.001
G2 X-1.0879 Y0.8768 I0.0037 J-0.0015
G1 X-1.0872 Y0.8783
G2 X-1.0871 Y0.8786 I0.0036 J-0.0017
G2 X-1.0869 Y0.879 I0.0035 J-0.0019
G2 X-1.0266 Y0.9382 I0.1862 J-0.1291
G2 X-1.0245 Y0.9396 I0.0056 J-0.0065
G2 X-1.022 Y0.9406 I0.0042 J-0.0069
G2 X-1.0218 I0.001 J-0.0039
G1 X-1.0201 Y0.941
G2 X-1.0198 Y0.9411 I0.0009 J-0.0039
G2 X-1.0194 I0.0006 J-0.004
G1 X-1.0182 Y0.9412
G2 X-1.018 I0.0002 J-0.004
G1 X-0.6617
G1 X-0.6616
G2 X-0.6603 Y0.9411 I0.0003 J-0.0063
G2 X-0.6588 Y0.9408 I-0.0002 J-0.0065
G1 X-0.6579 Y0.9406
G1 X-0.6572 Y0.9404
G2 X-0.6567 Y0.9402 I-0.001 J-0.0039
G2 X-0.6556 Y0.9397 I-0.0023 J-0.0066
G2 X-0.6542 Y0.939 I-0.0026 J-0.0064
G1 X-0.6535 Y0.9385
G1 X-0.6528 Y0.938
G2 X-0.6525 Y0.9377 I-0.0023 J-0.0032
G2 X-0.6516 Y0.9369 I-0.004 J-0.005
G2 X-0.6505 Y0.9356 I-0.0042 J-0.0046
G1 X-0.6501 Y0.9349
G1 X-0.6496 Y0.9343
G2 X-0.6494 Y0.9338 I-0.0033 J-0.0022
G2 X-0.6483 Y0.9313 I-0.0082 J-0.0048
G1 X-0.6481 Y0.9304
G1 X-0.6479 Y0.9296
G2 X-0.6478 Y0.9292 I-0.0039 J-0.001
G2 X-0.6477 Y0.9279 I-0.0058 J-0.0012
G2 Y0.9263 I-0.0063 J-0.0007
G1 X-0.6478 Y0.9255
G1 X-0.6479 Y0.9247
G2 X-0.648 Y0.9242 I-0.004 J0.0005
G2 X-0.6484 Y0.923 I-0.0063 J0.0011
G2 X-0.6489 Y0.9216 I-0.0068 J0.0017
G2 X-0.649 Y0.9213 I-0.0036 J0.0018
G3 X-0.4922 Y0.8128 I0.0818 J-0.0494
G2 X-0.4701 Y0.8274 I0.0169 J-0.0015
G2 X-0.4698 Y0.8273 I-0.0012 J-0.0038
G2 X-0.4687 Y0.8268 I-0.0023 J-0.0062
G2 X-0.4673 Y0.826 I-0.0026 J-0.006
G1 X-0.4666 Y0.8255
G1 X-0.466 Y0.825
G2 X-0.4656 Y0.8247 I-0.0024 J-0.0032
G2 X-0.4647 Y0.8238 I-0.0042 J-0.005
G2 X-0.4637 Y0.8225 I-0.0045 J-0.0047
G3 X-0.2934 Y0.9077 I0.0816 J0.0498
G2 X-0.3004 Y0.9342 I0.0111 J0.0171
G2 X-0.3003 Y0.9345 I0.0036 J-0.0018
G2 X-0.2995 Y0.9355 I0.0058 J-0.0033
G2 X-0.2985 Y0.9368 I0.0054 J-0.0035
G1 X-0.2979 Y0.9373
G1 X-0.2973 Y0.9379
G2 X-0.297 Y0.9382 I0.0028 J-0.0029
G2 X-0.2959 Y0.9389 I0.0042 J-0.0048
G2 X-0.2945 Y0.9397 I0.0038 J-0.0052
G1 X-0.2938 Y0.94
G1 X-0.293 Y0.9403
G2 X-0.2926 Y0.9405 I0.0016 J-0.0037
G2 X-0.2901 Y0.9411 I0.0032 J-0.0082
G2 X-0.2882 Y0.9412 I0.0015 J-0.0082
G1 X1.0179
G2 X1.0205 Y0.941 I0.0005 J-0.009
G2 X1.023 Y0.9402 I-0.001 J-0.0084
G2 X1.0233 Y0.9401 I-0.0015 J-0.0037
G1 X1.0248 Y0.9394
G2 X1.025 Y0.9393 I-0.0017 J-0.0036
G2 X1.0252 Y0.9391 I-0.0019 J-0.0035
G2 X1.0861 Y0.8801 I-0.1073 J-0.1714
G2 X1.0874 Y0.8781 I-0.0065 J-0.0056
G2 X1.0884 Y0.8755 I-0.0069 J-0.0042
G2 X1.0885 Y0.8754 I-0.0039 J-0.001
G1 X1.0888 Y0.8737
G2 X1.0889 Y0.8733 I-0.0039 J-0.0009
G2 Y0.873 I-0.004 J-0.0006
G1 X1.089 Y0.8718
G2 Y0.8715 I-0.004 J-0.0002
G1 Y-0.2775
G2 X1.0888 Y-0.2795 I-0.0089 J-0.0002
G1 X1.0887 Y-0.2802
G2 X1.0883 Y-0.2818 I-0.0066 J0.0008
G1 X1.0882 Y-0.2821
G2 Y-0.2824 I-0.0039 J0.0011
G2 X1.0873 Y-0.2842 I-0.0087 J0.0029
G1 X1.087 Y-0.2848
G2 X1.0855 Y-0.2868 I-0.0076 J0.0039
G1 Y-0.2869
G1 X1.0854 Y-0.287
G2 X1.0853 Y-0.2871 I-0.003 J0.0027
G2 X1.0852 Y-0.2872 I-0.003 J0.0027
G1 X1.0843 Y-0.2881
G2 X1.084 Y-0.2884 I-0.0028 J0.0028
G2 X1.0257 Y-0.3273 I-0.2664 J0.3357
G2 X1.0251 Y-0.3276 I-0.0019 J0.0035
G2 X0.9542 Y-0.3418 I-0.0879 J0.2541
G2 X0.9539 I-0.0003 J0.004
G1 X0.389
G1 Y-0.6213
G1 X0.4255
G2 X0.4295 Y-0.6253 I0.0 J-0.004
G1 Y-0.9503
G2 X0.4255 Y-0.9543 I-0.004 J0.0
G1 X0.3505
G2 X0.3465 Y-0.9503 I0.0 J0.004
G1 Y-0.6253
G2 X0.3505 Y-0.6213 I0.004 J0.0
G1 X0.361
G1 Y-0.3422
G2 X0.2715 Y-0.3418 I-0.0425 J0.5476
G1 X0.2709 Y-0.3417
G2 X0.269 Y-0.3415 I0.0 J0.0065
G1 X0.2682 Y-0.3412
G1 X0.2675 Y-0.3411
G2 X0.2669 Y-0.3409 I0.001 J0.0039
G2 X0.2656 Y-0.3402 I0.0021 J0.0062
G1 X0.2651 Y-0.3399
G2 X0.2635 Y-0.3389 I0.0027 J0.0056
G1 X0.2632 Y-0.3386
G2 X0.2628 Y-0.3383 I0.0023 J0.0033
G2 X0.2608 Y-0.3362 I0.0053 J0.0068
G1 X0.2604 Y-0.3355
G1 X0.2599 Y-0.3349
G2 X0.2596 Y-0.3344 I0.0033 J0.0023
G2 X0.2591 Y-0.333 I0.0058 J0.0034
G1 X0.2588 Y-0.3325
G2 X0.2608 Y-0.3081 I0.0228 J0.0105
G2 X0.2611 Y-0.3076 I0.0033 J-0.0022
G1 X0.2612
G2 X0.2616 Y-0.3071 I0.0032 J-0.0023
G1 X0.2617 Y-0.3069
G3 X0.1965 Y-0.3011 I-0.0303 J0.0289
G2 X0.206 Y-0.3283 I-0.0252 J-0.024
G1 X0.2059 Y-0.329
G2 X0.2057 Y-0.3308 I-0.0066 J0.0
G1 X0.2054 Y-0.3316
G1 X0.2052 Y-0.3323
G2 X0.205 Y-0.3329 I-0.0039 J0.001
G2 X0.2044 Y-0.3342 I-0.0062 J0.0021
G1 X0.2041 Y-0.3348
G2 X0.2031 Y-0.3363 I-0.0056 J0.0027
G1 X0.2028 Y-0.3367
G2 X0.2025 Y-0.3371 I-0.0033 J0.0023
G2 X0.2014 Y-0.3382 I-0.0049 J0.004
G1 X0.2009 Y-0.3386
G2 X0.2007 Y-0.3388 I-0.0027 J0.0029
G2 X0.1922 Y-0.3418 I-0.0087 J0.0109
G2 X0.1155 I-0.0382 J0.4481
G1 X0.1149 Y-0.3417
G2 X0.113 Y-0.3415 I0.0 J0.0065
G1 X0.1122 Y-0.3412
G1 X0.1115 Y-0.3411
G2 X0.1109 Y-0.3409 I0.001 J0.0039
G2 X0.1096 Y-0.3402 I0.0021 J0.0062
G1 X0.1091 Y-0.3399
G2 X0.1075 Y-0.3389 I0.0027 J0.0056
G1 X0.1072 Y-0.3386
G2 X0.1068 Y-0.3383 I0.0023 J0.0033
G2 X0.1048 Y-0.3362 I0.0053 J0.0068
G1 X0.1044 Y-0.3355
G1 X0.1039 Y-0.3349
G2 X0.1036 Y-0.3344 I0.0033 J0.0023
G2 X0.1031 Y-0.333 I0.0058 J0.0034
G1 X0.1028 Y-0.3325
G2 X0.1048 Y-0.3081 I0.0228 J0.0105
G2 X0.1051 Y-0.3076 I0.0033 J-0.0022
G1 X0.1052
G2 X0.1056 Y-0.3071 I0.0032 J-0.0023
G1 X0.1058 Y-0.3069
G3 X0.085 Y-0.2363 I-0.0295 J0.0297
G2 X0.0732 Y-0.235 I-0.0036 J0.0211
G2 X0.073 Y-0.2349 I0.0015 J0.0037
G1 X-0.2588 Y-0.0789
G2 X-0.259 Y-0.0788 I0.0017 J0.0036
G2 X-0.2604 Y-0.078 I0.0026 J0.0059
G1 X-0.2608 Y-0.0777
G3 X-0.2813 Y-0.0738 I-0.0176 J-0.0361
G2 X-0.2816 I-0.0003 J0.004
G1 X-0.3889
G2 X-0.391 Y-0.0736 I-0.0003 J0.009
G1 X-0.3917 Y-0.0735
G2 X-0.3933 Y-0.0731 I0.0008 J0.0065
G1 X-0.3935 Y-0.073
G2 X-0.3937 I0.0011 J0.0039
G2 X-0.3957 Y-0.0721 I0.0035 J0.0102
G1 Y-0.072
G2 X-0.3961 Y-0.0719 I0.0017 J0.0036
G2 X-0.4262 Y-0.0525 I0.0557 J0.1199
G2 X-0.4283 Y-0.0502 I0.0047 J0.0064
G2 Y-0.0501 I0.0033 J0.0022
G1 X-0.4293 Y-0.0487
G2 X-0.4294 Y-0.0485 I0.0034 J0.0021
G2 X-0.4304 Y-0.0459 I0.0079 J0.0047
G2 X-0.4305 Y-0.0457 I0.0039 J0.0011
G1 X-0.4308 Y-0.044
G2 X-0.4309 Y-0.0437 I0.0039 J0.0008
G1 Y-0.0436
G2 Y-0.0433 I0.004 J0.0005
G1 X-0.431 Y-0.0422
G2 X-0.4308 Y0.0335 I0.5064 J0.0369
G2 Y0.0338 I0.004 J-0.0003
G2 X-0.4301 Y0.0364 I0.0082 J-0.0008
G2 X-0.4291 Y0.0386 I0.0082 J-0.0025
G2 X-0.4276 Y0.0407 I0.0081 J-0.0042
G2 X-0.4274 Y0.0409 I0.003 J-0.0026
G1 X-0.4262 Y0.0421
G2 X-0.4259 Y0.0423 I0.0028 J-0.0029
G2 X-0.4239 Y0.0433 I0.0026 J-0.003
G3 X-0.3929 Y0.1104 I-0.0061 J0.0435
G2 X-0.4136 Y0.1277 I0.123 J0.1686
G2 X-0.4143 Y0.1286 I0.0028 J0.0029
G2 X-0.4046 Y0.1519 I0.0137 J0.008
G3 X-0.4203 Y0.2292 I-0.0244 J0.0353
G1 X-0.4897
G3 X-0.5054 Y0.1519 I0.0087 J-0.042
G2 Y0.1224 I-0.0037 J-0.0147
G3 X-0.4884 Y0.0447 I0.025 J-0.0353
G2 X-0.488 Y0.0446 I-0.0007 J-0.0039
G2 X-0.4855 Y0.0434 I-0.0024 J-0.008
G2 X-0.4835 Y0.0418 I-0.0043 J-0.0076
G2 X-0.4832 Y0.0416 I-0.0027 J-0.0029
G1 X-0.4821 Y0.0403
G2 X-0.4819 Y0.04 I-0.003 J-0.0027
G2 X-0.4805 Y0.0379 I-0.007 J-0.0059
G2 X-0.4796 Y0.0356 I-0.0082 J-0.0047
G2 X-0.4791 Y0.0331 I-0.0095 J-0.0032
G2 Y0.0329 I-0.004 J-0.0005
G1 X-0.479 Y0.0318
G2 Y-0.0598 I-0.5883 J-0.0458
G3 X-0.472 Y-0.0805 I0.0382 J0.0015
G2 X-0.4156 Y-0.1164 I-2.5929 J-4.1297
G1 F5.0 X-0.4144 Y-0.1174
G3 F10.0 X-0.4062 Y-0.1213 I0.014 J0.019
G2 X-0.4057 Y-0.1215 I-0.001 J-0.0039
G3 X-0.3968 Y-0.1219 I0.0056 J0.0245
G2 X-0.3961 Y-0.1218 I0.0005 J-0.004
G2 X-0.3958 I0.0002 J-0.004
G1 X-0.2835
G2 X-0.2833 I0.0 J-0.004
G2 X-0.2777 Y-0.1231 I-0.0006 J-0.0159
G2 X-0.2775 Y-0.1232 I-0.0016 J-0.0037
G1 X-0.0897 Y-0.2115
G2 X-0.0894 Y-0.2116 I-0.0017 J-0.0036
G2 X-0.0879 Y-0.2125 I-0.0026 J-0.0059
G2 X-0.0899 Y-0.2369 I-0.0085 J-0.0116
G2 X-0.09 I-0.0019 J0.0035
G2 X-0.0908 Y-0.2372 I-0.0018 J0.0036
G3 X-0.1155 Y-0.3011 I0.0104 J-0.0407
G2 X-0.106 Y-0.3283 I-0.0252 J-0.024
G1 X-0.1061 Y-0.329
G2 X-0.1063 Y-0.3308 I-0.0066 J0.0
G1 X-0.1066 Y-0.3316
G1 X-0.1068 Y-0.3323
G2 X-0.107 Y-0.3329 I-0.0039 J0.001
G2 X-0.1076 Y-0.3342 I-0.0062 J0.0021
G1 X-0.1079 Y-0.3348
G2 X-0.1089 Y-0.3363 I-0.0056 J0.0027
G1 X-0.1092 Y-0.3367
G2 X-0.1095 Y-0.3371 I-0.0033 J0.0023
G2 X-0.1106 Y-0.3382 I-0.0049 J0.004
G1 X-0.1111 Y-0.3386
G2 X-0.1113 Y-0.3388 I-0.0027 J0.0029
G2 X-0.1198 Y-0.3418 I-0.0087 J0.0109
G2 X-0.1965 I-0.0382 J0.4481
G1 X-0.1971 Y-0.3417
G2 X-0.199 Y-0.3415 I0.0 J0.0065
G1 X-0.1998 Y-0.3412
G1 X-0.2005 Y-0.3411
G2 X-0.2011 Y-0.3409 I0.001 J0.0039
G2 X-0.2024 Y-0.3402 I0.0021 J0.0062
G1 X-0.2029 Y-0.3399
G2 X-0.2045 Y-0.3389 I0.0027 J0.0056
G1 X-0.2048 Y-0.3386
G2 X-0.2052 Y-0.3383 I0.0023 J0.0033
G2 X-0.2072 Y-0.3362 I0.0053 J0.0068
G1 X-0.2076 Y-0.3355
G1 X-0.2081 Y-0.3349
G2 X-0.2084 Y-0.3344 I0.0033 J0.0023
G2 X-0.2089 Y-0.333 I0.0058 J0.0034
G1 X-0.2092 Y-0.3325
G2 X-0.2072 Y-0.3081 I0.0228 J0.0105
G2 X-0.2069 Y-0.3076 I0.0033 J-0.0022
G1 X-0.2068
G2 X-0.2064 Y-0.3071 I0.0032 J-0.0023
G1 X-0.2062 Y-0.3069
G3 X-0.2435 Y-0.236 I-0.0298 J0.0296
G2 X-0.2594 Y-0.2368 I-0.0087 J0.0138
G2 X-0.3351 Y-0.1936 I0.3523 J0.7039
G2 X-0.3354 Y-0.1933 I0.0022 J0.0034
G3 X-0.3548 Y-0.1888 I-0.017 J-0.0294
G2 X-0.3551 I-0.0003 J0.004
G1 X-0.5043
G2 X-0.5044 I0.0 J0.004
G2 X-0.514 Y-0.1848 I0.0006 J0.0151
G1 X-0.5141
G2 X-0.5629 Y-0.1359 I0.6241 J0.6713
G2 X-0.5633 Y-0.1353 I0.0029 J0.0027
G2 X-0.5641 Y-0.134 I0.0052 J0.0041
G1 X-0.5644 Y-0.1335
G2 X-0.5651 Y-0.1319 I0.0056 J0.0034
G1 X-0.5653 Y-0.1316
G2 X-0.5654 Y-0.1309 I0.0037 J0.0015
G2 X-0.5658 Y-0.1294 I0.006 J0.002
G1 X-0.5659 Y-0.1287
G1 Y-0.1286
G1 Y-0.1285
G1 F5.0 X-0.566 Y-0.1271
G1 F10.0 Y0.2601
G2 Y0.2604 I0.004 J0.0
G2 X-0.5658 Y0.2619 I0.0067 J0.0001
G1 Y0.2626
G2 X-0.5653 Y0.2643 I0.0066 J-0.0007
G1 X-0.5652 Y0.2647
G2 X-0.565 Y0.2653 I0.0039 J-0.0011
G2 X-0.5643 Y0.2666 I0.0062 J-0.0022
G1 X-0.5641 Y0.2672
G2 X-0.5631 Y0.2686 I0.0058 J-0.0028
G1 X-0.5628 Y0.269
G2 X-0.5624 Y0.2695 I0.0033 J-0.0023
G2 X-0.5613 Y0.2705 I0.0052 J-0.0043
G1 X-0.5608 Y0.2709
G2 X-0.5588 Y0.2723 I0.0059 J-0.0064
G1 X-0.3395 Y0.3977
G2 X-0.3097 Y0.4152 I0.1224 J-0.1741
G3 X-0.2857 Y0.4518 I-0.0613 J0.0663
G2 X-0.2854 Y0.4525 I0.0038 J-0.0013
G2 X-0.259 Y0.4462 I0.0123 J-0.0071
G2 Y0.446 I-0.004 J-0.0002
G1 Y0.0234
G2 Y0.0232 I-0.004 J0.0
G2 X-0.2591 Y0.0217 I-0.0065 J-0.0002
G1 X-0.2592 Y0.0212
G3 X-0.2463 Y-0.0048 I0.032 J-0.0003
G2 X-0.2084 Y-0.0384 I-0.2377 J-0.307
G2 X-0.2076 Y-0.0388 I-0.0033 J-0.0062
G3 X-0.194 Y-0.0418 I0.0119 J0.0215
G2 X-0.1937 I0.0003 J-0.004
G1 X0.4729
G2 X0.4733 I0.0 J-0.004
G1 X0.4734 Y-0.0419
G3 X0.4914 Y-0.0354 I0.0016 J0.0239
G2 X0.5373 Y0.0011 I0.2818 J-0.3067
G2 X0.5377 Y0.0014 I0.0023 J-0.0033
G2 X0.5384 Y0.0017 I0.002 J-0.0034
G3 X0.5398 Y0.0029 I-0.0009 J0.0026
G1 F5.0 X0.5413 Y0.0044
G3 F10.0 X0.5494 Y0.0243 I-0.0274 J0.0229
G2 X0.549 Y0.0275 I0.016 J0.0036
G2 Y0.0276 I0.004 J0.0001
G1 Y0.2592
G2 Y0.2594 I0.004 J0.0
G2 X0.5491 Y0.2609 I0.0065 J0.0002
G1 X0.5492 Y0.2615
G2 X0.5496 Y0.2632 I0.0065 J-0.0007
G1 X0.5498 Y0.2637
G2 X0.55 Y0.2642 I0.0039 J-0.001
G2 X0.5506 Y0.2656 I0.0062 J-0.0021
G1 X0.5509 Y0.2661
G2 X0.5519 Y0.2677 I0.0056 J-0.0027
G1 X0.5522 Y0.268
G2 X0.5525 Y0.2684 I0.0033 J-0.0023
G2 X0.5536 Y0.2695 I0.0049 J-0.004
G1 X0.5541 Y0.2699
G2 X0.5555 Y0.271 I0.0045 J-0.0047
G1 X0.5559 Y0.2712
G2 X0.5564 Y0.2715 I0.0023 J-0.0033
G2 X0.5578 Y0.2721 I0.0034 J-0.0058
G1 X0.5584 Y0.2724
G2 X0.5586 Y0.2725 I0.0015 J-0.0037
G2 X0.563 Y0.2732 I0.0043 J-0.0129
G1 X0.6938
G2 X0.695 Y0.273 I0.0 J-0.004
G2 X0.7186 Y0.2529 I-0.0126 J-0.0386
G2 X0.7187 Y0.2527 I-0.0036 J-0.0018
G2 X0.7157 Y0.2373 I-0.0129 J-0.0055
G1 X0.693 Y0.2146
G1 Y0.1798
G1 X0.7176 Y0.1552
G1 X0.7524
G1 X0.776 Y0.1788
G2 X0.7819 Y0.2118 I0.0254 J0.0125
G2 X0.7823 Y0.2122 I0.0028 J-0.0029
G2 X0.7836 Y0.213 I0.0042 J-0.0049
G1 X0.7841 Y0.2133
G2 X0.7857 Y0.2141 I0.0037 J-0.0056
G1 X0.7862 Y0.2143
G2 X0.7869 Y0.2145 I0.0016 J-0.0037
G1 X0.787 Y0.2146
G2 X0.7871 I0.0009 J-0.0039
G2 X0.796 Y0.2154 I0.0084 J-0.041
G1 Y0.2188
G1 X0.7812 Y0.2336
G2 X0.78 Y0.2364 I0.0028 J0.0028
G1 Y0.258
G2 X0.7812 Y0.2608 I0.004 J0.0
G1 X0.796 Y0.2756
G1 Y0.2778
G2 X0.7778 Y0.2884 I-0.0021 J0.0172
G2 X0.7776 Y0.289 I0.0037 J0.0015
G1 Y0.2892
G2 Y0.2894 I0.0039 J0.0009
G2 X0.7768 Y0.3148 I0.0844 J0.0153
G1 X0.7524 Y0.3392
G1 X0.7189
G2 X0.694 Y0.3212 I-0.0263 J0.0101
G2 X0.6938 I-0.0002 J0.004
G1 X0.563
G2 X0.5628 I0.0 J0.004
G2 X0.5613 Y0.3213 I-0.0002 J0.0065
G1 X0.5607 Y0.3214
G2 X0.5589 Y0.3218 I0.0007 J0.0065
G1 X0.5585 Y0.3219
G2 X0.5579 Y0.3221 I0.001 J0.0039
G2 X0.5566 Y0.3228 I0.0021 J0.0062
G1 X0.5561 Y0.3231
G2 X0.5545 Y0.3241 I0.0027 J0.0056
G1 X0.5542 Y0.3244
G2 X0.5537 Y0.3247 I0.0023 J0.0033
G2 X0.5527 Y0.3258 I0.004 J0.0049
G1 X0.5523 Y0.3262
G2 X0.5512 Y0.3277 I0.0047 J0.0045
G1 X0.5509 Y0.3281
G2 X0.5506 Y0.3286 I0.0033 J0.0023
G2 X0.5501 Y0.33 I0.0058 J0.0034
G1 X0.5498 Y0.3306
G2 X0.5497 Y0.3308 I0.0037 J0.0015
G2 X0.549 Y0.3352 I0.0129 J0.0043
G1 Y0.4908
G2 Y0.491 I0.004 J0.0
G2 X0.5491 Y0.4925 I0.0065 J0.0002
G1 X0.5492 Y0.4931
G2 X0.5496 Y0.4948 I0.0065 J-0.0007
G1 X0.5498 Y0.4953
G2 X0.55 Y0.4958 I0.0039 J-0.001
G2 X0.5506 Y0.4972 I0.0062 J-0.0021
G1 X0.5509 Y0.4977
G2 X0.5519 Y0.4992 I0.0056 J-0.0027
G1 X0.5522 Y0.4996
G2 X0.5525 Y0.5 I0.0033 J-0.0023
G2 X0.5536 Y0.5011 I0.0049 J-0.004
G1 X0.5541 Y0.5015
G2 X0.5555 Y0.5026 I0.0045 J-0.0047
G1 X0.5559 Y0.5028
G2 X0.5564 Y0.5031 I0.0023 J-0.0033
G2 X0.5578 Y0.5037 I0.0034 J-0.0058
G1 X0.5584 Y0.504
G2 X0.5602 Y0.5042 I0.0015 J-0.0037
G3 X0.5758 Y0.6155 I0.0043 J0.0561
G1 X0.4742
G3 X0.4733 Y0.5049 I0.0114 J-0.0554
G2 X0.4977 Y0.4998 I0.0085 J-0.02
G2 X0.498 Y0.4994 I-0.0029 J-0.0027
G2 X0.4988 Y0.4982 I-0.0049 J-0.0042
G1 X0.4992 Y0.4977
G2 X0.4999 Y0.4961 I-0.0056 J-0.0037
G1 X0.5001 Y0.4956
G2 X0.5003 Y0.4949 I-0.0037 J-0.0016
G2 X0.501 Y0.4908 I-0.0129 J-0.0041
G1 Y0.0405
G2 X0.5008 Y0.0386 I-0.009 J-0.0002
G1 X0.5007 Y0.0379
G2 X0.5003 Y0.0362 I-0.0065 J0.0007
G1 X0.5002 Y0.0359
G2 Y0.0357 I-0.0039 J0.001
G2 X0.4993 Y0.0339 I-0.0086 J0.0029
G1 X0.499 Y0.0333
G2 X0.498 Y0.0318 I-0.0058 J0.003
G1 X0.4979
G2 X0.4957 Y0.0294 I-0.006 J0.0036
G2 X0.4686 Y0.0081 I-0.1397 J0.1489
G2 X0.4682 Y0.0078 I-0.0022 J0.0033
G2 X0.4671 Y0.0073 I-0.0032 J0.0055
G2 X0.4656 Y0.0068 I-0.0028 J0.0056
G1 X0.4648 Y0.0066
G1 X0.464 Y0.0064
G2 X0.4633 Y0.0063 I-0.0009 J0.0039
G2 X0.4305 Y0.0064 I-0.0158 J0.1439
G2 X0.4277 Y0.0073 I0.0011 J0.0087
G1 X0.4271 Y0.0075
G2 X0.4258 Y0.0082 I0.0023 J0.0061
G2 X0.4235 Y0.0099 I0.0042 J0.0078
G1 X0.4231 Y0.0104
G2 X0.422 Y0.0115 I0.004 J0.0048
G2 X0.4205 Y0.0139 I0.0067 J0.0058
G1 X0.4203 Y0.0144
G2 X0.4197 Y0.0159 I0.0056 J0.0031
G2 X0.4192 Y0.0179 I0.0083 J0.0032
G2 X0.4222 Y0.0398 I0.0224 J0.0081
G2 X0.4226 Y0.0404 I0.0033 J-0.0023
G1 X0.4227
G2 X0.437 Y0.0549 I0.1289 J-0.113
G1 Y0.0896
G1 X0.4124 Y0.1142
G1 X0.3776
G1 X0.353 Y0.0896
G1 Y0.0554
G2 X0.371 Y0.0197 I-0.0199 J-0.0324
G1 X0.3709 Y0.019
G2 X0.3707 Y0.0172 I-0.0065 J0.0
G1 X0.3704 Y0.0164
G1 X0.3702 Y0.0157
G2 X0.37 Y0.0151 I-0.0039 J0.001
G2 X0.3694 Y0.0138 I-0.0062 J0.0021
G1 X0.3691 Y0.0132
G2 X0.3681 Y0.0117 I-0.0056 J0.0027
G1 X0.3678 Y0.0113
G2 X0.3675 Y0.0109 I-0.0033 J0.0023
G2 X0.3664 Y0.0098 I-0.0049 J0.004
G1 X0.3659 Y0.0094
G2 X0.3645 Y0.0084 I-0.0045 J0.0047
G1 X0.3641 Y0.0081
G2 X0.3636 Y0.0078 I-0.0023 J0.0033
G2 X0.3622 Y0.0072 I-0.0034 J0.0058
G1 X0.3616 Y0.007
G2 X0.3614 Y0.0069 I-0.0015 J0.0037
G2 X0.357 Y0.0062 I-0.0043 J0.0129
G1 X0.0222
G2 X0.022 I0.0 J0.004
G2 X0.0122 Y0.0299 I0.0007 J0.0142
G2 X0.0123 Y0.0301 I0.003 J-0.0027
G1 X0.037 Y0.0548
G1 Y0.0883
G2 X0.019 Y0.1132 I0.0101 J0.0263
G2 X0.0191 Y0.1674 I0.6511 J0.0261
G2 X0.0192 Y0.1681 I0.004 J-0.0002
G2 X0.0195 Y0.1696 I0.0066 J-0.0007
G1 X0.0197 Y0.1702
G2 X0.0203 Y0.1718 I0.0063 J-0.0015
G1 X0.0205 Y0.1722
G2 X0.0208 Y0.1728 I0.0037 J-0.0015
G2 X0.0216 Y0.1741 I0.006 J-0.003
G1 X0.0221 Y0.1747
G1 X0.022
G1 X0.0221 Y0.1748
G2 X0.0226 Y0.1754 I0.0033 J-0.0023
G1 X0.0227
G2 X0.037 Y0.1899 I0.1289 J-0.113
G1 Y0.2246
G1 X0.0124 Y0.2492
G1 X-0.0211
G2 X-0.046 Y0.2312 I-0.0263 J0.0101
G2 X-0.0462 I-0.0002 J0.004
G1 X-0.1396
G2 X-0.1472 Y0.2292 I-0.0085 J0.0168
G2 X-0.1474 I-0.0002 J0.004
G1 X-0.189
G2 X-0.211 Y0.2409 I-0.0074 J0.0126
G2 Y0.2412 I0.004 J0.0002
G1 Y0.5569
G2 Y0.5572 I0.004 J0.0
G3 X-0.2103 Y0.6054 I-1.672 J0.048
G2 X-0.2102 Y0.606 I0.004 J0.0
G1 Y0.6064
G3 X-0.222 Y0.6339 I-0.0318 J0.0026
G2 X-0.2225 Y0.6343 I0.0025 J0.0031
G2 X-0.2511 Y0.6626 I2.107 J2.1607
G2 X-0.2629 Y0.6881 I0.013 J0.0215
G1 X-0.2637
G1 Y0.672
G2 X-0.2677 Y0.668 I-0.004 J0.0
G1 X-0.328
G2 X-0.332 Y0.672 I0.0 J0.004
G1 Y0.6835
G2 X-0.341 Y0.6679 I-0.0195 J0.0009
G2 X-0.3413 Y0.6677 I-0.0022 J0.0034
G2 X-0.3428 Y0.6671 I-0.0033 J0.0055
G1 X-0.3434 Y0.6668
G2 X-0.3669 Y0.6679 I-0.0105 J0.0272
G2 X-0.367 Y0.668 I0.0018 J0.0036
G2 X-0.3687 Y0.6691 I0.0045 J0.008
G1 X-0.3693 Y0.6696
G2 X-0.3701 Y0.6706 I0.0025 J0.0031
G2 X-0.3696 Y0.6938 I0.0177 J0.0112
G3 X-0.4618 Y0.712 I-0.0462 J0.0087
G2 X-0.4621 Y0.7111 I-0.0039 J0.0008
G2 X-0.4879 I-0.0129 J0.0061
G2 X-0.4882 Y0.712 I0.0036 J0.0017
G3 X-0.58 I-0.0459 J-0.0095
G2 X-0.5803 Y0.7111 I-0.0039 J0.0008
G2 X-0.606 I-0.0129 J0.0061
G2 X-0.6063 Y0.712 I0.0036 J0.0017
G3 X-0.6906 Y0.7293 I-0.046 J-0.0098
G2 X-0.7037 Y0.7111 I-0.0192 J0.0
G1 X-0.7038
G1 X-0.7815 Y0.6867
G2 X-0.7818 I-0.0012 J0.0038
G2 X-0.7819 Y0.6866 I-0.001 J0.0039
G1 X-0.7836 Y0.6863
G2 X-0.784 Y0.6862 I-0.0009 J0.0039
G2 X-0.7841 I-0.0005 J0.004
G3 X-0.8036 Y0.6682 I0.0019 J-0.0216
G3 X-0.804 Y0.5178 I3.0843 J-0.0827
G2 X-0.8048 Y0.5153 I-0.004 J-0.0001
G3 X-0.8063 Y0.4746 I0.0289 J-0.0214
G3 X-0.7543 Y0.5111 I0.026 J0.0182
G2 X-0.7545 Y0.5114 I0.0033 J0.0023
G1 Y0.5115
G2 X-0.7548 Y0.5121 I0.0035 J0.002
G1 X-0.7549 Y0.5122
G2 X-0.7555 Y0.5141 I0.0068 J0.0034
G1 X-0.7556 Y0.5148
G2 X-0.7559 Y0.5163 I0.007 J0.002
G0 Z0.125
G0 X-0.332 Y0.6853
G0 Z0.012
G1 F5.0 Z-0.004
G1 F10.0 Y0.6881
G1 X-0.3323
G2 X-0.332 Y0.6853 I-0.0192 J-0.0037
( Rub Out, 1/16" Stub )
G0 Z0.125
( T7 : 0.0625 )
( Tool Taper coming soon )
( TOOL/MILL,0.0625,0.0,0.0,0 )
T7 M6
M3 S1000
G0 X0.3088 Y-0.3973
G0 Z0.012
G1 F5.0 Z-0.004
G1 F10.0 X0.2982
G1 Y-0.577
G2 X0.3088 Y-0.5851 I-0.0287 J-0.0483
G1 Y-0.3973
G0 Z0.125
G0 X0.1658
G0 Z0.012
G1 F5.0 Z-0.004
G1 F10.0 X0.1422
G1 Y-0.577
G2 X0.154 Y-0.5864 I-0.0287 J-0.0483
G2 X0.1658 Y-0.577 I0.0405 J-0.039
G1 Y-0.3973
G0 Z0.125
G0 X0.0098
G0 Z0.012
G1 F5.0 Z-0.004
G1 F10.0 X-0.0138
G1 Y-0.577
G2 X-0.002 Y-0.5864 I-0.0287 J-0.0483
G2 X0.0098 Y-0.577 I0.0405 J-0.039
G1 Y-0.3973
G0 Z0.125
G0 X-0.1462
G0 Z0.012
G1 F5.0 Z-0.004
G1 F10.0 X-0.1698
G1 Y-0.577
G2 X-0.158 Y-0.5864 I-0.0287 J-0.0483
G2 X-0.1462 Y-0.577 I0.0405 J-0.039
G1 Y-0.3973
G0 Z0.125
G0 X-0.3022
G0 Z0.012
G1 F5.0 Z-0.004
G1 F10.0 X-0.3258
G1 Y-0.577
G2 X-0.314 Y-0.5864 I-0.0287 J-0.0483
G2 X-0.3022 Y-0.577 I0.0405 J-0.039
G1 Y-0.3973
G0 Z0.125
G0 X-0.4957 Y-0.4348
G0 Z0.012
G1 F5.0 Z-0.004
G1 F10.0 X-0.4993
G1 Y-0.5628
G2 X-0.4957 Y-0.559 I0.0698 J-0.0626
G1 Y-0.4348
G1 F5.0 X-0.4832
G1 F10.0 Y-0.4223
G1 X-0.5118
G1 Y-0.9398
G1 X-0.5107
G1 Y-0.6253
G2 X-0.4832 Y-0.5644 I0.0812 J0.0
G1 Y-0.4348
G1 F5.0 X-0.4582
G1 F10.0 Y-0.3973
G1 X-0.5368
G1 Y-0.9648
G1 X-0.4838
