; G-Code generated by Simplify3D(R) Version 4.0.0
; Oct 29, 2018 at 8:42:55 PM
; Settings Summary
;   processName,Process1
;   applyToModels,Bottom,Top
;   profileName,PLA No Raft (modified)
;   profileVersion,2018-02-19 17:39:32
;   baseProfile,MakerBot Replicator 5th Gen (modified)
;   printMaterial,PLA
;   printQuality,Medium
;   printExtruders,
;   extruderName,Primary Extruder
;   extruderToolheadNumber,0
;   extruderDiameter,0.4
;   extruderAutoWidth,0
;   extruderWidth,0.4
;   extrusionMultiplier,1
;   extruderUseRetract,1
;   extruderRetractionDistance,1
;   extruderExtraRestartDistance,0.05
;   extruderRetractionZLift,0
;   extruderRetractionSpeed,1200
;   extruderUseCoasting,0
;   extruderCoastingDistance,0.2
;   extruderUseWipe,0
;   extruderWipeDistance,5
;   primaryExtruder,0
;   layerHeight,0.2
;   topSolidLayers,3
;   bottomSolidLayers,3
;   perimeterOutlines,3
;   printPerimetersInsideOut,1
;   startPointOption,2
;   startPointOriginX,0
;   startPointOriginY,0
;   sequentialIslands,0
;   spiralVaseMode,0
;   firstLayerHeightPercentage,150
;   firstLayerWidthPercentage,120
;   firstLayerUnderspeed,0.2
;   useRaft,0
;   raftExtruder,0
;   raftTopLayers,2
;   raftBaseLayers,2
;   raftOffset,3
;   raftSeparationDistance,0.2
;   raftTopInfill,100
;   aboveRaftSpeedMultiplier,0.3
;   useSkirt,1
;   skirtExtruder,0
;   skirtLayers,1
;   skirtOutlines,7
;   skirtOffset,0.4
;   usePrimePillar,0
;   primePillarExtruder,999
;   primePillarWidth,12
;   primePillarLocation,7
;   primePillarSpeedMultiplier,1
;   useOozeShield,0
;   oozeShieldExtruder,999
;   oozeShieldOffset,2
;   oozeShieldOutlines,1
;   oozeShieldSidewallShape,1
;   oozeShieldSidewallAngle,30
;   oozeShieldSpeedMultiplier,1
;   infillExtruder,0
;   internalInfillPattern,Rectilinear
;   externalInfillPattern,Rectilinear
;   infillPercentage,30
;   outlineOverlapPercentage,20
;   infillExtrusionWidthPercentage,100
;   minInfillLength,5
;   infillLayerInterval,1
;   internalInfillAngles,45,-45
;   overlapInternalInfillAngles,0
;   externalInfillAngles,45,-45
;   generateSupport,1
;   supportExtruder,0
;   supportInfillPercentage,20
;   supportExtraInflation,0
;   supportBaseLayers,0
;   denseSupportExtruder,0
;   denseSupportLayers,0
;   denseSupportInfillPercentage,70
;   supportLayerInterval,1
;   supportHorizontalPartOffset,0.3
;   supportUpperSeparationLayers,1
;   supportLowerSeparationLayers,1
;   supportType,0
;   supportGridSpacing,1
;   maxOverhangAngle,5
;   supportAngles,0
;   temperatureName,Primary Extruder
;   temperatureNumber,0
;   temperatureSetpointCount,1
;   temperatureSetpointLayers,1
;   temperatureSetpointTemperatures,235
;   temperatureStabilizeAtStartup,0
;   temperatureHeatedBed,0
;   temperatureRelayBetweenLayers,0
;   temperatureRelayBetweenLoops,0
;   fanLayers,1,2
;   fanSpeeds,0,50
;   blipFanToFullPower,0
;   adjustSpeedForCooling,1
;   minSpeedLayerTime,15
;   minCoolingSpeedSlowdown,20
;   increaseFanForCooling,0
;   minFanLayerTime,45
;   maxCoolingFanSpeed,100
;   increaseFanForBridging,0
;   bridgingFanSpeed,100
;   use5D,1
;   relativeEdistances,1
;   allowEaxisZeroing,0
;   independentExtruderAxes,1
;   includeM10123,0
;   stickySupport,1
;   applyToolheadOffsets,0
;   gcodeXoffset,0
;   gcodeYoffset,0
;   gcodeZoffset,-0.1
;   overrideMachineDefinition,1
;   machineTypeOverride,0
;   strokeXoverride,252
;   strokeYoverride,199
;   strokeZoverride,150
;   originOffsetXoverride,126
;   originOffsetYoverride,99.5
;   originOffsetZoverride,0
;   homeXdirOverride,1
;   homeYdirOverride,1
;   homeZdirOverride,-1
;   flipXoverride,1
;   flipYoverride,-1
;   flipZoverride,1
;   toolheadOffsets,0,0|0,0|0,0|0,0|0,0|0,0
;   overrideFirmwareConfiguration,1
;   firmwareTypeOverride,RepRap (Marlin/Repetier/Sprinter)
;   GPXconfigOverride,r2
;   baudRateOverride,115200
;   overridePrinterModels,1
;   printerModelsOverride
;   startingGcode,M104 S[extruder0_temperature] T0,M126 S[fan_speed_pwm],G1 X-127 Y-101 Z10 F1200 ; rise
;   layerChangeGcode,
;   retractionGcode,
;   toolChangeGcode,
;   endingGcode,M127 ; stop blower fan
;   exportFileFormat,makerbot
;   celebration,0
;   celebrationSong,Random Song
;   postProcessing,
;   defaultSpeed,4800
;   outlineUnderspeed,0.5
;   solidInfillUnderspeed,0.8
;   supportUnderspeed,0.8
;   rapidXYspeed,9000
;   rapidZspeed,1200
;   minBridgingArea,50
;   bridgingExtraInflation,0
;   bridgingExtrusionMultiplier,1
;   bridgingSpeedMultiplier,0.8
;   useFixedBridgingAngle,0
;   fixedBridgingAngle,0
;   applyBridgingToPerimeters,0
;   filamentDiameters,1.75|1.75|1.75|1.75|1.75|1.75
;   filamentPricesPerKg,46|46|46|46|46|46
;   filamentDensities,1.25|1.25|1.25|1.25|1.25|1.25
;   useMinPrintHeight,0
;   minPrintHeight,0
;   useMaxPrintHeight,0
;   maxPrintHeight,0
;   useDiaphragm,0
;   diaphragmLayerInterval,20
;   robustSlicing,1
;   mergeAllIntoSolid,0
;   onlyRetractWhenCrossingOutline,1
;   retractBetweenLayers,1
;   useRetractionMinTravel,0
;   retractionMinTravel,3
;   retractWhileWiping,0
;   onlyWipeOutlines,1
;   avoidCrossingOutline,0
;   maxMovementDetourFactor,3
;   toolChangeRetractionDistance,12
;   toolChangeExtraRestartDistance,-0.5
;   toolChangeRetractionSpeed,600
;   externalThinWallType,0
;   internalThinWallType,2
;   thinWallAllowedOverlapPercentage,10
;   singleExtrusionMinLength,1
;   singleExtrusionMinPrintingWidthPercentage,50
;   singleExtrusionMaxPrintingWidthPercentage,200
;   singleExtrusionEndpointExtension,0.2
;   horizontalSizeCompensation,0
G90
M83
M104 S235 T0
M126 S0
G1 X-127 Y-101 Z10 F1200 ; rise
G1 E-1.0000 F1200
G1 Z0.200 F1200
; process Process1
; layer 1, Z = 0.300
T0
; tool H0.300 W0.480
; skirt
G1 X0.000 Y30.482 F9000
G1 E1.0500 F360
G1 X-0.481 Y30.963 E0.0407 F960
G1 X-0.481 Y31.403 E0.0264
G1 X-0.877 Y32.358 E0.0619
G1 X-1.843 Y33.324 E0.0818
G1 X-2.798 Y33.720 E0.0619
G1 X-3.238 Y33.720 E0.0264
G1 X-3.843 Y34.324 E0.0512
G1 X-4.798 Y34.720 E0.0619
G1 X-41.604 Y34.720 E2.2035
G1 X-42.559 Y34.324 E0.0619
G1 X-43.164 Y33.720 E0.0512
G1 X-43.604 Y33.720 E0.0264
G1 X-44.559 Y33.324 E0.0619
G1 X-45.525 Y32.358 E0.0818
G1 X-45.921 Y31.403 E0.0619
G1 X-45.921 Y30.963 E0.0264
G1 X-46.525 Y30.358 E0.0512
G1 X-46.921 Y29.403 E0.0619
G1 X-46.921 Y-29.403 E3.5206
G1 X-46.525 Y-30.358 E0.0619
G1 X-45.921 Y-30.963 E0.0512
G1 X-45.921 Y-31.403 E0.0264
G1 X-45.525 Y-32.358 E0.0619
G1 X-44.559 Y-33.324 E0.0818
G1 X-43.604 Y-33.720 E0.0619
G1 X-43.164 Y-33.720 E0.0264
G1 X-42.559 Y-34.324 E0.0512
G1 X-41.604 Y-34.720 E0.0619
G1 X-4.798 Y-34.720 E2.2035
G1 X-3.843 Y-34.324 E0.0619
G1 X-3.238 Y-33.720 E0.0512
G1 X-2.798 Y-33.720 E0.0264
G1 X-1.843 Y-33.324 E0.0619
G1 X-0.877 Y-32.358 E0.0818
G1 X-0.481 Y-31.403 E0.0619
G1 X-0.481 Y-30.963 E0.0264
G1 X0.000 Y-30.482 E0.0407
G1 X0.481 Y-30.963 E0.0407
G1 X0.481 Y-31.403 E0.0264
G1 X0.877 Y-32.358 E0.0619
G1 X1.843 Y-33.324 E0.0818
G1 X2.798 Y-33.720 E0.0619
G1 X3.238 Y-33.720 E0.0264
G1 X3.843 Y-34.324 E0.0512
G1 X4.798 Y-34.720 E0.0619
G1 X41.604 Y-34.720 E2.2035
G1 X42.559 Y-34.324 E0.0619
G1 X43.164 Y-33.720 E0.0512
G1 X43.604 Y-33.720 E0.0264
G1 X44.559 Y-33.324 E0.0619
G1 X45.525 Y-32.358 E0.0818
G1 X45.921 Y-31.403 E0.0619
G1 X45.921 Y-30.963 E0.0264
G1 X46.525 Y-30.358 E0.0512
G1 X46.921 Y-29.403 E0.0619
G1 X46.921 Y29.403 E3.5206
G1 X46.525 Y30.358 E0.0619
G1 X45.921 Y30.963 E0.0512
G1 X45.921 Y31.403 E0.0264
G1 X45.525 Y32.358 E0.0619
G1 X44.559 Y33.324 E0.0818
G1 X43.604 Y33.720 E0.0619
G1 X43.164 Y33.720 E0.0264
G1 X42.559 Y34.324 E0.0512
G1 X41.604 Y34.720 E0.0619
G1 X4.798 Y34.720 E2.2035
G1 X3.843 Y34.324 E0.0619
G1 X3.238 Y33.720 E0.0512
G1 X2.798 Y33.720 E0.0264
G1 X1.843 Y33.324 E0.0619
G1 X0.877 Y32.358 E0.0818
G1 X0.481 Y31.403 E0.0619
G1 X0.481 Y30.963 E0.0264
G1 X0.000 Y30.482 E0.0407
G1 X-0.216 Y30.132 F9000
G1 X-0.881 Y30.797 E0.0563 F960
G1 X-0.881 Y31.323 E0.0315
G1 X-1.216 Y32.132 E0.0524
G1 X-2.069 Y32.985 E0.0722
G1 X-2.878 Y33.320 E0.0524
G1 X-3.404 Y33.320 E0.0315
G1 X-4.069 Y33.985 E0.0563
G1 X-4.878 Y34.320 E0.0524
G1 X-41.524 Y34.320 E2.1940
G1 X-42.333 Y33.985 E0.0524
G1 X-42.998 Y33.320 E0.0563
G1 X-43.524 Y33.320 E0.0315
G1 X-44.333 Y32.985 E0.0524
G1 X-45.186 Y32.132 E0.0722
G1 X-45.521 Y31.323 E0.0524
G1 X-45.521 Y30.797 E0.0315
G1 X-46.186 Y30.132 E0.0563
G1 X-46.521 Y29.323 E0.0524
G1 X-46.521 Y-29.323 E3.5111
G1 X-46.186 Y-30.132 E0.0524
G1 X-45.521 Y-30.797 E0.0563
G1 X-45.521 Y-31.323 E0.0315
G1 X-45.186 Y-32.132 E0.0524
G1 X-44.333 Y-32.985 E0.0722
G1 X-43.524 Y-33.320 E0.0524
G1 X-42.998 Y-33.320 E0.0315
G1 X-42.333 Y-33.985 E0.0563
G1 X-41.524 Y-34.320 E0.0524
G1 X-4.878 Y-34.320 E2.1940
G1 X-4.069 Y-33.985 E0.0524
G1 X-3.404 Y-33.320 E0.0563
G1 X-2.878 Y-33.320 E0.0315
G1 X-2.069 Y-32.985 E0.0524
G1 X-1.216 Y-32.132 E0.0722
G1 X-0.881 Y-31.323 E0.0524
G1 X-0.881 Y-30.797 E0.0315
G1 X-0.216 Y-30.132 E0.0563
G1 X0.000 Y-29.611 E0.0338
G1 X0.216 Y-30.132 E0.0338
G1 X0.881 Y-30.797 E0.0563
G1 X0.881 Y-31.323 E0.0315
G1 X1.216 Y-32.132 E0.0524
G1 X2.069 Y-32.985 E0.0722
G1 X2.878 Y-33.320 E0.0524
G1 X3.404 Y-33.320 E0.0315
G1 X4.069 Y-33.985 E0.0563
G1 X4.878 Y-34.320 E0.0524
G1 X41.524 Y-34.320 E2.1940
G1 X42.333 Y-33.985 E0.0524
G1 X42.998 Y-33.320 E0.0563
G1 X43.524 Y-33.320 E0.0315
G1 X44.333 Y-32.985 E0.0524
G1 X45.186 Y-32.132 E0.0722
G1 X45.521 Y-31.323 E0.0524
G1 X45.521 Y-30.797 E0.0315
G1 X46.186 Y-30.132 E0.0563
G1 X46.521 Y-29.323 E0.0524
G1 X46.521 Y29.323 E3.5111
G1 X46.186 Y30.132 E0.0524
G1 X45.521 Y30.797 E0.0563
G1 X45.521 Y31.323 E0.0315
G1 X45.186 Y32.132 E0.0524
G1 X44.333 Y32.985 E0.0722
G1 X43.524 Y33.320 E0.0524
G1 X42.998 Y33.320 E0.0315
G1 X42.333 Y33.985 E0.0563
G1 X41.524 Y34.320 E0.0524
G1 X4.878 Y34.320 E2.1940
G1 X4.069 Y33.985 E0.0524
G1 X3.404 Y33.320 E0.0563
G1 X2.878 Y33.320 E0.0315
G1 X2.069 Y32.985 E0.0524
G1 X1.216 Y32.132 E0.0722
G1 X0.881 Y31.323 E0.0524
G1 X0.881 Y30.797 E0.0315
G1 X0.216 Y30.132 E0.0563
G1 X0.000 Y29.611 E0.0338
G1 X-0.216 Y30.132 E0.0338
G1 X-0.555 Y29.905 F9000
G1 X-1.281 Y30.631 E0.0615 F960
G1 X-1.281 Y31.244 E0.0367
G1 X-1.555 Y31.905 E0.0429
G1 X-2.296 Y32.646 E0.0627
G1 X-2.957 Y32.920 E0.0429
G1 X-3.570 Y32.920 E0.0367
G1 X-4.296 Y33.646 E0.0615
G1 X-4.957 Y33.920 E0.0429
G1 X-41.445 Y33.920 E2.1844
G1 X-42.106 Y33.646 E0.0429
G1 X-42.832 Y32.920 E0.0615
G1 X-43.445 Y32.920 E0.0367
G1 X-44.106 Y32.646 E0.0429
G1 X-44.847 Y31.905 E0.0627
G1 X-45.121 Y31.244 E0.0429
G1 X-45.121 Y30.631 E0.0367
G1 X-45.847 Y29.905 E0.0615
G1 X-46.121 Y29.244 E0.0429
G1 X-46.121 Y-29.244 E3.5015
G1 X-45.847 Y-29.905 E0.0429
G1 X-45.121 Y-30.631 E0.0615
G1 X-45.121 Y-31.244 E0.0367
G1 X-44.847 Y-31.905 E0.0429
G1 X-44.106 Y-32.646 E0.0627
G1 X-43.445 Y-32.920 E0.0429
G1 X-42.832 Y-32.920 E0.0367
G1 X-42.106 Y-33.646 E0.0615
G1 X-41.445 Y-33.920 E0.0429
G1 X-4.957 Y-33.920 E2.1844
G1 X-4.296 Y-33.646 E0.0429
G1 X-3.570 Y-32.920 E0.0615
G1 X-2.957 Y-32.920 E0.0367
G1 X-2.296 Y-32.646 E0.0429
G1 X-1.555 Y-31.905 E0.0627
G1 X-1.281 Y-31.244 E0.0429
G1 X-1.281 Y-30.631 E0.0367
G1 X-0.555 Y-29.905 E0.0615
G1 X-0.281 Y-29.244 E0.0429
G1 X-0.281 Y29.244 E3.5015
G1 X-0.555 Y29.905 E0.0429
G1 X0.281 Y29.244 F9000
G1 X0.281 Y-29.244 E3.5015 F960
G1 X0.555 Y-29.905 E0.0429
G1 X1.281 Y-30.631 E0.0615
G1 X1.281 Y-31.244 E0.0367
G1 X1.555 Y-31.905 E0.0429
G1 X2.296 Y-32.646 E0.0627
G1 X2.957 Y-32.920 E0.0429
G1 X3.570 Y-32.920 E0.0367
G1 X4.296 Y-33.646 E0.0615
G1 X4.957 Y-33.920 E0.0429
G1 X41.445 Y-33.920 E2.1844
G1 X42.106 Y-33.646 E0.0429
G1 X42.832 Y-32.920 E0.0615
G1 X43.445 Y-32.920 E0.0367
G1 X44.106 Y-32.646 E0.0429
G1 X44.847 Y-31.905 E0.0627
G1 X45.121 Y-31.244 E0.0429
G1 X45.121 Y-30.631 E0.0367
G1 X45.847 Y-29.905 E0.0615
G1 X46.121 Y-29.244 E0.0429
G1 X46.121 Y29.244 E3.5015
G1 X45.847 Y29.905 E0.0429
G1 X45.121 Y30.631 E0.0615
G1 X45.121 Y31.244 E0.0367
G1 X44.847 Y31.905 E0.0429
G1 X44.106 Y32.646 E0.0627
G1 X43.445 Y32.920 E0.0429
G1 X42.832 Y32.920 E0.0367
G1 X42.106 Y33.646 E0.0615
G1 X41.445 Y33.920 E0.0429
G1 X4.957 Y33.920 E2.1844
G1 X4.296 Y33.646 E0.0429
G1 X3.570 Y32.920 E0.0615
G1 X2.957 Y32.920 E0.0367
G1 X2.296 Y32.646 E0.0429
G1 X1.555 Y31.905 E0.0627
G1 X1.281 Y31.244 E0.0429
G1 X1.281 Y30.631 E0.0367
G1 X0.555 Y29.905 E0.0615
G1 X0.281 Y29.244 E0.0429
G1 X0.681 Y29.164 F9000
G1 X0.681 Y-29.164 E3.4920 F960
G1 X0.894 Y-29.679 E0.0333
G1 X1.522 Y-30.307 E0.0532
G1 X1.681 Y-30.373 E0.0103
G1 X1.681 Y-31.164 E0.0474
G1 X1.894 Y-31.679 E0.0333
G1 X2.522 Y-32.307 E0.0532
G1 X3.037 Y-32.520 E0.0333
G1 X3.828 Y-32.520 E0.0474
G1 X3.894 Y-32.679 E0.0103
G1 X4.522 Y-33.307 E0.0532
G1 X5.037 Y-33.520 E0.0333
G1 X41.365 Y-33.520 E2.1749
G1 X41.880 Y-33.307 E0.0333
G1 X42.508 Y-32.679 E0.0532
G1 X42.574 Y-32.520 E0.0103
G1 X43.365 Y-32.520 E0.0474
G1 X43.880 Y-32.307 E0.0333
G1 X44.508 Y-31.679 E0.0532
G1 X44.721 Y-31.164 E0.0333
G1 X44.721 Y-30.373 E0.0474
G1 X44.880 Y-30.307 E0.0103
G1 X45.508 Y-29.679 E0.0532
G1 X45.721 Y-29.164 E0.0333
G1 X45.721 Y29.164 E3.4920
G1 X45.508 Y29.679 E0.0333
G1 X44.880 Y30.307 E0.0532
G1 X44.721 Y30.373 E0.0103
G1 X44.721 Y31.164 E0.0474
G1 X44.508 Y31.679 E0.0333
G1 X43.880 Y32.307 E0.0532
G1 X43.365 Y32.520 E0.0333
G1 X42.574 Y32.520 E0.0474
G1 X42.508 Y32.679 E0.0103
G1 X41.880 Y33.307 E0.0532
G1 X41.365 Y33.520 E0.0333
G1 X5.037 Y33.520 E2.1749
G1 X4.522 Y33.307 E0.0333
G1 X3.894 Y32.679 E0.0532
G1 X3.828 Y32.520 E0.0103
G1 X3.037 Y32.520 E0.0474
G1 X2.522 Y32.307 E0.0333
G1 X1.894 Y31.679 E0.0532
G1 X1.681 Y31.164 E0.0333
G1 X1.681 Y30.373 E0.0474
G1 X1.522 Y30.307 E0.0103
G1 X0.894 Y29.679 E0.0532
G1 X0.681 Y29.164 E0.0333
G1 X-0.681 Y29.164 F9000
G1 X-0.894 Y29.679 E0.0333 F960
G1 X-1.522 Y30.307 E0.0532
G1 X-1.681 Y30.373 E0.0103
G1 X-1.681 Y31.164 E0.0474
G1 X-1.894 Y31.679 E0.0333
G1 X-2.522 Y32.307 E0.0532
G1 X-3.037 Y32.520 E0.0333
G1 X-3.828 Y32.520 E0.0474
G1 X-3.894 Y32.679 E0.0103
G1 X-4.522 Y33.307 E0.0532
G1 X-5.037 Y33.520 E0.0333
G1 X-41.365 Y33.520 E2.1749
G1 X-41.880 Y33.307 E0.0333
G1 X-42.508 Y32.679 E0.0532
G1 X-42.574 Y32.520 E0.0103
G1 X-43.365 Y32.520 E0.0474
G1 X-43.880 Y32.307 E0.0333
G1 X-44.508 Y31.679 E0.0532
G1 X-44.721 Y31.164 E0.0333
G1 X-44.721 Y30.373 E0.0474
G1 X-44.880 Y30.307 E0.0103
G1 X-45.508 Y29.679 E0.0532
G1 X-45.721 Y29.164 E0.0333
G1 X-45.721 Y-29.164 E3.4920
G1 X-45.508 Y-29.679 E0.0333
G1 X-44.880 Y-30.307 E0.0532
G1 X-44.721 Y-30.373 E0.0103
G1 X-44.721 Y-31.164 E0.0474
G1 X-44.508 Y-31.679 E0.0333
G1 X-43.880 Y-32.307 E0.0532
G1 X-43.365 Y-32.520 E0.0333
G1 X-42.574 Y-32.520 E0.0474
G1 X-42.508 Y-32.679 E0.0103
G1 X-41.880 Y-33.307 E0.0532
G1 X-41.365 Y-33.520 E0.0333
G1 X-5.037 Y-33.520 E2.1749
G1 X-4.522 Y-33.307 E0.0333
G1 X-3.894 Y-32.679 E0.0532
G1 X-3.828 Y-32.520 E0.0103
G1 X-3.037 Y-32.520 E0.0474
G1 X-2.522 Y-32.307 E0.0333
G1 X-1.894 Y-31.679 E0.0532
G1 X-1.681 Y-31.164 E0.0333
G1 X-1.681 Y-30.373 E0.0474
G1 X-1.522 Y-30.307 E0.0103
G1 X-0.894 Y-29.679 E0.0532
G1 X-0.681 Y-29.164 E0.0333
G1 X-0.681 Y29.164 E3.4920
G1 X-1.081 Y29.085 F9000
G1 X-1.233 Y29.452 E0.0238 F960
G1 X-1.749 Y29.968 E0.0437
G1 X-2.081 Y30.105 E0.0215
G1 X-2.081 Y31.085 E0.0586
G1 X-2.233 Y31.452 E0.0238
G1 X-2.749 Y31.968 E0.0437
G1 X-3.116 Y32.120 E0.0238
G1 X-4.096 Y32.120 E0.0586
G1 X-4.233 Y32.452 E0.0215
G1 X-4.749 Y32.968 E0.0437
G1 X-5.116 Y33.120 E0.0238
G1 X-41.286 Y33.120 E2.1654
G1 X-41.653 Y32.968 E0.0238
G1 X-42.169 Y32.452 E0.0437
G1 X-42.306 Y32.120 E0.0215
G1 X-43.286 Y32.120 E0.0586
G1 X-43.653 Y31.968 E0.0238
G1 X-44.169 Y31.452 E0.0437
G1 X-44.321 Y31.085 E0.0238
