; G-Code generated by Simplify3D(R) Version 4.0.0
; Oct 19, 2018 at 8:14:45 PM
; Settings Summary
;   processName,Process1
;   applyToModels,Bottom,Top
;   profileName,MakerBot Replicator 5th Gen (modified)
;   profileVersion,2018-01-06 18:59:00
;   baseProfile,
;   printMaterial,PLA
;   printQuality,Medium
;   printExtruders,
;   extruderName,Primary Extruder
;   extruderToolheadNumber,0
;   extruderDiameter,0.4
;   extruderAutoWidth,0
;   extruderWidth,0.4
;   extrusionMultiplier,0.95
;   extruderUseRetract,1
;   extruderRetractionDistance,1
;   extruderExtraRestartDistance,0.05
;   extruderRetractionZLift,0
;   extruderRetractionSpeed,1200
;   extruderUseCoasting,0
;   extruderCoastingDistance,0.2
;   extruderUseWipe,0
;   extruderWipeDistance,5
;   primaryExtruder,0
;   layerHeight,0.2
;   topSolidLayers,3
;   bottomSolidLayers,3
;   perimeterOutlines,4
;   printPerimetersInsideOut,1
;   startPointOption,2
;   startPointOriginX,0
;   startPointOriginY,0
;   sequentialIslands,0
;   spiralVaseMode,0
;   firstLayerHeightPercentage,90
;   firstLayerWidthPercentage,100
;   firstLayerUnderspeed,0.5
;   useRaft,1
;   raftExtruder,0
;   raftTopLayers,3
;   raftBaseLayers,1
;   raftOffset,3
;   raftSeparationDistance,0.2
;   raftTopInfill,100
;   aboveRaftSpeedMultiplier,0.3
;   useSkirt,0
;   skirtExtruder,0
;   skirtLayers,1
;   skirtOutlines,2
;   skirtOffset,4
;   usePrimePillar,0
;   primePillarExtruder,999
;   primePillarWidth,12
;   primePillarLocation,7
;   primePillarSpeedMultiplier,1
;   useOozeShield,0
;   oozeShieldExtruder,999
;   oozeShieldOffset,2
;   oozeShieldOutlines,1
;   oozeShieldSidewallShape,1
;   oozeShieldSidewallAngle,30
;   oozeShieldSpeedMultiplier,1
;   infillExtruder,0
;   internalInfillPattern,Rectilinear
;   externalInfillPattern,Rectilinear
;   infillPercentage,20
;   outlineOverlapPercentage,20
;   infillExtrusionWidthPercentage,100
;   minInfillLength,5
;   infillLayerInterval,1
;   internalInfillAngles,0
;   overlapInternalInfillAngles,0
;   externalInfillAngles,45,-45
;   generateSupport,0
;   supportExtruder,0
;   supportInfillPercentage,10
;   supportExtraInflation,0
;   supportBaseLayers,0
;   denseSupportExtruder,0
;   denseSupportLayers,0
;   denseSupportInfillPercentage,70
;   supportLayerInterval,1
;   supportHorizontalPartOffset,0.3
;   supportUpperSeparationLayers,1
;   supportLowerSeparationLayers,1
;   supportType,0
;   supportGridSpacing,4
;   maxOverhangAngle,45
;   supportAngles,0
;   temperatureName,Primary Extruder
;   temperatureNumber,0
;   temperatureSetpointCount,1
;   temperatureSetpointLayers,1
;   temperatureSetpointTemperatures,215
;   temperatureStabilizeAtStartup,0
;   temperatureHeatedBed,0
;   temperatureRelayBetweenLayers,0
;   temperatureRelayBetweenLoops,0
;   fanLayers,1,2
;   fanSpeeds,0,50
;   blipFanToFullPower,0
;   adjustSpeedForCooling,1
;   minSpeedLayerTime,15
;   minCoolingSpeedSlowdown,20
;   increaseFanForCooling,0
;   minFanLayerTime,45
;   maxCoolingFanSpeed,100
;   increaseFanForBridging,0
;   bridgingFanSpeed,100
;   use5D,1
;   relativeEdistances,1
;   allowEaxisZeroing,0
;   independentExtruderAxes,1
;   includeM10123,0
;   stickySupport,1
;   applyToolheadOffsets,0
;   gcodeXoffset,0
;   gcodeYoffset,0
;   gcodeZoffset,-0.1
;   overrideMachineDefinition,1
;   machineTypeOverride,0
;   strokeXoverride,252
;   strokeYoverride,199
;   strokeZoverride,150
;   originOffsetXoverride,126
;   originOffsetYoverride,99.5
;   originOffsetZoverride,0
;   homeXdirOverride,1
;   homeYdirOverride,1
;   homeZdirOverride,-1
;   flipXoverride,1
;   flipYoverride,-1
;   flipZoverride,1
;   toolheadOffsets,0,0|0,0|0,0|0,0|0,0|0,0
;   overrideFirmwareConfiguration,1
;   firmwareTypeOverride,RepRap (Marlin/Repetier/Sprinter)
;   GPXconfigOverride,r2
;   baudRateOverride,115200
;   overridePrinterModels,1
;   printerModelsOverride
;   startingGcode,M104 S[extruder0_temperature] T0,M126 S[fan_speed_pwm],G1 X-127 Y-101 Z10 F1200 ; rise
;   layerChangeGcode,
;   retractionGcode,
;   toolChangeGcode,
;   endingGcode,M127 ; stop blower fan
;   exportFileFormat,makerbot
;   celebration,0
;   celebrationSong,Random Song
;   postProcessing,
;   defaultSpeed,4800
;   outlineUnderspeed,0.5
;   solidInfillUnderspeed,0.8
;   supportUnderspeed,0.8
;   rapidXYspeed,9000
;   rapidZspeed,1200
;   minBridgingArea,50
;   bridgingExtraInflation,0
;   bridgingExtrusionMultiplier,1
;   bridgingSpeedMultiplier,0.8
;   useFixedBridgingAngle,0
;   fixedBridgingAngle,0
;   applyBridgingToPerimeters,0
;   filamentDiameters,1.75|1.75|1.75|1.75|1.75|1.75
;   filamentPricesPerKg,46|46|46|46|46|46
;   filamentDensities,1.25|1.25|1.25|1.25|1.25|1.25
;   useMinPrintHeight,0
;   minPrintHeight,0
;   useMaxPrintHeight,0
;   maxPrintHeight,0
;   useDiaphragm,0
;   diaphragmLayerInterval,20
;   robustSlicing,1
;   mergeAllIntoSolid,0
;   onlyRetractWhenCrossingOutline,1
;   retractBetweenLayers,1
;   useRetractionMinTravel,0
;   retractionMinTravel,3
;   retractWhileWiping,0
;   onlyWipeOutlines,1
;   avoidCrossingOutline,0
;   maxMovementDetourFactor,3
;   toolChangeRetractionDistance,12
;   toolChangeExtraRestartDistance,-0.5
;   toolChangeRetractionSpeed,600
;   externalThinWallType,0
;   internalThinWallType,2
;   thinWallAllowedOverlapPercentage,10
;   singleExtrusionMinLength,1
;   singleExtrusionMinPrintingWidthPercentage,50
;   singleExtrusionMaxPrintingWidthPercentage,200
;   singleExtrusionEndpointExtension,0.2
;   horizontalSizeCompensation,0
G90
M83
M104 S215 T0
M126 S0
G1 X-127 Y-101 Z10 F1200 ; rise
G1 E-1.0000 F1200
G1 Z0.350 F1200
; process Process1
; layer 1, Z = 0.450
T0
; tool H0.500 W0.800
; raft
G1 X-2.290 Y16.995 F9000
G1 E1.0500 F360
G1 X-2.290 Y17.001 E0.0010 F600
G1 X-2.329 Y25.732 E1.3794
G1 X-2.299 Y25.902 E0.0272
G1 X-2.291 Y26.313 E0.0650
G1 X-2.391 Y27.042 E0.1162
G1 X-2.422 Y27.193 E0.0244
G1 X-2.573 Y27.770 E0.0942
G1 X-2.625 Y27.928 E0.0263
G1 X-2.851 Y28.486 E0.0951
G1 X-2.924 Y28.636 E0.0264
G1 X-3.219 Y29.161 E0.0951
G1 X-3.310 Y29.301 E0.0263
G1 X-3.670 Y29.783 E0.0951
G1 X-3.778 Y29.910 E0.0263
G1 X-4.197 Y30.343 E0.0952
G1 X-4.321 Y30.455 E0.0263
G1 X-4.791 Y30.830 E0.0951
G1 X-4.928 Y30.926 E0.0263
G1 X-5.443 Y31.238 E0.0951
G1 X-5.591 Y31.315 E0.0264
G1 X-6.142 Y31.559 E0.0951
G1 X-6.298 Y31.616 E0.0263
G1 X-6.871 Y31.786 E0.0944
G1 X-7.025 Y31.822 E0.0250
G1 X-7.724 Y31.940 E0.1120
G1 X-8.063 Y31.952 E0.0535
G1 X-8.406 Y31.920 E0.0545
G1 X-16.865 Y31.960 E1.3364
G1 X-16.871 Y31.960 E0.0010
G1 X-29.530 Y31.960 E1.9999
G1 X-29.537 Y31.960 E0.0010
G1 X-37.753 Y31.921 E1.2981
G1 X-38.147 Y31.979 E0.0628
G1 X-38.945 Y31.902 E0.1267
G1 X-39.110 Y31.875 E0.0263
G1 X-39.737 Y31.732 E0.1017
G1 X-39.897 Y31.685 E0.0264
G1 X-40.462 Y31.477 E0.0952
G1 X-40.615 Y31.409 E0.0264
G1 X-41.149 Y31.131 E0.0951
G1 X-41.291 Y31.044 E0.0264
G1 X-41.785 Y30.700 E0.0951
G1 X-41.915 Y30.596 E0.0264
G1 X-42.361 Y30.191 E0.0952
G1 X-42.477 Y30.071 E0.0263
G1 X-42.868 Y29.613 E0.0951
G1 X-42.967 Y29.479 E0.0263
G1 X-43.296 Y28.974 E0.0951
G1 X-43.378 Y28.829 E0.0264
G1 X-43.639 Y28.287 E0.0951
G1 X-43.701 Y28.132 E0.0264
G1 X-43.890 Y27.563 E0.0948
G1 X-43.932 Y27.406 E0.0256
G1 X-44.069 Y26.715 E0.1113
G1 X-44.093 Y26.406 E0.0489
G1 X-44.072 Y25.910 E0.0785
G1 X-44.112 Y17.001 E1.4074
G1 X-44.112 Y16.996 E0.0008
G1 X-44.112 Y-16.995 E5.3702
G1 X-44.112 Y-17.001 E0.0010
G1 X-44.076 Y-24.896 E1.2473
G1 X-44.175 Y-25.002 E0.0228
G1 X-44.070 Y-26.643 E0.2599
G1 X-44.048 Y-26.809 E0.0264
G1 X-43.933 Y-27.399 E0.0951
G1 X-43.891 Y-27.561 E0.0264
G1 X-43.701 Y-28.132 E0.0951
G1 X-43.639 Y-28.287 E0.0264
G1 X-43.378 Y-28.829 E0.0951
G1 X-43.296 Y-28.975 E0.0264
G1 X-42.967 Y-29.479 E0.0951
G1 X-42.868 Y-29.613 E0.0263
G1 X-42.477 Y-30.071 E0.0951
G1 X-42.361 Y-30.191 E0.0263
G1 X-41.915 Y-30.596 E0.0951
G1 X-41.785 Y-30.700 E0.0263
G1 X-41.291 Y-31.044 E0.0951
G1 X-41.149 Y-31.131 E0.0264
G1 X-40.615 Y-31.409 E0.0951
G1 X-40.462 Y-31.477 E0.0263
G1 X-39.897 Y-31.685 E0.0951
G1 X-39.737 Y-31.732 E0.0263
G1 X-39.158 Y-31.865 E0.0939
G1 X-39.008 Y-31.890 E0.0239
G1 X-38.170 Y-31.980 E0.1333
G1 X-37.749 Y-31.921 E0.0670
G1 X-29.537 Y-31.960 E1.2975
G1 X-29.530 Y-31.960 E0.0010
G1 X-16.872 Y-31.960 E1.9999
G1 X-16.865 Y-31.960 E0.0010
G1 X-8.406 Y-31.920 E1.3364
G1 X-8.063 Y-31.952 E0.0545
G1 X-7.724 Y-31.940 E0.0535
G1 X-7.025 Y-31.822 E0.1120
G1 X-6.871 Y-31.786 E0.0250
G1 X-6.298 Y-31.616 E0.0944
G1 X-6.142 Y-31.559 E0.0264
G1 X-5.591 Y-31.315 E0.0951
G1 X-5.443 Y-31.238 E0.0263
G1 X-4.928 Y-30.926 E0.0951
G1 X-4.791 Y-30.830 E0.0263
G1 X-4.321 Y-30.455 E0.0951
G1 X-4.197 Y-30.343 E0.0263
G1 X-3.778 Y-29.910 E0.0952
G1 X-3.670 Y-29.783 E0.0263
G1 X-3.310 Y-29.301 E0.0951
G1 X-3.219 Y-29.161 E0.0263
G1 X-2.924 Y-28.636 E0.0951
G1 X-2.851 Y-28.486 E0.0263
G1 X-2.625 Y-27.928 E0.0951
G1 X-2.573 Y-27.770 E0.0263
G1 X-2.422 Y-27.193 E0.0942
G1 X-2.391 Y-27.041 E0.0244
G1 X-2.291 Y-26.313 E0.1162
G1 X-2.299 Y-25.902 E0.0650
G1 X-2.329 Y-25.732 E0.0272
G1 X-2.290 Y-17.002 E1.3793
G1 X-2.290 Y-16.996 E0.0009
G1 X-2.290 Y16.995 E5.3702
G1 E-1.0000 F1200
G1 X2.290 Y16.996 F9000
G1 E1.0500 F1200
G1 X2.290 Y-16.995 E5.3702 F600
G1 X2.290 Y-17.001 E0.0010
G1 X2.326 Y-24.896 E1.2473
G1 X2.227 Y-25.002 E0.0228
G1 X2.332 Y-26.643 E0.2599
G1 X2.353 Y-26.808 E0.0263
G1 X2.469 Y-27.400 E0.0951
G1 X2.511 Y-27.561 E0.0263
G1 X2.701 Y-28.132 E0.0951
G1 X2.763 Y-28.287 E0.0264
G1 X3.024 Y-28.829 E0.0951
G1 X3.106 Y-28.975 E0.0264
G1 X3.435 Y-29.479 E0.0951
G1 X3.535 Y-29.613 E0.0264
G1 X3.925 Y-30.071 E0.0951
G1 X4.041 Y-30.191 E0.0263
G1 X4.487 Y-30.596 E0.0951
G1 X4.617 Y-30.700 E0.0264
G1 X5.111 Y-31.044 E0.0951
G1 X5.253 Y-31.131 E0.0264
G1 X5.787 Y-31.409 E0.0951
G1 X5.940 Y-31.477 E0.0263
G1 X6.505 Y-31.685 E0.0951
G1 X6.665 Y-31.732 E0.0263
G1 X7.244 Y-31.865 E0.0939
G1 X7.394 Y-31.890 E0.0239
G1 X8.232 Y-31.980 E0.1333
G1 X8.653 Y-31.921 E0.0670
G1 X16.865 Y-31.960 E1.2975
G1 X16.872 Y-31.960 E0.0010
G1 X29.530 Y-31.960 E1.9999
G1 X29.537 Y-31.960 E0.0010
G1 X37.996 Y-31.920 E1.3364
G1 X38.339 Y-31.952 E0.0545
G1 X38.678 Y-31.940 E0.0535
G1 X39.377 Y-31.822 E0.1120
G1 X39.531 Y-31.786 E0.0250
G1 X40.104 Y-31.616 E0.0944
G1 X40.260 Y-31.559 E0.0264
G1 X40.811 Y-31.315 E0.0951
G1 X40.959 Y-31.238 E0.0263
G1 X41.474 Y-30.926 E0.0951
G1 X41.610 Y-30.830 E0.0263
G1 X42.081 Y-30.455 E0.0951
G1 X42.205 Y-30.343 E0.0264
G1 X42.624 Y-29.910 E0.0951
G1 X42.732 Y-29.783 E0.0263
G1 X43.092 Y-29.301 E0.0951
G1 X43.183 Y-29.161 E0.0263
G1 X43.478 Y-28.636 E0.0951
G1 X43.551 Y-28.486 E0.0263
G1 X43.777 Y-27.928 E0.0951
G1 X43.829 Y-27.770 E0.0263
G1 X43.980 Y-27.193 E0.0942
G1 X44.011 Y-27.042 E0.0244
G1 X44.111 Y-26.313 E0.1162
G1 X44.103 Y-25.902 E0.0650
G1 X44.073 Y-25.732 E0.0272
G1 X44.112 Y-17.002 E1.3793
G1 X44.112 Y-16.996 E0.0009
G1 X44.112 Y16.995 E5.3702
G1 X44.112 Y17.001 E0.0010
G1 X44.073 Y25.732 E1.3794
G1 X44.103 Y25.902 E0.0272
G1 X44.111 Y26.313 E0.0650
G1 X44.011 Y27.042 E0.1162
G1 X43.980 Y27.193 E0.0244
G1 X43.829 Y27.769 E0.0941
G1 X43.777 Y27.928 E0.0264
G1 X43.551 Y28.486 E0.0952
G1 X43.478 Y28.636 E0.0263
G1 X43.183 Y29.161 E0.0951
G1 X43.092 Y29.301 E0.0263
G1 X42.732 Y29.783 E0.0951
G1 X42.624 Y29.910 E0.0264
G1 X42.205 Y30.343 E0.0951
G1 X42.081 Y30.455 E0.0264
G1 X41.610 Y30.830 E0.0951
G1 X41.474 Y30.926 E0.0263
G1 X40.959 Y31.238 E0.0951
G1 X40.811 Y31.315 E0.0264
G1 X40.260 Y31.559 E0.0951
G1 X40.104 Y31.616 E0.0263
G1 X39.531 Y31.786 E0.0944
G1 X39.377 Y31.822 E0.0250
G1 X38.678 Y31.940 E0.1120
G1 X38.339 Y31.952 E0.0535
G1 X37.996 Y31.920 E0.0545
G1 X29.537 Y31.960 E1.3364
G1 X29.530 Y31.960 E0.0010
G1 X16.871 Y31.960 E1.9999
G1 X16.865 Y31.960 E0.0010
G1 X8.649 Y31.921 E1.2981
G1 X8.255 Y31.979 E0.0628
G1 X7.457 Y31.902 E0.1267
G1 X7.293 Y31.875 E0.0263
G1 X6.665 Y31.732 E0.1017
G1 X6.505 Y31.685 E0.0264
G1 X5.940 Y31.477 E0.0952
G1 X5.787 Y31.409 E0.0264
G1 X5.253 Y31.131 E0.0951
G1 X5.111 Y31.044 E0.0263
G1 X4.617 Y30.700 E0.0951
G1 X4.487 Y30.596 E0.0263
G1 X4.041 Y30.191 E0.0952
G1 X3.925 Y30.071 E0.0263
G1 X3.535 Y29.613 E0.0951
G1 X3.435 Y29.479 E0.0264
G1 X3.106 Y28.975 E0.0951
G1 X3.024 Y28.829 E0.0264
G1 X2.763 Y28.287 E0.0951
G1 X2.701 Y28.132 E0.0264
G1 X2.512 Y27.563 E0.0948
G1 X2.470 Y27.406 E0.0256
G1 X2.333 Y26.715 E0.1113
G1 X2.309 Y26.406 E0.0489
G1 X2.330 Y25.910 E0.0785
G1 X2.290 Y17.001 E1.4074
G1 X2.290 Y16.996 E0.0008
G1 E-1.0000 F1200
G1 X-4.702 Y29.714 F9000
G1 E1.0500 F1200
G1 X-41.696 Y29.714 E5.8445 F600
G1 X-41.804 Y29.616 E0.0231
G1 X-41.885 Y29.533 E0.0182
G1 X-42.242 Y29.114 E0.0870
G1 X-42.311 Y29.021 E0.0182
G1 X-42.611 Y28.560 E0.0870
G1 X-42.668 Y28.459 E0.0183
G1 X-42.907 Y27.963 E0.0870
G1 X-42.950 Y27.856 E0.0182
G1 X-43.092 Y27.429 E0.0711
G1 X-3.310 Y27.429 E6.2849
G1 X-3.201 Y27.013 E0.0679
G1 X-3.181 Y26.908 E0.0169
G1 X-3.092 Y26.266 E0.1024
G1 X-3.097 Y25.981 E0.0450
G1 X-3.130 Y25.802 E0.0288
G1 X-3.127 Y25.143 E0.1041
G1 X-43.275 Y25.143 E6.3429
G1 X-43.285 Y22.857 E0.3611
G1 X-3.117 Y22.857 E6.3461
G1 X-3.106 Y20.571 E0.3611
G1 X-43.296 Y20.571 E6.3494
G1 X-43.306 Y18.286 E0.3611
G1 X-3.096 Y18.286 E6.3526
G1 X-3.090 Y16.998 E0.2035
G1 X-3.090 Y16.000 E0.1576
G1 X-43.312 Y16.000 E6.3544
G1 X-43.312 Y13.714 E0.3611
G1 X-3.090 Y13.714 E6.3544
G1 X-3.090 Y11.429 E0.3611
G1 X-43.312 Y11.429 E6.3544
G1 X-43.312 Y9.143 E0.3611
G1 X-3.090 Y9.143 E6.3544
G1 X-3.090 Y6.857 E0.3611
G1 X-43.312 Y6.857 E6.3544
G1 X-43.312 Y4.571 E0.3611
G1 X-3.090 Y4.571 E6.3544
G1 X-3.090 Y2.286 E0.3611
G1 X-43.312 Y2.286 E6.3544
G1 X-43.312 Y0.000 E0.3611
G1 X-3.090 Y0.000 E6.3544
G1 X-3.090 Y-2.286 E0.3611
G1 X-43.312 Y-2.286 E6.3544
G1 X-43.312 Y-4.571 E0.3611
G1 X-3.090 Y-4.571 E6.3544
G1 X-3.090 Y-6.857 E0.3611
G1 X-43.312 Y-6.857 E6.3544
G1 X-43.312 Y-9.143 E0.3611
G1 X-3.090 Y-9.143 E6.3544
G1 X-3.090 Y-11.429 E0.3611
G1 X-43.312 Y-11.429 E6.3544
G1 X-43.312 Y-13.714 E0.3611
G1 X-3.090 Y-13.714 E6.3544
G1 X-3.090 Y-16.000 E0.3611
G1 X-43.312 Y-16.000 E6.3544
G1 X-43.312 Y-16.998 E0.1576
G1 X-43.306 Y-18.286 E0.2035
G1 X-3.096 Y-18.286 E6.3526
G1 X-3.106 Y-20.571 E0.3611
G1 X-43.296 Y-20.571 E6.3494
G1 X-43.285 Y-22.857 E0.3611
G1 X-3.117 Y-22.857 E6.3461
G1 X-3.127 Y-25.143 E0.3611
G1 X-43.275 Y-25.143 E6.3429
G1 X-43.275 Y-25.211 E0.0108
G1 X-43.355 Y-25.296 E0.0184
G1 X-43.273 Y-26.566 E0.2011
G1 X-43.258 Y-26.681 E0.0183
G1 X-43.153 Y-27.221 E0.0870
G1 X-43.124 Y-27.333 E0.0183
G1 X-43.092 Y-27.429 E0.0159
G1 X-3.310 Y-27.429 E6.2849
G1 X-3.340 Y-27.542 E0.0185
G1 X-3.377 Y-27.651 E0.0182
G1 X-3.583 Y-28.162 E0.0871
G1 X-3.633 Y-28.266 E0.0182
G1 X-3.904 Y-28.746 E0.0870
G1 X-3.967 Y-28.843 E0.0182
G1 X-4.296 Y-29.284 E0.0870
G1 X-4.371 Y-29.372 E0.0182
G1 X-4.702 Y-29.714 E0.0753
G1 X-41.696 Y-29.714 E5.8445
G1 E-1.0000 F1200
G1 X4.706 Y-29.714 F9000
G1 E1.0500 F1200
G1 X41.700 Y-29.714 E5.8445 F600
G1 X42.031 Y-29.372 E0.0753
G1 X42.106 Y-29.284 E0.0182
G1 X42.435 Y-28.843 E0.0870
G1 X42.498 Y-28.746 E0.0182
G1 X42.769 Y-28.266 E0.0870
G1 X42.819 Y-28.162 E0.0183
G1 X43.025 Y-27.652 E0.0870
G1 X43.062 Y-27.542 E0.0183
G1 X43.092 Y-27.429 E0.0185
G1 X3.310 Y-27.429 E6.2849
G1 X3.278 Y-27.333 E0.0159
G1 X3.249 Y-27.221 E0.0182
G1 X3.144 Y-26.681 E0.0870
G1 X3.129 Y-26.566 E0.0183
G1 X3.047 Y-25.296 E0.2011
G1 X3.127 Y-25.211 E0.0184
G1 X3.127 Y-25.143 E0.0108
G1 X43.275 Y-25.143 E6.3429
G1 X43.285 Y-22.857 E0.3611
G1 X3.117 Y-22.857 E6.3461
G1 X3.106 Y-20.571 E0.3611
G1 X43.296 Y-20.571 E6.3494
G1 X43.306 Y-18.286 E0.3611
G1 X3.096 Y-18.286 E6.3526
G1 X3.090 Y-16.998 E0.2035
