; G-Code generated by Simplify3D(R) Version 4.0.1
; Oct 15, 2018 at 2:42:12 PM
; Settings Summary
;   processName,Process1
;   applyToModels,Top
;   profileName,MakerBot Replicator 2X ABS No Raft (modified)
;   profileVersion,2018-04-12 12:43:46
;   baseProfile,MakerBot Replicator 2X (modified)
;   printMaterial,ABS
;   printQuality,Medium
;   printExtruders,Left Extruder Only
;   extruderName,Right Extruder,Left Extruder
;   extruderToolheadNumber,0,1
;   extruderDiameter,0.4,0.4
;   extruderAutoWidth,0,0
;   extruderWidth,0.4,0.4
;   extrusionMultiplier,1,1
;   extruderUseRetract,1,1
;   extruderRetractionDistance,1,1
;   extruderExtraRestartDistance,0,0
;   extruderRetractionZLift,0,0
;   extruderRetractionSpeed,1200,1200
;   extruderUseCoasting,0,0
;   extruderCoastingDistance,0.2,0.2
;   extruderUseWipe,0,0
;   extruderWipeDistance,5,5
;   primaryExtruder,1
;   layerHeight,0.2
;   topSolidLayers,3
;   bottomSolidLayers,3
;   perimeterOutlines,2
;   printPerimetersInsideOut,1
;   startPointOption,2
;   startPointOriginX,0
;   startPointOriginY,0
;   sequentialIslands,0
;   spiralVaseMode,0
;   firstLayerHeightPercentage,120
;   firstLayerWidthPercentage,100
;   firstLayerUnderspeed,0.5
;   useRaft,0
;   raftExtruder,1
;   raftTopLayers,3
;   raftBaseLayers,2
;   raftOffset,3
;   raftSeparationDistance,0.14
;   raftTopInfill,100
;   aboveRaftSpeedMultiplier,0.3
;   useSkirt,1
;   skirtExtruder,1
;   skirtLayers,4
;   skirtOutlines,8
;   skirtOffset,0.1
;   usePrimePillar,0
;   primePillarExtruder,999
;   primePillarWidth,12
;   primePillarLocation,7
;   primePillarSpeedMultiplier,1
;   useOozeShield,0
;   oozeShieldExtruder,999
;   oozeShieldOffset,2
;   oozeShieldOutlines,1
;   oozeShieldSidewallShape,1
;   oozeShieldSidewallAngle,30
;   oozeShieldSpeedMultiplier,1
;   infillExtruder,1
;   internalInfillPattern,Triangular
;   externalInfillPattern,Rectilinear
;   infillPercentage,30
;   outlineOverlapPercentage,20
;   infillExtrusionWidthPercentage,100
;   minInfillLength,5
;   infillLayerInterval,1
;   internalInfillAngles,0,60,-60
;   overlapInternalInfillAngles,1
;   externalInfillAngles,45,-45
;   generateSupport,0
;   supportExtruder,1
;   supportInfillPercentage,30
;   supportExtraInflation,0
;   supportBaseLayers,0
;   denseSupportExtruder,1
;   denseSupportLayers,0
;   denseSupportInfillPercentage,70
;   supportLayerInterval,1
;   supportHorizontalPartOffset,0.3
;   supportUpperSeparationLayers,1
;   supportLowerSeparationLayers,1
;   supportType,0
;   supportGridSpacing,4
;   maxOverhangAngle,45
;   supportAngles,0
;   temperatureName,Right Extruder,Left Extruder,Heated Build Platform
;   temperatureNumber,0,1,0
;   temperatureSetpointCount,1,1,1
;   temperatureSetpointLayers,1,1,1
;   temperatureSetpointTemperatures,0,220,110
;   temperatureStabilizeAtStartup,0,0,0
;   temperatureHeatedBed,0,0,1
;   temperatureRelayBetweenLayers,0,0,0
;   temperatureRelayBetweenLoops,0,0,0
;   fanLayers,1
;   fanSpeeds,0
;   blipFanToFullPower,0
;   adjustSpeedForCooling,1
;   minSpeedLayerTime,15
;   minCoolingSpeedSlowdown,20
;   increaseFanForCooling,0
;   minFanLayerTime,45
;   maxCoolingFanSpeed,100
;   increaseFanForBridging,0
;   bridgingFanSpeed,100
;   use5D,1
;   relativeEdistances,1
;   allowEaxisZeroing,0
;   independentExtruderAxes,1
;   includeM10123,0
;   stickySupport,1
;   applyToolheadOffsets,0
;   gcodeXoffset,0
;   gcodeYoffset,0
;   gcodeZoffset,0
;   overrideMachineDefinition,1
;   machineTypeOverride,0
;   strokeXoverride,250
;   strokeYoverride,150
;   strokeZoverride,150
;   originOffsetXoverride,125
;   originOffsetYoverride,75
;   originOffsetZoverride,0
;   homeXdirOverride,1
;   homeYdirOverride,1
;   homeZdirOverride,-1
;   flipXoverride,1
;   flipYoverride,-1
;   flipZoverride,1
;   toolheadOffsets,0,0|33,0|0,0|0,0|0,0|0,0
;   overrideFirmwareConfiguration,1
;   firmwareTypeOverride,MakerBot/Sailfish Firmware
;   GPXconfigOverride,r2x
;   baudRateOverride,115200
;   overridePrinterModels,1
;   printerModelsOverride,MakerBot_Replicator2X.stl
;   startingGcode,; **** Replicator 2X start.gcode ****,M73 P0 ; Enable build progress,G162 X Y F3000 ; Home XY maximum,G161 Z F1200 ; Home Z minimum,G92 Z-5 ; Set Z to -5,G1 Z0 ; Move Z to 0,G161 Z F100 ; Home Z slowly,M132 X Y Z ; Recall home offsets,M135 T0 ; Load right extruder offsets,G1 X-130 Y-75 Z30 F9000 ; Move to wait position off table,G130 X20 Y20 Z20 A20 B20 ; Lower stepper Vrefs while heating,M126 S[fan_speed_pwm] ; Set fan speed,M140 S[bed0_temperature] T0 ; Heat buildplate,M134 T0 ; Stabilize bed temperature,M104 S[extruder1_temperature] T1 ; Heat left extruder,M133 T1 ; Stabilize left extruder temperature,G130 X127 Y127 Z40 A127 B127 ; Default stepper Vrefs,G92 A0 B0 ; Zero extruders,M135 T1 ; Load left extruder offsets,G1 X-100 Y-65 F9000 ; Move to front left corner of bed,G1 Z0.3 F6000 ; Move down to purge,G1 X90 Y-65 E24 F2000 ; Extrude a line of filament across the front edge of the bed,G1 X100 Y-65 F180 ; Wait for ooze,G1 X110 Y-65 F5000 ; Fast wipe,G1 Z1 F100 ; Lift,G1 E-10.0000 F600,G92 A0 B0 ; zero extruders,M73 P1 ;@body (notify GPX body has started),; **** end of start.gcode ****
;   layerChangeGcode,
;   retractionGcode,
;   toolChangeGcode,
;   endingGcode,; **** Replicator 2X end.gcode ****,M73 P100 ; end build progress,G1 Z155 F1000 ; send Z axis to bottom of machine,M140 S0 T0 ; cool down HBP,M104 S0 T0 ; cool down right extruder,M104 S0 T1 ; cool down left extruder,M127 ; stop blower fan,G162 X Y F3000 ; home XY maximum,M18 ; disable stepper,M72 P1 ; play Ta-Da song,; **** end of end.gcode ****
;   exportFileFormat,x3g
;   celebration,0
;   celebrationSong,Random Song
;   postProcessing,
;   defaultSpeed,4800
;   outlineUnderspeed,0.5
;   solidInfillUnderspeed,0.8
;   supportUnderspeed,0.8
;   rapidXYspeed,9000
;   rapidZspeed,1200
;   minBridgingArea,50
;   bridgingExtraInflation,0
;   bridgingExtrusionMultiplier,1
;   bridgingSpeedMultiplier,0.8
;   useFixedBridgingAngle,0
;   fixedBridgingAngle,0
;   applyBridgingToPerimeters,0
;   filamentDiameters,1.75|1.75|1.75|1.75|1.75|1.75
;   filamentPricesPerKg,46|46|46|46|46|46
;   filamentDensities,1.25|1.25|1.25|1.25|1.25|1.25
;   useMinPrintHeight,0
;   minPrintHeight,0
;   useMaxPrintHeight,0
;   maxPrintHeight,0
;   useDiaphragm,0
;   diaphragmLayerInterval,20
;   robustSlicing,1
;   mergeAllIntoSolid,0
;   onlyRetractWhenCrossingOutline,1
;   retractBetweenLayers,1
;   useRetractionMinTravel,0
;   retractionMinTravel,3
;   retractWhileWiping,0
;   onlyWipeOutlines,1
;   avoidCrossingOutline,0
;   maxMovementDetourFactor,3
;   toolChangeRetractionDistance,12
;   toolChangeExtraRestartDistance,-0.5
;   toolChangeRetractionSpeed,600
;   externalThinWallType,0
;   internalThinWallType,2
;   thinWallAllowedOverlapPercentage,10
;   singleExtrusionMinLength,1
;   singleExtrusionMinPrintingWidthPercentage,50
;   singleExtrusionMaxPrintingWidthPercentage,200
;   singleExtrusionEndpointExtension,0.2
;   horizontalSizeCompensation,0
G90
M83
; **** Replicator 2X start.gcode ****
M73 P0 ; Enable build progress
G162 X Y F3000 ; Home XY maximum
G161 Z F1200 ; Home Z minimum
G92 Z-5 ; Set Z to -5
G1 Z0 ; Move Z to 0
G161 Z F100 ; Home Z slowly
M132 X Y Z ; Recall home offsets
M135 T0 ; Load right extruder offsets
G1 X-130 Y-75 Z30 F9000 ; Move to wait position off table
G130 X20 Y20 Z20 A20 B20 ; Lower stepper Vrefs while heating
M127 ; Set fan speed
M140 S110 T0 ; Heat buildplate
M134 T0 ; Stabilize bed temperature
M104 S220 T1 ; Heat left extruder
M133 T1 ; Stabilize left extruder temperature
G130 X127 Y127 Z40 A127 B127 ; Default stepper Vrefs
G92 A0 B0 ; Zero extruders
M135 T1 ; Load left extruder offsets
G1 X-100 Y-65 F9000 ; Move to front left corner of bed
G1 Z0.3 F6000 ; Move down to purge
G1 X90 Y-65 E24 F2000 ; Extrude a line of filament across the front edge of the bed
G1 X100 Y-65 F180 ; Wait for ooze
G1 X110 Y-65 F5000 ; Fast wipe
G1 Z1 F100 ; Lift
G1 E-10.0000 F600
G92 A0 B0 ; zero extruders
M73 P1 ;@body (notify GPX body has started)
; **** end of start.gcode ****
G1 Z0.240 F1200
; process Process1
; layer 1, Z = 0.240
M135 T1
; tool H0.240 W0.400
; skirt
G1 X0.538 Y25.996 F9000
G1 E10.0000 F360
G1 X0.538 Y-26.006 E2.0755 F2400
G1 X0.540 Y-26.078 E0.0029
G1 X0.544 Y-26.155 E0.0031
G1 X0.549 Y-26.227 E0.0029
G1 X0.612 Y-26.886 E0.0264
G1 X0.621 Y-26.957 E0.0028
G1 X0.632 Y-27.033 E0.0031
G1 X0.644 Y-27.106 E0.0029
G1 X0.775 Y-27.776 E0.0273
G1 X0.796 Y-27.868 E0.0038
G1 X0.822 Y-27.968 E0.0041
G1 X0.850 Y-28.062 E0.0039
G1 X1.069 Y-28.724 E0.0278
G1 X1.103 Y-28.814 E0.0038
G1 X1.141 Y-28.909 E0.0041
G1 X1.180 Y-28.997 E0.0038
G1 X1.482 Y-29.625 E0.0278
G1 X1.527 Y-29.710 E0.0039
G1 X1.577 Y-29.800 E0.0041
G1 X1.627 Y-29.882 E0.0038
G1 X2.007 Y-30.465 E0.0278
G1 X2.062 Y-30.545 E0.0039
G1 X2.124 Y-30.627 E0.0041
G1 X2.183 Y-30.702 E0.0038
G1 X2.635 Y-31.232 E0.0278
G1 X2.700 Y-31.304 E0.0039
G1 X2.772 Y-31.378 E0.0041
G1 X2.840 Y-31.444 E0.0038
G1 X3.356 Y-31.912 E0.0278
G1 X3.429 Y-31.975 E0.0039
G1 X3.510 Y-32.039 E0.0041
G1 X3.586 Y-32.096 E0.0038
G1 X4.156 Y-32.494 E0.0278
G1 X4.236 Y-32.545 E0.0038
G1 X4.323 Y-32.599 E0.0041
G1 X4.409 Y-32.647 E0.0039
G1 X5.026 Y-32.969 E0.0278
G1 X5.112 Y-33.010 E0.0038
G1 X5.205 Y-33.052 E0.0041
G1 X5.296 Y-33.088 E0.0039
G1 X5.950 Y-33.329 E0.0278
G1 X6.040 Y-33.359 E0.0038
G1 X6.138 Y-33.388 E0.0041
G1 X6.232 Y-33.413 E0.0039
G1 X6.908 Y-33.567 E0.0277
G1 X6.996 Y-33.584 E0.0036
G1 X7.091 Y-33.600 E0.0038
G1 X7.180 Y-33.612 E0.0036
G1 X8.009 Y-33.699 E0.0333
G1 X8.089 Y-33.706 E0.0032
G1 X8.173 Y-33.710 E0.0033
G1 X8.250 Y-33.712 E0.0031
G1 X38.153 Y-33.712 E1.1935
G1 X38.219 Y-33.710 E0.0026
G1 X38.292 Y-33.707 E0.0029
G1 X38.361 Y-33.703 E0.0028
G1 X38.862 Y-33.657 E0.0201
G1 X38.911 Y-33.652 E0.0020
G1 X38.967 Y-33.645 E0.0022
G1 X39.021 Y-33.637 E0.0022
G1 X39.688 Y-33.529 E0.0270
G1 X39.784 Y-33.511 E0.0039
G1 X39.884 Y-33.488 E0.0041
G1 X39.976 Y-33.464 E0.0038
G1 X40.642 Y-33.266 E0.0277
G1 X40.732 Y-33.236 E0.0038
G1 X40.829 Y-33.201 E0.0041
G1 X40.919 Y-33.164 E0.0039
G1 X41.555 Y-32.882 E0.0278
G1 X41.639 Y-32.842 E0.0037
G1 X41.730 Y-32.795 E0.0041
G1 X41.817 Y-32.746 E0.0040
G1 X42.413 Y-32.384 E0.0279
G1 X42.494 Y-32.332 E0.0038
G1 X42.578 Y-32.273 E0.0041
G1 X42.655 Y-32.216 E0.0038
G1 X43.200 Y-31.781 E0.0278
G1 X43.274 Y-31.718 E0.0039
G1 X43.350 Y-31.649 E0.0041
G1 X43.418 Y-31.583 E0.0038
G1 X43.903 Y-31.082 E0.0278
G1 X43.969 Y-31.009 E0.0039
G1 X44.036 Y-30.931 E0.0041
G1 X44.094 Y-30.857 E0.0037
G1 X44.510 Y-30.301 E0.0277
G1 X44.564 Y-30.222 E0.0038
G1 X44.620 Y-30.137 E0.0041
G1 X44.671 Y-30.054 E0.0039
G1 X45.013 Y-29.446 E0.0278
G1 X45.058 Y-29.360 E0.0039
G1 X45.102 Y-29.268 E0.0041
G1 X45.141 Y-29.180 E0.0038
G1 X45.402 Y-28.535 E0.0278
G1 X45.435 Y-28.445 E0.0038
G1 X45.468 Y-28.348 E0.0041
G1 X45.495 Y-28.255 E0.0038
G1 X45.673 Y-27.576 E0.0280
G1 X45.696 Y-27.473 E0.0042
G1 X45.717 Y-27.363 E0.0045
G1 X45.733 Y-27.260 E0.0041
G1 X45.848 Y-26.273 E0.0397
G1 X45.856 Y-26.186 E0.0035
G1 X45.861 Y-26.093 E0.0037
G1 X45.864 Y-26.006 E0.0035
G1 X45.864 Y26.010 E2.0760
G1 X45.862 Y26.097 E0.0035
G1 X45.856 Y26.190 E0.0038
G1 X45.848 Y26.279 E0.0036
G1 X45.732 Y27.263 E0.0395
G1 X45.716 Y27.366 E0.0041
G1 X45.696 Y27.475 E0.0044
G1 X45.673 Y27.577 E0.0042
G1 X45.495 Y28.255 E0.0280
G1 X45.468 Y28.348 E0.0038
G1 X45.435 Y28.445 E0.0041
G1 X45.402 Y28.535 E0.0038
G1 X45.141 Y29.180 E0.0278
G1 X45.102 Y29.268 E0.0038
G1 X45.058 Y29.360 E0.0041
G1 X45.013 Y29.446 E0.0039
G1 X44.671 Y30.054 E0.0278
G1 X44.620 Y30.136 E0.0039
G1 X44.564 Y30.222 E0.0041
G1 X44.510 Y30.301 E0.0038
G1 X44.093 Y30.859 E0.0278
G1 X44.032 Y30.935 E0.0039
G1 X43.966 Y31.013 E0.0041
G1 X43.902 Y31.083 E0.0038
G1 X43.418 Y31.583 E0.0278
G1 X43.350 Y31.649 E0.0038
G1 X43.274 Y31.718 E0.0041
G1 X43.200 Y31.781 E0.0039
G1 X42.655 Y32.216 E0.0278
G1 X42.578 Y32.273 E0.0038
G1 X42.494 Y32.332 E0.0041
G1 X42.413 Y32.384 E0.0038
G1 X41.816 Y32.746 E0.0279
G1 X41.730 Y32.795 E0.0040
G1 X41.639 Y32.842 E0.0041
G1 X41.555 Y32.882 E0.0037
G1 X40.919 Y33.164 E0.0278
G1 X40.829 Y33.200 E0.0039
G1 X40.732 Y33.236 E0.0041
G1 X40.642 Y33.266 E0.0038
G1 X39.964 Y33.467 E0.0283
G1 X39.849 Y33.496 E0.0047
G1 X39.724 Y33.523 E0.0051
G1 X39.606 Y33.543 E0.0048
G1 X38.460 Y33.693 E0.0461
G1 X38.363 Y33.702 E0.0039
G1 X38.260 Y33.709 E0.0041
G1 X38.163 Y33.712 E0.0039
G1 X8.246 Y33.712 E1.1940
G1 X8.167 Y33.710 E0.0032
G1 X8.082 Y33.706 E0.0034
G1 X8.004 Y33.699 E0.0031
G1 X7.178 Y33.612 E0.0332
G1 X7.088 Y33.600 E0.0036
G1 X6.995 Y33.584 E0.0038
G1 X6.908 Y33.567 E0.0035
G1 X6.232 Y33.413 E0.0277
G1 X6.138 Y33.388 E0.0039
G1 X6.040 Y33.359 E0.0041
G1 X5.949 Y33.329 E0.0038
G1 X5.296 Y33.088 E0.0278
G1 X5.205 Y33.052 E0.0039
G1 X5.112 Y33.010 E0.0041
G1 X5.026 Y32.969 E0.0038
G1 X4.409 Y32.646 E0.0278
G1 X4.323 Y32.598 E0.0039
G1 X4.236 Y32.545 E0.0041
G1 X4.157 Y32.494 E0.0038
G1 X3.586 Y32.096 E0.0278
G1 X3.510 Y32.039 E0.0038
G1 X3.429 Y31.975 E0.0041
G1 X3.356 Y31.912 E0.0039
G1 X2.839 Y31.443 E0.0278
G1 X2.770 Y31.376 E0.0039
G1 X2.699 Y31.302 E0.0041
G1 X2.634 Y31.231 E0.0038
G1 X2.183 Y30.702 E0.0278
G1 X2.124 Y30.627 E0.0038
G1 X2.062 Y30.545 E0.0041
G1 X2.007 Y30.465 E0.0039
G1 X1.627 Y29.881 E0.0278
G1 X1.577 Y29.800 E0.0038
G1 X1.527 Y29.710 E0.0041
G1 X1.482 Y29.625 E0.0039
G1 X1.180 Y28.997 E0.0278
G1 X1.141 Y28.909 E0.0038
G1 X1.103 Y28.814 E0.0041
G1 X1.069 Y28.724 E0.0038
G1 X0.850 Y28.062 E0.0278
G1 X0.822 Y27.968 E0.0039
G1 X0.796 Y27.868 E0.0041
G1 X0.775 Y27.776 E0.0038
G1 X0.644 Y27.106 E0.0273
G1 X0.632 Y27.035 E0.0029
G1 X0.621 Y26.958 E0.0031
G1 X0.612 Y26.884 E0.0030
G1 X0.548 Y26.214 E0.0269
G1 X0.543 Y26.141 E0.0029
G1 X0.540 Y26.065 E0.0030
G1 X0.538 Y25.996 E0.0028
G1 X0.938 Y25.991 F9000
G1 X0.938 Y-26.002 E2.0751 F2400
G1 X0.940 Y-26.064 E0.0025
G1 X0.943 Y-26.131 E0.0027
G1 X0.948 Y-26.193 E0.0025
G1 X1.010 Y-26.843 E0.0261
G1 X1.017 Y-26.904 E0.0025
G1 X1.027 Y-26.971 E0.0027
G1 X1.038 Y-27.034 E0.0025
G1 X1.166 Y-27.694 E0.0268
G1 X1.184 Y-27.773 E0.0033
G1 X1.207 Y-27.860 E0.0036
G1 X1.231 Y-27.942 E0.0034
G1 X1.447 Y-28.592 E0.0273
G1 X1.476 Y-28.670 E0.0033
G1 X1.509 Y-28.753 E0.0036
G1 X1.543 Y-28.829 E0.0033
G1 X1.840 Y-29.445 E0.0273
G1 X1.879 Y-29.519 E0.0033
G1 X1.923 Y-29.598 E0.0036
G1 X1.966 Y-29.669 E0.0033
G1 X2.339 Y-30.242 E0.0273
G1 X2.387 Y-30.311 E0.0034
G1 X2.440 Y-30.382 E0.0036
G1 X2.492 Y-30.447 E0.0033
G1 X2.935 Y-30.968 E0.0273
G1 X2.992 Y-31.030 E0.0034
G1 X3.054 Y-31.095 E0.0036
G1 X3.114 Y-31.152 E0.0033
G1 X3.620 Y-31.611 E0.0273
G1 X3.684 Y-31.666 E0.0033
G1 X3.754 Y-31.722 E0.0036
G1 X3.820 Y-31.771 E0.0033
G1 X4.380 Y-32.162 E0.0272
G1 X4.449 Y-32.207 E0.0033
G1 X4.526 Y-32.253 E0.0036
G1 X4.599 Y-32.295 E0.0034
G1 X5.206 Y-32.611 E0.0273
G1 X5.280 Y-32.647 E0.0033
G1 X5.362 Y-32.683 E0.0036
G1 X5.440 Y-32.715 E0.0034
G1 X6.082 Y-32.951 E0.0273
G1 X6.160 Y-32.977 E0.0033
G1 X6.246 Y-33.003 E0.0036
G1 X6.327 Y-33.024 E0.0034
G1 X6.992 Y-33.176 E0.0272
G1 X7.068 Y-33.191 E0.0031
G1 X7.150 Y-33.204 E0.0033
G1 X7.228 Y-33.215 E0.0031
G1 X8.046 Y-33.301 E0.0328
G1 X8.115 Y-33.306 E0.0028
G1 X8.188 Y-33.310 E0.0029
G1 X8.255 Y-33.312 E0.0027
G1 X38.149 Y-33.312 E1.1931
G1 X38.206 Y-33.311 E0.0023
G1 X38.269 Y-33.308 E0.0025
G1 X38.329 Y-33.304 E0.0024
G1 X38.823 Y-33.259 E0.0198
G1 X38.865 Y-33.254 E0.0017
G1 X38.914 Y-33.248 E0.0020
G1 X38.961 Y-33.242 E0.0019
G1 X39.618 Y-33.135 E0.0265
G1 X39.701 Y-33.119 E0.0034
G1 X39.788 Y-33.099 E0.0036
G1 X39.868 Y-33.078 E0.0033
